(G-CODE GENERATED BY FLATCAM v8.994 - www.flatcam.org - Version Date: 2020/11/7)

(Name: Gerber_BoardOutlineLayer.GKO_cutout_1_cnc)
(Type: G-code from Geometry)
(Units: MM)

(Created on Thursday, 21 December 2023 at 14:00)

(This preprocessor is the default preprocessor used by FlatCAM.)
(It is made to work with MACH3 compatible motion controllers.)

(TOOL DIAMETER: 0.8 mm)
(Feedrate_XY: 120.0 mm/min)
(Feedrate_Z: 60.0 mm/min)
(Feedrate rapids 1500.0 mm/min)

(Z_Cut: -2.0 mm)
(Z_Move: 2.0 mm)
(Z Start: None mm)
(Z End: 15.0 mm)
(X,Y End: None mm)
(Steps per circle: 64)
(Preprocessor Geometry: default)

(X range:   -0.6271 ...   60.6269  mm)
(Y range:  -40.6270 ...    0.6271  mm)

(Spindle Speed: 0.0 RPM)
G21
G90
G94

G01 F120.00

M5
G00 Z15.0000
G00 X0.0000 Y0.0000
T1
M6    
(MSG, Change to Tool Dia = 0.8000)
M0
G00 Z15.0000

M03
G01 F120.00
G00 X-0.6271 Y-18.5000
G01 F60.00
G01 Z-2.0000
G01 F120.00
G01 X-0.6271 Y-3.0000
G01 X-0.6263 Y-2.9692
G01 X-0.6119 Y-2.6752
G01 X-0.6101 Y-2.6507
G01 X-0.6058 Y-2.6139
G01 X-0.5626 Y-2.3227
G01 X-0.5560 Y-2.2863
G01 X-0.5506 Y-2.2624
G01 X-0.4791 Y-1.9768
G01 X-0.4725 Y-1.9531
G01 X-0.4612 Y-1.9179
G01 X-0.3620 Y-1.6407
G01 X-0.3532 Y-1.6178
G01 X-0.3385 Y-1.5838
G01 X-0.2126 Y-1.3177
G01 X-0.1957 Y-1.2848
G01 X-0.1836 Y-1.2634
G01 X-0.0323 Y-1.0109
G01 X-0.0191 Y-0.9902
G01 X0.0019 Y-0.9597
G01 X0.1773 Y-0.7233
G01 X0.1924 Y-0.7039
G01 X0.2163 Y-0.6757
G01 X0.4141 Y-0.4576
G01 X0.4310 Y-0.4398
G01 X0.4576 Y-0.4141
G01 X0.6757 Y-0.2163
G01 X0.7039 Y-0.1924
G01 X0.7233 Y-0.1773
G01 X0.9597 Y-0.0019
G01 X0.9902 Y0.0191
G01 X1.0109 Y0.0323
G01 X1.2634 Y0.1836
G01 X1.2958 Y0.2016
G01 X1.3177 Y0.2126
G01 X1.5838 Y0.3385
G01 X1.6178 Y0.3532
G01 X1.6407 Y0.3620
G01 X1.9179 Y0.4612
G01 X1.9412 Y0.4689
G01 X1.9768 Y0.4791
G01 X2.2624 Y0.5506
G01 X2.2863 Y0.5560
G01 X2.3227 Y0.5626
G01 X2.6139 Y0.6058
G01 X2.6507 Y0.6101
G01 X2.6752 Y0.6119
G01 X2.9692 Y0.6263
G01 X2.9877 Y0.6269
G01 X28.6999 Y0.6271
G00 Z2.0000
G00 X31.4999 Y0.6271
G01 F60.00
G01 Z-2.0000
G01 F120.00
G01 X57.0121 Y0.6269
G01 X57.0307 Y0.6263
G01 X57.3247 Y0.6119
G01 X57.3492 Y0.6101
G01 X57.3859 Y0.6058
G01 X57.6772 Y0.5626
G01 X57.7136 Y0.5560
G01 X57.7375 Y0.5506
G01 X58.0231 Y0.4791
G01 X58.0587 Y0.4689
G01 X58.0820 Y0.4612
G01 X58.3592 Y0.3620
G01 X58.3936 Y0.3484
G01 X58.4160 Y0.3385
G01 X58.6822 Y0.2126
G01 X58.7151 Y0.1957
G01 X58.7365 Y0.1836
G01 X58.9890 Y0.0323
G01 X59.0097 Y0.0191
G01 X59.0401 Y-0.0019
G01 X59.2766 Y-0.1773
G01 X59.2960 Y-0.1924
G01 X59.3242 Y-0.2163
G01 X59.5423 Y-0.4141
G01 X59.5689 Y-0.4398
G01 X59.5858 Y-0.4576
G01 X59.7835 Y-0.6757
G01 X59.8075 Y-0.7039
G01 X59.8226 Y-0.7233
G01 X59.9980 Y-0.9597
G01 X60.0121 Y-0.9798
G01 X60.0321 Y-1.0109
G01 X60.1835 Y-1.2634
G01 X60.2015 Y-1.2958
G01 X60.2125 Y-1.3177
G01 X60.3384 Y-1.5838
G01 X60.3483 Y-1.6063
G01 X60.3619 Y-1.6407
G01 X60.4611 Y-1.9179
G01 X60.4724 Y-1.9531
G01 X60.4790 Y-1.9768
G01 X60.5505 Y-2.2624
G01 X60.5559 Y-2.2863
G01 X60.5625 Y-2.3227
G01 X60.6057 Y-2.6139
G01 X60.6099 Y-2.6507
G01 X60.6117 Y-2.6752
G01 X60.6262 Y-2.9692
G01 X60.6269 Y-3.0000
G01 X60.6269 Y-18.5000
G00 Z2.0000
G00 X60.6269 Y-21.3000
G01 F60.00
G01 Z-2.0000
G01 F120.00
G01 X60.6269 Y-36.9999
G01 X60.6262 Y-37.0307
G01 X60.6117 Y-37.3247
G01 X60.6099 Y-37.3492
G01 X60.6057 Y-37.3860
G01 X60.5625 Y-37.6772
G01 X60.5559 Y-37.7136
G01 X60.5505 Y-37.7376
G01 X60.4790 Y-38.0231
G01 X60.4688 Y-38.0587
G01 X60.4611 Y-38.0820
G01 X60.3619 Y-38.3592
G01 X60.3483 Y-38.3936
G01 X60.3384 Y-38.4161
G01 X60.2125 Y-38.6822
G01 X60.2015 Y-38.7041
G01 X60.1835 Y-38.7365
G01 X60.0321 Y-38.9890
G01 X60.0121 Y-39.0201
G01 X59.9980 Y-39.0402
G01 X59.8226 Y-39.2766
G01 X59.8075 Y-39.2960
G01 X59.7835 Y-39.3242
G01 X59.5858 Y-39.5424
G01 X59.5689 Y-39.5601
G01 X59.5423 Y-39.5859
G01 X59.3242 Y-39.7836
G01 X59.3056 Y-39.7996
G01 X59.2766 Y-39.8226
G01 X59.0401 Y-39.9980
G01 X59.0097 Y-40.0191
G01 X58.9890 Y-40.0322
G01 X58.7365 Y-40.1835
G01 X58.7041 Y-40.2015
G01 X58.6822 Y-40.2125
G01 X58.4160 Y-40.3384
G01 X58.3821 Y-40.3531
G01 X58.3592 Y-40.3620
G01 X58.0820 Y-40.4611
G01 X58.0587 Y-40.4688
G01 X58.0231 Y-40.4790
G01 X57.7375 Y-40.5505
G01 X57.7013 Y-40.5584
G01 X57.6772 Y-40.5626
G01 X57.3859 Y-40.6058
G01 X57.3492 Y-40.6100
G01 X57.3247 Y-40.6118
G01 X57.0307 Y-40.6262
G01 X57.0121 Y-40.6268
G01 X31.4999 Y-40.6270
G00 Z2.0000
G00 X28.6999 Y-40.6270
G01 F60.00
G01 Z-2.0000
G01 F120.00
G01 X2.9877 Y-40.6268
G01 X2.9692 Y-40.6262
G01 X2.6752 Y-40.6118
G01 X2.6507 Y-40.6100
G01 X2.6139 Y-40.6058
G01 X2.3227 Y-40.5626
G01 X2.2985 Y-40.5584
G01 X2.2624 Y-40.5505
G01 X1.9768 Y-40.4790
G01 X1.9412 Y-40.4688
G01 X1.9179 Y-40.4611
G01 X1.6407 Y-40.3620
G01 X1.6178 Y-40.3531
G01 X1.5838 Y-40.3384
G01 X1.3177 Y-40.2125
G01 X1.2958 Y-40.2015
G01 X1.2634 Y-40.1835
G01 X1.0109 Y-40.0322
G01 X0.9902 Y-40.0191
G01 X0.9597 Y-39.9980
G01 X0.7233 Y-39.8226
G01 X0.6943 Y-39.7996
G01 X0.6757 Y-39.7836
G01 X0.4576 Y-39.5859
G01 X0.4398 Y-39.5689
G01 X0.4141 Y-39.5424
G01 X0.2163 Y-39.3242
G01 X0.2003 Y-39.3056
G01 X0.1773 Y-39.2766
G01 X0.0019 Y-39.0402
G01 X-0.0122 Y-39.0201
G01 X-0.0323 Y-38.9890
G01 X-0.1836 Y-38.7365
G01 X-0.1957 Y-38.7151
G01 X-0.2126 Y-38.6822
G01 X-0.3385 Y-38.4161
G01 X-0.3484 Y-38.3936
G01 X-0.3620 Y-38.3592
G01 X-0.4612 Y-38.0820
G01 X-0.4689 Y-38.0587
G01 X-0.4791 Y-38.0231
G01 X-0.5506 Y-37.7376
G01 X-0.5560 Y-37.7136
G01 X-0.5626 Y-37.6772
G01 X-0.6058 Y-37.3860
G01 X-0.6101 Y-37.3492
G01 X-0.6119 Y-37.3247
G01 X-0.6263 Y-37.0307
G01 X-0.6271 Y-36.9999
G01 X-0.6271 Y-21.3000
G00 Z2.0000
M05
G00 Z2.0000
G00 Z15.00


