(G-CODE GENERATED BY FLATCAM v8.994 - www.flatcam.org - Version Date: 2020/11/7)

(Name: Drill_NPTH_Through.DRL_mill_cnc)
(Type: G-code from Geometry)
(Units: MM)

(Created on Thursday, 21 December 2023 at 14:01)

(This preprocessor is the default preprocessor used by FlatCAM.)
(It is made to work with MACH3 compatible motion controllers.)

(TOOL DIAMETER: 0.8 mm)
(Feedrate_XY: 100.0 mm/min)
(Feedrate_Z: 60.0 mm/min)
(Feedrate rapids 1500.0 mm/min)

(Z_Cut: -2.0 mm)
(Z_Move: 2.0 mm)
(Z Start: None mm)
(Z End: 15.0 mm)
(X,Y End: None mm)
(Steps per circle: 64)
(Preprocessor Geometry: default)

(X range:    1.9000 ...   58.1000  mm)
(Y range:  -38.1000 ...   -1.9000  mm)

(Spindle Speed: 0.0 RPM)
G21
G90
G94

G01 F100.00

M5
G00 Z15.0000
G00 X0.0000 Y0.0000
T1
M6    
(MSG, Change to Tool Dia = 0.8000)
M0
G00 Z15.0000

M03
G01 F100.00
G00 X4.1000 Y-3.0000
G01 F60.00
G01 Z-2.0000
G01 F100.00
G01 X4.0947 Y-3.1078
G01 X4.0789 Y-3.2146
G01 X4.0526 Y-3.3193
G01 X4.0163 Y-3.4210
G01 X3.9701 Y-3.5185
G01 X3.9146 Y-3.6111
G01 X3.8503 Y-3.6978
G01 X3.7778 Y-3.7778
G01 X3.6978 Y-3.8503
G01 X3.6111 Y-3.9146
G01 X3.5185 Y-3.9701
G01 X3.4210 Y-4.0163
G01 X3.3193 Y-4.0526
G01 X3.2146 Y-4.0789
G01 X3.1078 Y-4.0947
G01 X3.0000 Y-4.1000
G01 X2.8922 Y-4.0947
G01 X2.7854 Y-4.0789
G01 X2.6807 Y-4.0526
G01 X2.5790 Y-4.0163
G01 X2.4815 Y-3.9701
G01 X2.3889 Y-3.9146
G01 X2.3022 Y-3.8503
G01 X2.2222 Y-3.7778
G01 X2.1497 Y-3.6978
G01 X2.0854 Y-3.6111
G01 X2.0299 Y-3.5185
G01 X1.9837 Y-3.4210
G01 X1.9474 Y-3.3193
G01 X1.9211 Y-3.2146
G01 X1.9053 Y-3.1078
G01 X1.9000 Y-3.0000
G01 X1.9053 Y-2.8922
G01 X1.9211 Y-2.7854
G01 X1.9474 Y-2.6807
G01 X1.9837 Y-2.5790
G01 X2.0299 Y-2.4815
G01 X2.0854 Y-2.3889
G01 X2.1497 Y-2.3022
G01 X2.2222 Y-2.2222
G01 X2.3022 Y-2.1497
G01 X2.3889 Y-2.0854
G01 X2.4815 Y-2.0299
G01 X2.5790 Y-1.9837
G01 X2.6807 Y-1.9474
G01 X2.7854 Y-1.9211
G01 X2.8922 Y-1.9053
G01 X3.0000 Y-1.9000
G01 X3.1078 Y-1.9053
G01 X3.2146 Y-1.9211
G01 X3.3193 Y-1.9474
G01 X3.4210 Y-1.9837
G01 X3.5185 Y-2.0299
G01 X3.6111 Y-2.0854
G01 X3.6978 Y-2.1497
G01 X3.7778 Y-2.2222
G01 X3.8503 Y-2.3022
G01 X3.9146 Y-2.3889
G01 X3.9701 Y-2.4815
G01 X4.0163 Y-2.5790
G01 X4.0526 Y-2.6807
G01 X4.0789 Y-2.7854
G01 X4.0947 Y-2.8922
G01 X4.1000 Y-3.0000
G00 Z2.0000
G00 X21.1000 Y-37.0000
G01 F60.00
G01 Z-2.0000
G01 F100.00
G01 X21.0947 Y-37.1078
G01 X21.0789 Y-37.2146
G01 X21.0526 Y-37.3193
G01 X21.0163 Y-37.4210
G01 X20.9701 Y-37.5185
G01 X20.9146 Y-37.6111
G01 X20.8503 Y-37.6978
G01 X20.7778 Y-37.7778
G01 X20.6978 Y-37.8503
G01 X20.6111 Y-37.9146
G01 X20.5185 Y-37.9701
G01 X20.4210 Y-38.0163
G01 X20.3193 Y-38.0526
G01 X20.2146 Y-38.0789
G01 X20.1078 Y-38.0947
G01 X20.0000 Y-38.1000
G01 X19.8922 Y-38.0947
G01 X19.7854 Y-38.0789
G01 X19.6807 Y-38.0526
G01 X19.5790 Y-38.0163
G01 X19.4815 Y-37.9701
G01 X19.3889 Y-37.9146
G01 X19.3022 Y-37.8503
G01 X19.2222 Y-37.7778
G01 X19.1497 Y-37.6978
G01 X19.0854 Y-37.6111
G01 X19.0299 Y-37.5185
G01 X18.9837 Y-37.4210
G01 X18.9474 Y-37.3193
G01 X18.9211 Y-37.2146
G01 X18.9053 Y-37.1078
G01 X18.9000 Y-37.0000
G01 X18.9053 Y-36.8922
G01 X18.9211 Y-36.7854
G01 X18.9474 Y-36.6807
G01 X18.9837 Y-36.5790
G01 X19.0299 Y-36.4815
G01 X19.0854 Y-36.3889
G01 X19.1497 Y-36.3022
G01 X19.2222 Y-36.2222
G01 X19.3022 Y-36.1497
G01 X19.3889 Y-36.0854
G01 X19.4815 Y-36.0299
G01 X19.5790 Y-35.9837
G01 X19.6807 Y-35.9474
G01 X19.7854 Y-35.9211
G01 X19.8922 Y-35.9053
G01 X20.0000 Y-35.9000
G01 X20.1078 Y-35.9053
G01 X20.2146 Y-35.9211
G01 X20.3193 Y-35.9474
G01 X20.4210 Y-35.9837
G01 X20.5185 Y-36.0299
G01 X20.6111 Y-36.0854
G01 X20.6978 Y-36.1497
G01 X20.7778 Y-36.2222
G01 X20.8503 Y-36.3022
G01 X20.9146 Y-36.3889
G01 X20.9701 Y-36.4815
G01 X21.0163 Y-36.5790
G01 X21.0526 Y-36.6807
G01 X21.0789 Y-36.7854
G01 X21.0947 Y-36.8922
G01 X21.1000 Y-37.0000
G00 Z2.0000
G00 X58.1000 Y-3.0000
G01 F60.00
G01 Z-2.0000
G01 F100.00
G01 X58.0947 Y-3.1078
G01 X58.0789 Y-3.2146
G01 X58.0526 Y-3.3193
G01 X58.0163 Y-3.4210
G01 X57.9701 Y-3.5185
G01 X57.9146 Y-3.6111
G01 X57.8503 Y-3.6978
G01 X57.7778 Y-3.7778
G01 X57.6978 Y-3.8503
G01 X57.6111 Y-3.9146
G01 X57.5185 Y-3.9701
G01 X57.4210 Y-4.0163
G01 X57.3193 Y-4.0526
G01 X57.2146 Y-4.0789
G01 X57.1078 Y-4.0947
G01 X57.0000 Y-4.1000
G01 X56.8922 Y-4.0947
G01 X56.7854 Y-4.0789
G01 X56.6807 Y-4.0526
G01 X56.5790 Y-4.0163
G01 X56.4815 Y-3.9701
G01 X56.3889 Y-3.9146
G01 X56.3022 Y-3.8503
G01 X56.2222 Y-3.7778
G01 X56.1497 Y-3.6978
G01 X56.0854 Y-3.6111
G01 X56.0299 Y-3.5185
G01 X55.9837 Y-3.4210
G01 X55.9474 Y-3.3193
G01 X55.9211 Y-3.2146
G01 X55.9053 Y-3.1078
G01 X55.9000 Y-3.0000
G01 X55.9053 Y-2.8922
G01 X55.9211 Y-2.7854
G01 X55.9474 Y-2.6807
G01 X55.9837 Y-2.5790
G01 X56.0299 Y-2.4815
G01 X56.0854 Y-2.3889
G01 X56.1497 Y-2.3022
G01 X56.2222 Y-2.2222
G01 X56.3022 Y-2.1497
G01 X56.3889 Y-2.0854
G01 X56.4815 Y-2.0299
G01 X56.5790 Y-1.9837
G01 X56.6807 Y-1.9474
G01 X56.7854 Y-1.9211
G01 X56.8922 Y-1.9053
G01 X57.0000 Y-1.9000
G01 X57.1078 Y-1.9053
G01 X57.2146 Y-1.9211
G01 X57.3193 Y-1.9474
G01 X57.4210 Y-1.9837
G01 X57.5185 Y-2.0299
G01 X57.6111 Y-2.0854
G01 X57.6978 Y-2.1497
G01 X57.7778 Y-2.2222
G01 X57.8503 Y-2.3022
G01 X57.9146 Y-2.3889
G01 X57.9701 Y-2.4815
G01 X58.0163 Y-2.5790
G01 X58.0526 Y-2.6807
G01 X58.0789 Y-2.7854
G01 X58.0947 Y-2.8922
G01 X58.1000 Y-3.0000
G00 Z2.0000
M05
G00 Z2.0000
G00 Z15.00


