(G-CODE GENERATED BY FLATCAM v8.994 - www.flatcam.org - Version Date: 2020/11/7)

(Name: Drill_PTH_Through.DRL_cnc)
(Type: G-code from Geometry)
(Units: MM)

(Created on Thursday, 21 December 2023 at 13:54)



G01 F300.00

M5      
G00 X0.0000 Y0.0000 Z15.0000
T1
M6
(MSG, Change to Tool Dia = 0.8000 ||| Total drills for tool T1 = 61)
M0
G01 F300.00
M03
G00 X12.7000 Y-29.9669 Z2.0000
G01 X12.7000 Y-29.9669 Z-2.0000
G01 X12.7000 Y-29.9669 Z0
G00 X12.7000 Y-29.9669 Z2.0000
G00 X12.7000 Y-29.9669 Z2.0000
G01 X12.7000 Y-29.9669 Z-2.0000
G01 X12.7000 Y-29.9669 Z0
G00 X12.7000 Y-29.9669 Z2.0000
G00 X12.7000 Y-32.5069 Z2.0000
G01 X12.7000 Y-32.5069 Z-2.0000
G01 X12.7000 Y-32.5069 Z0
G00 X12.7000 Y-32.5069 Z2.0000
G00 X12.7000 Y-35.0469 Z2.0000
G01 X12.7000 Y-35.0469 Z-2.0000
G01 X12.7000 Y-35.0469 Z0
G00 X12.7000 Y-35.0469 Z2.0000
G00 X12.7000 Y-37.5869 Z2.0000
G01 X12.7000 Y-37.5869 Z-2.0000
G01 X12.7000 Y-37.5869 Z0
G00 X12.7000 Y-37.5869 Z2.0000
G00 X5.0800 Y-37.5869 Z2.0000
G01 X5.0800 Y-37.5869 Z-2.0000
G01 X5.0800 Y-37.5869 Z0
G00 X5.0800 Y-37.5869 Z2.0000
G00 X5.0800 Y-35.0469 Z2.0000
G01 X5.0800 Y-35.0469 Z-2.0000
G01 X5.0800 Y-35.0469 Z0
G00 X5.0800 Y-35.0469 Z2.0000
G00 X5.0800 Y-32.5069 Z2.0000
G01 X5.0800 Y-32.5069 Z-2.0000
G01 X5.0800 Y-32.5069 Z0
G00 X5.0800 Y-32.5069 Z2.0000
G00 X5.0800 Y-29.9669 Z2.0000
G01 X5.0800 Y-29.9669 Z-2.0000
G01 X5.0800 Y-29.9669 Z0
G00 X5.0800 Y-29.9669 Z2.0000
G00 X4.4450 Y-25.1019 Z2.0000
G01 X4.4450 Y-25.1019 Z-2.0000
G01 X4.4450 Y-25.1019 Z0
G00 X4.4450 Y-25.1019 Z2.0000
G00 X4.4450 Y-20.0999 Z2.0000
G01 X4.4450 Y-20.0999 Z-2.0000
G01 X4.4450 Y-20.0999 Z0
G00 X4.4450 Y-20.0999 Z2.0000
G00 X4.5720 Y-13.6719 Z2.0000
G01 X4.5720 Y-13.6719 Z-2.0000
G01 X4.5720 Y-13.6719 Z0
G00 X4.5720 Y-13.6719 Z2.0000
G00 X4.5720 Y-8.6699 Z2.0000
G01 X4.5720 Y-8.6699 Z-2.0000
G01 X4.5720 Y-8.6699 Z0
G00 X4.5720 Y-8.6699 Z2.0000
G00 X10.7000 Y-4.9999 Z2.0000
G01 X10.7000 Y-4.9999 Z-2.0000
G01 X10.7000 Y-4.9999 Z0
G00 X10.7000 Y-4.9999 Z2.0000
G00 X16.3000 Y-4.9999 Z2.0000
G01 X16.3000 Y-4.9999 Z-2.0000
G01 X16.3000 Y-4.9999 Z0
G00 X16.3000 Y-4.9999 Z2.0000
G00 X25.9400 Y-4.9999 Z2.0000
G01 X25.9400 Y-4.9999 Z-2.0000
G01 X25.9400 Y-4.9999 Z0
G00 X25.9400 Y-4.9999 Z2.0000
G00 X31.5400 Y-4.9999 Z2.0000
G01 X31.5400 Y-4.9999 Z-2.0000
G01 X31.5400 Y-4.9999 Z0
G00 X31.5400 Y-4.9999 Z2.0000
G00 X32.4450 Y-12.3139 Z2.0000
G01 X32.4450 Y-12.3139 Z-2.0000
G01 X32.4450 Y-12.3139 Z0
G00 X32.4450 Y-12.3139 Z2.0000
G00 X34.9450 Y-12.3139 Z2.0000
G01 X34.9450 Y-12.3139 Z-2.0000
G01 X34.9450 Y-12.3139 Z0
G00 X34.9450 Y-12.3139 Z2.0000
G00 X37.4450 Y-12.3139 Z2.0000
G01 X37.4450 Y-12.3139 Z-2.0000
G01 X37.4450 Y-12.3139 Z0
G00 X37.4450 Y-12.3139 Z2.0000
G00 X39.9450 Y-12.3139 Z2.0000
G01 X39.9450 Y-12.3139 Z-2.0000
G01 X39.9450 Y-12.3139 Z0
G00 X39.9450 Y-12.3139 Z2.0000
G00 X40.0050 Y-17.1399 Z2.0000
G01 X40.0050 Y-17.1399 Z-2.0000
G01 X40.0050 Y-17.1399 Z0
G00 X40.0050 Y-17.1399 Z2.0000
G00 X37.4650 Y-17.1399 Z2.0000
G01 X37.4650 Y-17.1399 Z-2.0000
G01 X37.4650 Y-17.1399 Z0
G00 X37.4650 Y-17.1399 Z2.0000
G00 X34.9250 Y-17.1399 Z2.0000
G01 X34.9250 Y-17.1399 Z-2.0000
G01 X34.9250 Y-17.1399 Z0
G00 X34.9250 Y-17.1399 Z2.0000
G00 X32.3850 Y-17.1399 Z2.0000
G01 X32.3850 Y-17.1399 Z-2.0000
G01 X32.3850 Y-17.1399 Z0
G00 X32.3850 Y-17.1399 Z2.0000
G00 X29.8450 Y-17.1399 Z2.0000
G01 X29.8450 Y-17.1399 Z-2.0000
G01 X29.8450 Y-17.1399 Z0
G00 X29.8450 Y-17.1399 Z2.0000
G00 X27.3050 Y-17.1399 Z2.0000
G01 X27.3050 Y-17.1399 Z-2.0000
G01 X27.3050 Y-17.1399 Z0
G00 X27.3050 Y-17.1399 Z2.0000
G00 X24.7650 Y-17.1399 Z2.0000
G01 X24.7650 Y-17.1399 Z-2.0000
G01 X24.7650 Y-17.1399 Z0
G00 X24.7650 Y-17.1399 Z2.0000
G00 X22.2250 Y-17.1399 Z2.0000
G01 X22.2250 Y-17.1399 Z-2.0000
G01 X22.2250 Y-17.1399 Z0
G00 X22.2250 Y-17.1399 Z2.0000
G00 X19.6850 Y-17.1399 Z2.0000
G01 X19.6850 Y-17.1399 Z-2.0000
G01 X19.6850 Y-17.1399 Z0
G00 X19.6850 Y-17.1399 Z2.0000
G00 X19.6850 Y-32.3799 Z2.0000
G01 X19.6850 Y-32.3799 Z-2.0000
G01 X19.6850 Y-32.3799 Z0
G00 X19.6850 Y-32.3799 Z2.0000
G00 X22.2250 Y-32.3799 Z2.0000
G01 X22.2250 Y-32.3799 Z-2.0000
G01 X22.2250 Y-32.3799 Z0
G00 X22.2250 Y-32.3799 Z2.0000
G00 X24.7650 Y-32.3799 Z2.0000
G01 X24.7650 Y-32.3799 Z-2.0000
G01 X24.7650 Y-32.3799 Z0
G00 X24.7650 Y-32.3799 Z2.0000
G00 X27.3050 Y-32.3799 Z2.0000
G01 X27.3050 Y-32.3799 Z-2.0000
G01 X27.3050 Y-32.3799 Z0
G00 X27.3050 Y-32.3799 Z2.0000
G00 X29.8450 Y-32.3799 Z2.0000
G01 X29.8450 Y-32.3799 Z-2.0000
G01 X29.8450 Y-32.3799 Z0
G00 X29.8450 Y-32.3799 Z2.0000
G00 X32.3850 Y-32.3799 Z2.0000
G01 X32.3850 Y-32.3799 Z-2.0000
G01 X32.3850 Y-32.3799 Z0
G00 X32.3850 Y-32.3799 Z2.0000
G00 X34.9250 Y-32.3799 Z2.0000
G01 X34.9250 Y-32.3799 Z-2.0000
G01 X34.9250 Y-32.3799 Z0
G00 X34.9250 Y-32.3799 Z2.0000
G00 X37.4650 Y-32.3799 Z2.0000
G01 X37.4650 Y-32.3799 Z-2.0000
G01 X37.4650 Y-32.3799 Z0
G00 X37.4650 Y-32.3799 Z2.0000
G00 X40.0050 Y-32.3799 Z2.0000
G01 X40.0050 Y-32.3799 Z-2.0000
G01 X40.0050 Y-32.3799 Z0
G00 X40.0050 Y-32.3799 Z2.0000
G00 X42.5450 Y-32.3799 Z2.0000
G01 X42.5450 Y-32.3799 Z-2.0000
G01 X42.5450 Y-32.3799 Z0
G00 X42.5450 Y-32.3799 Z2.0000
G00 X45.0850 Y-32.3799 Z2.0000
G01 X45.0850 Y-32.3799 Z-2.0000
G01 X45.0850 Y-32.3799 Z0
G00 X45.0850 Y-32.3799 Z2.0000
G00 X47.6250 Y-32.3799 Z2.0000
G01 X47.6250 Y-32.3799 Z-2.0000
G01 X47.6250 Y-32.3799 Z0
G00 X47.6250 Y-32.3799 Z2.0000
G00 X50.1650 Y-32.3799 Z2.0000
G01 X50.1650 Y-32.3799 Z-2.0000
G01 X50.1650 Y-32.3799 Z0
G00 X50.1650 Y-32.3799 Z2.0000
G00 X52.7050 Y-32.3799 Z2.0000
G01 X52.7050 Y-32.3799 Z-2.0000
G01 X52.7050 Y-32.3799 Z0
G00 X52.7050 Y-32.3799 Z2.0000
G00 X55.2450 Y-32.3799 Z2.0000
G01 X55.2450 Y-32.3799 Z-2.0000
G01 X55.2450 Y-32.3799 Z0
G00 X55.2450 Y-32.3799 Z2.0000
G00 X50.7500 Y-36.8249 Z2.0000
G01 X50.7500 Y-36.8249 Z-2.0000
G01 X50.7500 Y-36.8249 Z0
G00 X50.7500 Y-36.8249 Z2.0000
G00 X48.2500 Y-36.8249 Z2.0000
G01 X48.2500 Y-36.8249 Z-2.0000
G01 X48.2500 Y-36.8249 Z0
G00 X48.2500 Y-36.8249 Z2.0000
G00 X45.7500 Y-36.8249 Z2.0000
G01 X45.7500 Y-36.8249 Z-2.0000
G01 X45.7500 Y-36.8249 Z0
G00 X45.7500 Y-36.8249 Z2.0000
G00 X43.2500 Y-36.8249 Z2.0000
G01 X43.2500 Y-36.8249 Z-2.0000
G01 X43.2500 Y-36.8249 Z0
G00 X43.2500 Y-36.8249 Z2.0000
G00 X37.4250 Y-36.8249 Z2.0000
G01 X37.4250 Y-36.8249 Z-2.0000
G01 X37.4250 Y-36.8249 Z0
G00 X37.4250 Y-36.8249 Z2.0000
G00 X34.9250 Y-36.8249 Z2.0000
G01 X34.9250 Y-36.8249 Z-2.0000
G01 X34.9250 Y-36.8249 Z0
G00 X34.9250 Y-36.8249 Z2.0000
G00 X32.4250 Y-36.8249 Z2.0000
G01 X32.4250 Y-36.8249 Z-2.0000
G01 X32.4250 Y-36.8249 Z0
G00 X32.4250 Y-36.8249 Z2.0000
G00 X42.5450 Y-17.1399 Z2.0000
G01 X42.5450 Y-17.1399 Z-2.0000
G01 X42.5450 Y-17.1399 Z0
G00 X42.5450 Y-17.1399 Z2.0000
G00 X45.0850 Y-17.1399 Z2.0000
G01 X45.0850 Y-17.1399 Z-2.0000
G01 X45.0850 Y-17.1399 Z0
G00 X45.0850 Y-17.1399 Z2.0000
G00 X47.6250 Y-17.1399 Z2.0000
G01 X47.6250 Y-17.1399 Z-2.0000
G01 X47.6250 Y-17.1399 Z0
G00 X47.6250 Y-17.1399 Z2.0000
G00 X50.1650 Y-17.1399 Z2.0000
G01 X50.1650 Y-17.1399 Z-2.0000
G01 X50.1650 Y-17.1399 Z0
G00 X50.1650 Y-17.1399 Z2.0000
G00 X52.7050 Y-17.1399 Z2.0000
G01 X52.7050 Y-17.1399 Z-2.0000
G01 X52.7050 Y-17.1399 Z0
G00 X52.7050 Y-17.1399 Z2.0000
G00 X55.2450 Y-17.1399 Z2.0000
G01 X55.2450 Y-17.1399 Z-2.0000
G01 X55.2450 Y-17.1399 Z0
G00 X55.2450 Y-17.1399 Z2.0000
G00 X52.1970 Y-9.5199 Z2.0000
G01 X52.1970 Y-9.5199 Z-2.0000
G01 X52.1970 Y-9.5199 Z0
G00 X52.1970 Y-9.5199 Z2.0000
G00 X52.1970 Y-6.9799 Z2.0000
G01 X52.1970 Y-6.9799 Z-2.0000
G01 X52.1970 Y-6.9799 Z0
G00 X52.1970 Y-6.9799 Z2.0000
G00 X46.4820 Y-6.9799 Z2.0000
G01 X46.4820 Y-6.9799 Z-2.0000
G01 X46.4820 Y-6.9799 Z0
G00 X46.4820 Y-6.9799 Z2.0000
G00 X46.4820 Y-9.5199 Z2.0000
G01 X46.4820 Y-9.5199 Z-2.0000
G01 X46.4820 Y-9.5199 Z0
G00 X46.4820 Y-9.5199 Z2.0000
M05
G00 X0.0000 Y0.0000 Z0.5000

