(G-CODE GENERATED BY FLATCAM v8.994 - www.flatcam.org - Version Date: 2020/11/7)

(Name: Gerber_BottomLayer.GBL_iso_combined_1_cnc)
(Type: G-code from Geometry)
(Units: MM)

(Created on Thursday, 21 December 2023 at 13:34)

(This preprocessor is the default preprocessor used by FlatCAM.)
(It is made to work with MACH3 compatible motion controllers.)

(TOOL DIAMETER: 0.5 mm)
(Feedrate_XY: 120.0 mm/min)
(Feedrate_Z: 60.0 mm/min)
(Feedrate rapids 1500.0 mm/min)

(Z_Cut: -0.2 mm)
(Z_Move: 2.0 mm)
(Z Start: None mm)
(Z End: 15.0 mm)
(X,Y End: None mm)
(Steps per circle: 64)
(Preprocessor Geometry: default)

(X range:   -0.2506 ...   59.9908  mm)
(Y range:  -40.2556 ...   -0.0091  mm)

(Spindle Speed: 0.0 RPM)
G21
G90
G94

G01 F120.00

M5
G00 Z15.0000
G00 X0.0000 Y0.0000
T1
M6    
(MSG, Change to Tool Dia = 0.5000)
M0
G00 Z15.0000

M03
G01 F120.00
G00 X3.0514 Y-8.9351
G01 F60.00
G01 Z-0.2000
G01 F120.00
G01 X3.0517 Y-8.9474
G01 X3.0578 Y-9.0719
G01 X3.0587 Y-9.0841
G01 X3.0602 Y-9.0963
G01 X3.0785 Y-9.2197
G01 X3.0806 Y-9.2318
G01 X3.0833 Y-9.2437
G01 X3.1136 Y-9.3647
G01 X3.1168 Y-9.3765
G01 X3.1207 Y-9.3882
G01 X3.1627 Y-9.5056
G01 X3.1671 Y-9.5170
G01 X3.1721 Y-9.5282
G01 X3.2254 Y-9.6410
G01 X3.2309 Y-9.6519
G01 X3.2370 Y-9.6626
G01 X3.3011 Y-9.7695
G01 X3.3076 Y-9.7799
G01 X3.3147 Y-9.7899
G01 X3.3890 Y-9.8901
G01 X3.3965 Y-9.8998
G01 X3.4045 Y-9.9091
G01 X3.4883 Y-10.0015
G01 X3.4967 Y-10.0103
G01 X3.5056 Y-10.0188
G01 X3.5980 Y-10.1025
G01 X3.6073 Y-10.1106
G01 X3.6170 Y-10.1181
G01 X3.7171 Y-10.1924
G01 X3.7272 Y-10.1995
G01 X3.7375 Y-10.2060
G01 X3.8445 Y-10.2701
G01 X3.8552 Y-10.2762
G01 X3.8661 Y-10.2817
G01 X3.9789 Y-10.3350
G01 X3.9901 Y-10.3400
G01 X4.0015 Y-10.3444
G01 X4.1247 Y-10.3884
G01 X4.1424 Y-10.3935
G01 X4.2634 Y-10.4238
G01 X4.2753 Y-10.4265
G01 X4.2874 Y-10.4286
G01 X4.4108 Y-10.4469
G01 X4.4230 Y-10.4484
G01 X4.4352 Y-10.4493
G01 X4.5659 Y-10.4557
G01 X7.0296 Y-10.4557
G01 X7.0418 Y-10.4554
G01 X7.1664 Y-10.4493
G01 X7.1786 Y-10.4484
G01 X7.1908 Y-10.4469
G01 X7.3141 Y-10.4286
G01 X7.3262 Y-10.4265
G01 X7.3382 Y-10.4238
G01 X7.4592 Y-10.3935
G01 X7.4768 Y-10.3884
G01 X7.6000 Y-10.3444
G01 X7.6115 Y-10.3400
G01 X7.6227 Y-10.3350
G01 X7.7354 Y-10.2817
G01 X7.7464 Y-10.2762
G01 X7.7571 Y-10.2701
G01 X7.8640 Y-10.2060
G01 X7.8744 Y-10.1995
G01 X7.8844 Y-10.1924
G01 X7.9846 Y-10.1181
G01 X7.9943 Y-10.1106
G01 X8.0035 Y-10.1025
G01 X8.1004 Y-10.0146
G01 X11.3297 Y-6.7854
G01 X16.3002 Y-6.7854
G01 X16.3125 Y-6.7851
G01 X16.4370 Y-6.7790
G01 X16.4492 Y-6.7781
G01 X16.4614 Y-6.7766
G01 X16.5848 Y-6.7583
G01 X16.5969 Y-6.7562
G01 X16.6088 Y-6.7535
G01 X16.7298 Y-6.7232
G01 X16.7416 Y-6.7199
G01 X16.7533 Y-6.7161
G01 X16.8707 Y-6.6741
G01 X16.8821 Y-6.6697
G01 X16.8933 Y-6.6647
G01 X17.0061 Y-6.6114
G01 X17.0170 Y-6.6059
G01 X17.0277 Y-6.5998
G01 X17.1399 Y-6.5325
G01 X17.1550 Y-6.5221
G01 X17.2552 Y-6.4478
G01 X17.2649 Y-6.4403
G01 X17.2742 Y-6.4322
G01 X17.3666 Y-6.3485
G01 X17.3754 Y-6.3400
G01 X17.3839 Y-6.3311
G01 X17.4676 Y-6.2388
G01 X17.4757 Y-6.2295
G01 X17.4832 Y-6.2198
G01 X17.5575 Y-6.1196
G01 X17.5646 Y-6.1096
G01 X17.5711 Y-6.0992
G01 X17.6352 Y-5.9923
G01 X17.6413 Y-5.9816
G01 X17.6468 Y-5.9706
G01 X17.7001 Y-5.8579
G01 X17.7051 Y-5.8467
G01 X17.7095 Y-5.8353
G01 X17.7515 Y-5.7179
G01 X17.7553 Y-5.7062
G01 X17.7586 Y-5.6944
G01 X17.7903 Y-5.5674
G01 X17.7937 Y-5.5494
G01 X17.8120 Y-5.4260
G01 X17.8135 Y-5.4138
G01 X17.8144 Y-5.4016
G01 X17.8207 Y-5.2709
G01 X17.8206 Y-4.3746
G01 X17.8143 Y-4.2439
G01 X17.8134 Y-4.2317
G01 X17.8119 Y-4.2195
G01 X17.7936 Y-4.0961
G01 X17.7915 Y-4.0841
G01 X17.7888 Y-4.0721
G01 X17.7585 Y-3.9511
G01 X17.7534 Y-3.9335
G01 X17.7094 Y-3.8102
G01 X17.7049 Y-3.7988
G01 X17.7000 Y-3.7876
G01 X17.6467 Y-3.6749
G01 X17.6411 Y-3.6639
G01 X17.6351 Y-3.6532
G01 X17.5710 Y-3.5463
G01 X17.5644 Y-3.5359
G01 X17.5574 Y-3.5259
G01 X17.4831 Y-3.4257
G01 X17.4755 Y-3.4160
G01 X17.4675 Y-3.4067
G01 X17.3838 Y-3.3144
G01 X17.3753 Y-3.3055
G01 X15.4133 Y-1.3435
G01 X15.4044 Y-1.3350
G01 X15.3120 Y-1.2513
G01 X15.3028 Y-1.2433
G01 X15.2931 Y-1.2357
G01 X15.1929 Y-1.1614
G01 X15.1829 Y-1.1544
G01 X15.1725 Y-1.1478
G01 X15.0656 Y-1.0837
G01 X15.0549 Y-1.0776
G01 X15.0439 Y-1.0721
G01 X14.9312 Y-1.0188
G01 X14.9200 Y-1.0138
G01 X14.9085 Y-1.0094
G01 X14.7911 Y-0.9674
G01 X14.7795 Y-0.9636
G01 X14.7677 Y-0.9603
G01 X14.6467 Y-0.9300
G01 X14.6347 Y-0.9273
G01 X14.6226 Y-0.9252
G01 X14.4993 Y-0.9069
G01 X14.4871 Y-0.9054
G01 X14.4749 Y-0.9045
G01 X14.3503 Y-0.8984
G01 X14.3381 Y-0.8981
G01 X14.3258 Y-0.8984
G01 X14.2013 Y-0.9045
G01 X14.1890 Y-0.9054
G01 X14.1768 Y-0.9069
G01 X14.0558 Y-0.9249
G01 X13.9601 Y-0.9106
G01 X13.9203 Y-0.8918
G01 X13.9033 Y-0.8846
G01 X13.7744 Y-0.8384
G01 X13.7567 Y-0.8333
G01 X13.6298 Y-0.8016
G01 X13.6117 Y-0.7982
G01 X13.4883 Y-0.7799
G01 X13.4762 Y-0.7784
G01 X13.4639 Y-0.7775
G01 X13.3333 Y-0.7712
G01 X9.2649 Y-0.7712
G01 X9.1342 Y-0.7775
G01 X9.1220 Y-0.7784
G01 X9.1098 Y-0.7799
G01 X8.9864 Y-0.7982
G01 X8.9743 Y-0.8003
G01 X8.9624 Y-0.8030
G01 X8.8414 Y-0.8333
G01 X8.8237 Y-0.8384
G01 X8.7005 Y-0.8824
G01 X8.6891 Y-0.8868
G01 X8.6779 Y-0.8918
G01 X8.5651 Y-0.9451
G01 X8.5542 Y-0.9506
G01 X8.5435 Y-0.9567
G01 X8.4365 Y-1.0208
G01 X8.4262 Y-1.0274
G01 X8.4161 Y-1.0344
G01 X8.3160 Y-1.1087
G01 X8.3063 Y-1.1162
G01 X8.2970 Y-1.1243
G01 X8.2046 Y-1.2080
G01 X8.1957 Y-1.2165
G01 X5.6547 Y-3.7575
G01 X5.6429 Y-3.7614
G01 X5.5255 Y-3.8034
G01 X5.5141 Y-3.8078
G01 X5.5029 Y-3.8128
G01 X5.3901 Y-3.8661
G01 X5.3792 Y-3.8716
G01 X5.3685 Y-3.8777
G01 X5.2615 Y-3.9418
G01 X5.2512 Y-3.9484
G01 X5.2411 Y-3.9554
G01 X5.1410 Y-4.0297
G01 X5.1313 Y-4.0372
G01 X5.1220 Y-4.0453
G01 X5.0251 Y-4.1332
G01 X3.4967 Y-5.6615
G01 X3.4883 Y-5.6704
G01 X3.4045 Y-5.7627
G01 X3.3965 Y-5.7720
G01 X3.3890 Y-5.7817
G01 X3.3111 Y-5.8868
G01 X3.3011 Y-5.9023
G01 X3.2370 Y-6.0092
G01 X3.2309 Y-6.0199
G01 X3.2254 Y-6.0309
G01 X3.1721 Y-6.1436
G01 X3.1671 Y-6.1548
G01 X3.1627 Y-6.1662
G01 X3.1207 Y-6.2836
G01 X3.1168 Y-6.2953
G01 X3.1136 Y-6.3071
G01 X3.0833 Y-6.4281
G01 X3.0806 Y-6.4401
G01 X3.0785 Y-6.4521
G01 X3.0602 Y-6.5755
G01 X3.0582 Y-6.5938
G01 X3.0517 Y-6.7244
G01 X3.0514 Y-6.7367
G01 X3.0514 Y-8.9351
G00 Z2.0000
G00 X0.0029 Y-14.8159
G01 F60.00
G01 Z-0.2000
G01 F120.00
G01 X0.0095 Y-14.8264
G01 X0.0167 Y-14.8364
G01 X0.0921 Y-14.9370
G01 X0.0997 Y-14.9467
G01 X0.1079 Y-14.9560
G01 X0.1928 Y-15.0487
G01 X0.2014 Y-15.0576
G01 X0.2104 Y-15.0660
G01 X0.3041 Y-15.1498
G01 X0.3135 Y-15.1578
G01 X0.3233 Y-15.1654
G01 X0.4248 Y-15.2395
G01 X0.4349 Y-15.2465
G01 X0.4454 Y-15.2531
G01 X0.5537 Y-15.3168
G01 X0.5645 Y-15.3228
G01 X0.5756 Y-15.3283
G01 X0.6897 Y-15.3810
G01 X0.7011 Y-15.3859
G01 X0.7126 Y-15.3903
G01 X0.8314 Y-15.4314
G01 X0.8432 Y-15.4352
G01 X0.8551 Y-15.4384
G01 X0.9773 Y-15.4677
G01 X0.9894 Y-15.4702
G01 X1.0016 Y-15.4722
G01 X1.1261 Y-15.4893
G01 X1.1446 Y-15.4911
G01 X1.2763 Y-15.4961
G01 X1.2887 Y-15.4962
G01 X4.2838 Y-15.4594
G01 X4.3100 Y-15.4659
G01 X4.3220 Y-15.4683
G01 X4.4575 Y-15.4884
G01 X4.4758 Y-15.4899
G01 X4.6004 Y-15.4960
G01 X4.6126 Y-15.4964
G01 X9.2710 Y-15.4964
G01 X9.2833 Y-15.4960
G01 X9.4078 Y-15.4899
G01 X9.4261 Y-15.4884
G01 X9.5556 Y-15.4692
G01 X9.5677 Y-15.4671
G01 X9.5796 Y-15.4644
G01 X9.7006 Y-15.4341
G01 X9.7124 Y-15.4309
G01 X9.7241 Y-15.4270
G01 X9.8415 Y-15.3850
G01 X9.8529 Y-15.3806
G01 X9.8641 Y-15.3756
G01 X9.9769 Y-15.3223
G01 X9.9878 Y-15.3168
G01 X9.9985 Y-15.3107
G01 X10.1055 Y-15.2466
G01 X10.1158 Y-15.2401
G01 X10.1259 Y-15.2330
G01 X10.2260 Y-15.1587
G01 X10.2357 Y-15.1512
G01 X10.2450 Y-15.1432
G01 X10.3374 Y-15.0594
G01 X10.3463 Y-15.0510
G01 X11.3183 Y-14.0788
G01 X11.4062 Y-13.9820
G01 X11.4142 Y-13.9727
G01 X11.4217 Y-13.9630
G01 X11.4996 Y-13.8579
G01 X11.5097 Y-13.8424
G01 X11.5738 Y-13.7355
G01 X11.5798 Y-13.7248
G01 X11.5853 Y-13.7138
G01 X11.6386 Y-13.6011
G01 X11.6436 Y-13.5899
G01 X11.6480 Y-13.5785
G01 X11.6900 Y-13.4611
G01 X11.6939 Y-13.4494
G01 X11.6972 Y-13.4376
G01 X11.7275 Y-13.3166
G01 X11.7301 Y-13.3046
G01 X11.7322 Y-13.2926
G01 X11.7505 Y-13.1692
G01 X11.7520 Y-13.1570
G01 X11.7529 Y-13.1448
G01 X11.7592 Y-13.0172
G01 X13.1421 Y-11.8134
G01 X23.1390 Y-11.8134
G01 X23.1513 Y-11.8130
G01 X23.2758 Y-11.8069
G01 X23.2881 Y-11.8060
G01 X23.3002 Y-11.8045
G01 X23.4236 Y-11.7862
G01 X23.4357 Y-11.7841
G01 X23.4476 Y-11.7814
G01 X23.5686 Y-11.7511
G01 X23.5804 Y-11.7479
G01 X23.5921 Y-11.7440
G01 X23.7095 Y-11.7020
G01 X23.7209 Y-11.6976
G01 X23.7321 Y-11.6926
G01 X23.8449 Y-11.6393
G01 X23.8558 Y-11.6338
G01 X23.8665 Y-11.6277
G01 X23.9735 Y-11.5636
G01 X23.9838 Y-11.5571
G01 X23.9939 Y-11.5500
G01 X24.0940 Y-11.4757
G01 X24.1037 Y-11.4682
G01 X24.1130 Y-11.4602
G01 X24.2099 Y-11.3723
G01 X28.7968 Y-6.7854
G01 X31.5400 Y-6.7854
G01 X31.5523 Y-6.7851
G01 X31.6769 Y-6.7790
G01 X31.6891 Y-6.7781
G01 X31.7013 Y-6.7766
G01 X31.8246 Y-6.7583
G01 X31.8367 Y-6.7562
G01 X31.8487 Y-6.7535
G01 X31.9696 Y-6.7232
G01 X31.9815 Y-6.7199
G01 X31.9931 Y-6.7161
G01 X32.1105 Y-6.6741
G01 X32.1220 Y-6.6697
G01 X32.1332 Y-6.6647
G01 X32.2459 Y-6.6114
G01 X32.2569 Y-6.6059
G01 X32.2675 Y-6.5998
G01 X32.3745 Y-6.5357
G01 X32.3849 Y-6.5291
G01 X32.3949 Y-6.5221
G01 X32.4950 Y-6.4478
G01 X32.5047 Y-6.4403
G01 X32.5140 Y-6.4322
G01 X32.6064 Y-6.3485
G01 X32.6153 Y-6.3400
G01 X32.6238 Y-6.3311
G01 X32.7116 Y-6.2342
G01 X32.7231 Y-6.2198
G01 X32.7973 Y-6.1196
G01 X32.8044 Y-6.1096
G01 X32.8110 Y-6.0992
G01 X32.8751 Y-5.9923
G01 X32.8811 Y-5.9816
G01 X32.8866 Y-5.9706
G01 X32.9400 Y-5.8579
G01 X32.9449 Y-5.8467
G01 X32.9493 Y-5.8353
G01 X32.9913 Y-5.7179
G01 X32.9952 Y-5.7062
G01 X32.9985 Y-5.6944
G01 X33.0288 Y-5.5734
G01 X33.0315 Y-5.5614
G01 X33.0336 Y-5.5494
G01 X33.0519 Y-5.4260
G01 X33.0534 Y-5.4138
G01 X33.0543 Y-5.4016
G01 X33.0604 Y-5.2771
G01 X33.0607 Y-5.2648
G01 X33.0606 Y-1.5236
G01 X33.0543 Y-1.3929
G01 X33.0534 Y-1.3807
G01 X33.0519 Y-1.3685
G01 X33.0336 Y-1.2451
G01 X33.0315 Y-1.2331
G01 X33.0288 Y-1.2211
G01 X32.9985 Y-1.1001
G01 X32.9952 Y-1.0883
G01 X32.9913 Y-1.0766
G01 X32.9493 Y-0.9592
G01 X32.9449 Y-0.9478
G01 X32.9400 Y-0.9366
G01 X32.8866 Y-0.8239
G01 X32.8811 Y-0.8129
G01 X32.8751 Y-0.8022
G01 X32.8110 Y-0.6953
G01 X32.8044 Y-0.6849
G01 X32.7973 Y-0.6749
G01 X32.7231 Y-0.5747
G01 X32.7155 Y-0.5650
G01 X32.7075 Y-0.5557
G01 X32.6238 Y-0.4634
G01 X32.6153 Y-0.4545
G01 X32.6064 Y-0.4460
G01 X32.5140 Y-0.3623
G01 X32.5047 Y-0.3542
G01 X32.4950 Y-0.3467
G01 X32.3949 Y-0.2724
G01 X32.3849 Y-0.2654
G01 X32.3745 Y-0.2588
G01 X32.2675 Y-0.1947
G01 X32.2569 Y-0.1886
G01 X32.2459 Y-0.1831
G01 X32.1332 Y-0.1298
G01 X32.1220 Y-0.1248
G01 X32.1105 Y-0.1204
G01 X31.9931 Y-0.0784
G01 X31.9815 Y-0.0746
G01 X31.9696 Y-0.0713
G01 X31.8487 Y-0.0410
G01 X31.8367 Y-0.0383
G01 X31.8246 Y-0.0362
G01 X31.7013 Y-0.0179
G01 X31.6891 Y-0.0164
G01 X31.6769 Y-0.0155
G01 X31.5462 Y-0.0092
G01 X29.6688 Y-0.0092
G01 X29.5381 Y-0.0155
G01 X29.5259 Y-0.0164
G01 X29.5137 Y-0.0179
G01 X29.3903 Y-0.0362
G01 X29.3783 Y-0.0383
G01 X29.3663 Y-0.0410
G01 X29.2453 Y-0.0713
G01 X29.2335 Y-0.0746
G01 X29.2219 Y-0.0784
G01 X29.1044 Y-0.1204
G01 X29.0930 Y-0.1248
G01 X29.0818 Y-0.1298
G01 X28.9691 Y-0.1831
G01 X28.9581 Y-0.1886
G01 X28.9474 Y-0.1947
G01 X28.8405 Y-0.2588
G01 X28.8301 Y-0.2654
G01 X28.8201 Y-0.2724
G01 X28.7199 Y-0.3467
G01 X28.7055 Y-0.3582
G01 X28.6086 Y-0.4460
G01 X28.5997 Y-0.4545
G01 X26.6321 Y-2.4221
G01 X23.3619 Y-2.4222
G01 X23.2312 Y-2.4285
G01 X23.2190 Y-2.4294
G01 X23.2068 Y-2.4309
G01 X23.0834 Y-2.4492
G01 X23.0713 Y-2.4513
G01 X23.0594 Y-2.4540
G01 X22.9384 Y-2.4843
G01 X22.9266 Y-2.4876
G01 X22.9149 Y-2.4914
G01 X22.7975 Y-2.5334
G01 X22.7804 Y-2.5402
G01 X22.6621 Y-2.5961
G01 X22.6512 Y-2.6016
G01 X22.6405 Y-2.6077
G01 X22.5335 Y-2.6718
G01 X22.5232 Y-2.6784
G01 X22.5131 Y-2.6854
G01 X22.4130 Y-2.7597
G01 X22.4033 Y-2.7672
G01 X22.3940 Y-2.7753
G01 X22.3016 Y-2.8590
G01 X22.2927 Y-2.8675
G01 X20.8915 Y-4.2689
G01 X20.8035 Y-4.3657
G01 X20.7955 Y-4.3750
G01 X20.7880 Y-4.3847
G01 X20.7137 Y-4.4849
G01 X20.7033 Y-4.5000
G01 X20.6955 Y-4.5130
G01 X16.4363 Y-8.7721
G01 X12.5666 Y-8.7722
G01 X12.4304 Y-8.7791
G01 X12.4177 Y-8.7800
G01 X12.4050 Y-8.7817
G01 X12.2766 Y-8.8015
G01 X12.2640 Y-8.8038
G01 X12.2515 Y-8.8067
G01 X12.1258 Y-8.8396
G01 X12.1074 Y-8.8452
G01 X11.9797 Y-8.8929
G01 X11.9678 Y-8.8977
G01 X11.9562 Y-8.9031
G01 X11.8398 Y-8.9608
G01 X11.8285 Y-8.9668
G01 X11.8175 Y-8.9733
G01 X11.7076 Y-9.0427
G01 X11.6970 Y-9.0498
G01 X11.6867 Y-9.0574
G01 X11.5795 Y-9.1416
G01 X9.2323 Y-11.1851
G01 X1.2639 Y-11.1852
G01 X1.1332 Y-11.1915
G01 X1.1210 Y-11.1924
G01 X1.1088 Y-11.1939
G01 X0.9854 Y-11.2122
G01 X0.9733 Y-11.2143
G01 X0.9614 Y-11.2170
G01 X0.8404 Y-11.2473
G01 X0.8286 Y-11.2506
G01 X0.8169 Y-11.2544
G01 X0.6995 Y-11.2964
G01 X0.6881 Y-11.3008
G01 X0.6769 Y-11.3058
G01 X0.5641 Y-11.3591
G01 X0.5532 Y-11.3646
G01 X0.5425 Y-11.3707
G01 X0.4355 Y-11.4348
G01 X0.4252 Y-11.4414
G01 X0.4151 Y-11.4484
G01 X0.3150 Y-11.5227
G01 X0.3053 Y-11.5302
G01 X0.2960 Y-11.5383
G01 X0.2036 Y-11.6220
G01 X0.1947 Y-11.6305
G01 X0.1863 Y-11.6394
G01 X0.1025 Y-11.7317
G01 X0.0945 Y-11.7410
G01 X0.0870 Y-11.7507
G01 X0.0127 Y-11.8509
G01 X0.0056 Y-11.8609
G01 X-0.0009 Y-11.8713
G01 X-0.0650 Y-11.9782
G01 X-0.0711 Y-11.9889
G01 X-0.0766 Y-11.9999
G01 X-0.1299 Y-12.1126
G01 X-0.1349 Y-12.1238
G01 X-0.1393 Y-12.1352
G01 X-0.1813 Y-12.2526
G01 X-0.1852 Y-12.2643
G01 X-0.1884 Y-12.2761
G01 X-0.2187 Y-12.3971
G01 X-0.2214 Y-12.4091
G01 X-0.2235 Y-12.4211
G01 X-0.2418 Y-12.5445
G01 X-0.2433 Y-12.5567
G01 X-0.2442 Y-12.5689
G01 X-0.2506 Y-12.6996
G01 X-0.2506 Y-13.9757
G01 X-0.2503 Y-13.9881
G01 X-0.2441 Y-14.1136
G01 X-0.2432 Y-14.1259
G01 X-0.2417 Y-14.1382
G01 X-0.2231 Y-14.2625
G01 X-0.2210 Y-14.2747
G01 X-0.2182 Y-14.2867
G01 X-0.1875 Y-14.4086
G01 X-0.1841 Y-14.4205
G01 X-0.1802 Y-14.4322
G01 X-0.1376 Y-14.5504
G01 X-0.1331 Y-14.5620
G01 X-0.1280 Y-14.5732
G01 X-0.0739 Y-14.6867
G01 X-0.0683 Y-14.6977
G01 X-0.0622 Y-14.7084
G01 X0.0029 Y-14.8159
G00 Z2.0000
G00 X5.4433 Y-24.6161
G01 F60.00
G01 Z-0.2000
G01 F120.00
G01 X5.4188 Y-24.5830
G01 X5.4073 Y-24.5687
G01 X5.3373 Y-24.4913
G01 X5.3245 Y-24.4782
G01 X5.2473 Y-24.4081
G01 X5.2380 Y-24.4001
G01 X5.2283 Y-24.3925
G01 X5.1495 Y-24.3341
G01 X5.1343 Y-24.3237
G01 X5.0449 Y-24.2700
G01 X5.0342 Y-24.2639
G01 X5.0233 Y-24.2584
G01 X4.9346 Y-24.2165
G01 X4.9234 Y-24.2115
G01 X4.9119 Y-24.2071
G01 X4.8195 Y-24.1740
G01 X4.8079 Y-24.1702
G01 X4.7960 Y-24.1669
G01 X4.7008 Y-24.1431
G01 X4.6828 Y-24.1392
G01 X4.5797 Y-24.1239
G01 X4.5675 Y-24.1224
G01 X4.5553 Y-24.1215
G01 X4.4573 Y-24.1166
G01 X4.4450 Y-24.1163
G01 X4.4327 Y-24.1166
G01 X4.3347 Y-24.1215
G01 X4.3225 Y-24.1224
G01 X4.3103 Y-24.1239
G01 X4.2132 Y-24.1383
G01 X4.2011 Y-24.1404
G01 X4.1892 Y-24.1431
G01 X4.0940 Y-24.1669
G01 X4.0821 Y-24.1702
G01 X4.0705 Y-24.1740
G01 X3.9781 Y-24.2071
G01 X3.9666 Y-24.2115
G01 X3.9554 Y-24.2165
G01 X3.8667 Y-24.2584
G01 X3.8558 Y-24.2639
G01 X3.8451 Y-24.2700
G01 X3.7557 Y-24.3237
G01 X3.7405 Y-24.3341
G01 X3.6617 Y-24.3925
G01 X3.6520 Y-24.4001
G01 X3.6427 Y-24.4081
G01 X3.5700 Y-24.4740
G01 X3.5611 Y-24.4825
G01 X3.5527 Y-24.4913
G01 X3.4868 Y-24.5641
G01 X3.4787 Y-24.5734
G01 X3.4712 Y-24.5830
G01 X3.4127 Y-24.6619
G01 X3.4057 Y-24.6719
G01 X3.3991 Y-24.6822
G01 X3.3486 Y-24.7664
G01 X3.3426 Y-24.7771
G01 X3.3371 Y-24.7881
G01 X3.2951 Y-24.8768
G01 X3.2902 Y-24.8880
G01 X3.2857 Y-24.8994
G01 X3.2527 Y-24.9918
G01 X3.2488 Y-25.0035
G01 X3.2456 Y-25.0153
G01 X3.2217 Y-25.1105
G01 X3.2190 Y-25.1225
G01 X3.2169 Y-25.1346
G01 X3.2025 Y-25.2316
G01 X3.2010 Y-25.2438
G01 X3.2001 Y-25.2561
G01 X3.1953 Y-25.3541
G01 X3.1950 Y-25.3663
G01 X3.1953 Y-25.3786
G01 X3.2001 Y-25.4766
G01 X3.2010 Y-25.4889
G01 X3.2025 Y-25.5010
G01 X3.2169 Y-25.5981
G01 X3.2190 Y-25.6102
G01 X3.2217 Y-25.6222
G01 X3.2456 Y-25.7174
G01 X3.2488 Y-25.7292
G01 X3.2527 Y-25.7409
G01 X3.2857 Y-25.8333
G01 X3.2902 Y-25.8447
G01 X3.2951 Y-25.8559
G01 X3.3371 Y-25.9446
G01 X3.3426 Y-25.9556
G01 X3.3486 Y-25.9663
G01 X3.3991 Y-26.0504
G01 X3.4057 Y-26.0608
G01 X3.4127 Y-26.0708
G01 X3.4712 Y-26.1497
G01 X3.4787 Y-26.1593
G01 X3.4868 Y-26.1686
G01 X3.5527 Y-26.2413
G01 X3.5611 Y-26.2502
G01 X3.5700 Y-26.2587
G01 X3.6427 Y-26.3246
G01 X3.6520 Y-26.3326
G01 X3.6617 Y-26.3402
G01 X3.7405 Y-26.3986
G01 X3.7505 Y-26.4057
G01 X3.7609 Y-26.4122
G01 X3.8451 Y-26.4627
G01 X3.8558 Y-26.4687
G01 X3.8667 Y-26.4743
G01 X3.9554 Y-26.5162
G01 X3.9666 Y-26.5212
G01 X3.9781 Y-26.5256
G01 X4.0705 Y-26.5587
G01 X4.0821 Y-26.5625
G01 X4.0940 Y-26.5658
G01 X4.1892 Y-26.5896
G01 X4.2011 Y-26.5923
G01 X4.2132 Y-26.5944
G01 X4.3103 Y-26.6088
G01 X4.3225 Y-26.6103
G01 X4.3347 Y-26.6112
G01 X4.4327 Y-26.6160
G01 X4.4450 Y-26.6163
G01 X4.4573 Y-26.6160
G01 X4.5553 Y-26.6112
G01 X4.5675 Y-26.6103
G01 X4.5797 Y-26.6088
G01 X4.6768 Y-26.5944
G01 X4.6889 Y-26.5923
G01 X4.7008 Y-26.5896
G01 X4.7960 Y-26.5658
G01 X4.8079 Y-26.5625
G01 X4.8195 Y-26.5587
G01 X4.9119 Y-26.5256
G01 X4.9290 Y-26.5188
G01 X5.0233 Y-26.4743
G01 X5.0342 Y-26.4687
G01 X5.0449 Y-26.4627
G01 X5.1291 Y-26.4122
G01 X5.1395 Y-26.4057
G01 X5.1495 Y-26.3986
G01 X5.2332 Y-26.3364
G01 X5.2473 Y-26.3246
G01 X5.3200 Y-26.2587
G01 X5.3332 Y-26.2458
G01 X5.4073 Y-26.1640
G01 X5.4188 Y-26.1497
G01 X5.4433 Y-26.1166
G01 X6.3809 Y-26.1166
G01 X8.2667 Y-28.0025
G01 X8.2667 Y-31.3442
G01 X8.2559 Y-31.3472
G01 X8.2443 Y-31.3510
G01 X8.2272 Y-31.3579
G01 X8.2107 Y-31.3659
G01 X8.1948 Y-31.3752
G01 X8.1796 Y-31.3856
G01 X8.1652 Y-31.3971
G01 X8.1517 Y-31.4096
G01 X8.1392 Y-31.4231
G01 X8.1277 Y-31.4375
G01 X8.1173 Y-31.4527
G01 X8.1080 Y-31.4686
G01 X8.0999 Y-31.4851
G01 X8.0931 Y-31.5022
G01 X8.0876 Y-31.5197
G01 X8.0833 Y-31.5377
G01 X8.0804 Y-31.5558
G01 X8.0792 Y-31.5680
G01 X8.0785 Y-31.5864
G01 X8.0785 Y-32.7189
G01 X8.0792 Y-32.7373
G01 X8.0812 Y-32.7556
G01 X8.0846 Y-32.7737
G01 X8.0893 Y-32.7915
G01 X8.0953 Y-32.8089
G01 X8.1025 Y-32.8258
G01 X8.1110 Y-32.8421
G01 X8.1206 Y-32.8578
G01 X8.1314 Y-32.8727
G01 X8.1433 Y-32.8868
G01 X8.1561 Y-32.9000
G01 X8.1699 Y-32.9122
G01 X8.1845 Y-32.9233
G01 X8.2000 Y-32.9334
G01 X8.2161 Y-32.9422
G01 X8.2272 Y-32.9475
G01 X8.2385 Y-32.9522
G01 X8.2559 Y-32.9582
G01 X8.2737 Y-32.9629
G01 X8.2918 Y-32.9662
G01 X8.3101 Y-32.9682
G01 X8.3285 Y-32.9689
G01 X9.7116 Y-32.9688
G01 X9.7300 Y-32.9677
G01 X9.7422 Y-32.9662
G01 X9.7543 Y-32.9641
G01 X9.7662 Y-32.9614
G01 X9.7781 Y-32.9582
G01 X9.7955 Y-32.9522
G01 X9.8068 Y-32.9475
G01 X9.8233 Y-32.9394
G01 X9.8340 Y-32.9334
G01 X9.8495 Y-32.9233
G01 X9.8641 Y-32.9122
G01 X9.8734 Y-32.9042
G01 X9.8823 Y-32.8957
G01 X9.8948 Y-32.8822
G01 X9.9026 Y-32.8727
G01 X9.9134 Y-32.8578
G01 X9.9230 Y-32.8421
G01 X9.9288 Y-32.8313
G01 X9.9365 Y-32.8146
G01 X9.9409 Y-32.8031
G01 X9.9464 Y-32.7856
G01 X9.9494 Y-32.7737
G01 X9.9528 Y-32.7556
G01 X9.9543 Y-32.7434
G01 X9.9552 Y-32.7312
G01 X9.9555 Y-32.7189
G01 X9.9554 Y-31.5803
G01 X9.9543 Y-31.5619
G01 X9.9518 Y-31.5437
G01 X9.9480 Y-31.5257
G01 X9.9447 Y-31.5139
G01 X9.9409 Y-31.5022
G01 X9.9341 Y-31.4851
G01 X9.9260 Y-31.4686
G01 X9.9199 Y-31.4579
G01 X9.9134 Y-31.4475
G01 X9.9026 Y-31.4326
G01 X9.8948 Y-31.4231
G01 X9.8866 Y-31.4140
G01 X9.8734 Y-31.4012
G01 X9.8593 Y-31.3893
G01 X9.8444 Y-31.3786
G01 X9.8340 Y-31.3720
G01 X9.8233 Y-31.3659
G01 X9.8068 Y-31.3579
G01 X9.7897 Y-31.3510
G01 X9.7781 Y-31.3472
G01 X9.7673 Y-31.3442
G01 X9.7672 Y-27.6856
G01 X9.7642 Y-27.6243
G01 X9.7621 Y-27.6060
G01 X9.7528 Y-27.5453
G01 X9.7382 Y-27.4858
G01 X9.7349 Y-27.4739
G01 X9.7311 Y-27.4623
G01 X9.7101 Y-27.4046
G01 X9.7052 Y-27.3934
G01 X9.6787 Y-27.3380
G01 X9.6726 Y-27.3274
G01 X9.6408 Y-27.2749
G01 X9.6045 Y-27.2254
G01 X9.5970 Y-27.2158
G01 X9.5889 Y-27.2065
G01 X9.5475 Y-27.1612
G01 X7.2221 Y-24.8358
G01 X7.2132 Y-24.8274
G01 X7.1676 Y-24.7864
G01 X7.1185 Y-24.7496
G01 X7.1033 Y-24.7392
G01 X7.0507 Y-24.7076
G01 X7.0343 Y-24.6992
G01 X6.9787 Y-24.6732
G01 X6.9211 Y-24.6522
G01 X6.9094 Y-24.6484
G01 X6.8976 Y-24.6451
G01 X6.8380 Y-24.6305
G01 X6.7773 Y-24.6212
G01 X6.7590 Y-24.6192
G01 X6.7039 Y-24.6164
G01 X6.6916 Y-24.6161
G01 X5.4433 Y-24.6161
G00 Z2.0000
G00 X1.0278 Y-28.7142
G01 F60.00
G01 Z-0.2000
G01 F120.00
G01 X1.0281 Y-28.7329
G01 X1.0314 Y-28.7942
G01 X1.0401 Y-28.8549
G01 X1.0422 Y-28.8670
G01 X1.0449 Y-28.8790
G01 X1.0601 Y-28.9384
G01 X1.0804 Y-28.9963
G01 X1.0873 Y-29.0134
G01 X1.1108 Y-29.0633
G01 X1.1163 Y-29.0743
G01 X1.1224 Y-29.0850
G01 X1.1476 Y-29.1271
G01 X1.1577 Y-29.1425
G01 X1.1942 Y-29.1918
G01 X1.2061 Y-29.2059
G01 X1.2475 Y-29.2511
G01 X2.7630 Y-30.7665
G01 X2.8038 Y-30.8037
G01 X2.8131 Y-30.8117
G01 X2.8228 Y-30.8192
G01 X2.8723 Y-30.8555
G01 X2.9247 Y-30.8873
G01 X2.9354 Y-30.8934
G01 X2.9464 Y-30.8989
G01 X2.9963 Y-30.9224
G01 X3.0134 Y-30.9293
G01 X3.0713 Y-30.9497
G01 X3.1308 Y-30.9649
G01 X3.1427 Y-30.9675
G01 X3.1548 Y-30.9696
G01 X3.2156 Y-30.9784
G01 X3.2768 Y-30.9817
G01 X3.2891 Y-30.9820
G01 X4.2673 Y-30.9820
G01 X4.2758 Y-30.9893
G01 X4.2855 Y-30.9968
G01 X4.3430 Y-31.0395
G01 X4.3530 Y-31.0466
G01 X4.3634 Y-31.0531
G01 X4.4249 Y-31.0899
G01 X4.4355 Y-31.0960
G01 X4.4465 Y-31.1015
G01 X4.5168 Y-31.1347
G01 X4.5339 Y-31.1415
G01 X4.6014 Y-31.1657
G01 X4.6130 Y-31.1695
G01 X4.6248 Y-31.1728
G01 X4.6943 Y-31.1902
G01 X4.7063 Y-31.1929
G01 X4.7184 Y-31.1950
G01 X4.7893 Y-31.2055
G01 X4.8014 Y-31.2070
G01 X4.8137 Y-31.2079
G01 X4.8852 Y-31.2114
G01 X4.8975 Y-31.2117
G01 X5.2625 Y-31.2117
G01 X5.2748 Y-31.2114
G01 X5.3524 Y-31.2075
G01 X5.3707 Y-31.2055
G01 X5.4416 Y-31.1950
G01 X5.4537 Y-31.1929
G01 X5.4657 Y-31.1902
G01 X5.5411 Y-31.1712
G01 X5.5586 Y-31.1657
G01 X5.6261 Y-31.1415
G01 X5.6375 Y-31.1371
G01 X5.6487 Y-31.1321
G01 X5.7135 Y-31.1015
G01 X5.7245 Y-31.0960
G01 X5.7351 Y-31.0899
G01 X5.7966 Y-31.0531
G01 X5.8070 Y-31.0466
G01 X5.8170 Y-31.0395
G01 X5.8745 Y-30.9968
G01 X5.8889 Y-30.9853
G01 X5.9466 Y-30.9331
G01 X5.9555 Y-30.9247
G01 X5.9639 Y-30.9158
G01 X6.0120 Y-30.8627
G01 X6.0200 Y-30.8534
G01 X6.0276 Y-30.8437
G01 X6.0703 Y-30.7862
G01 X6.0773 Y-30.7762
G01 X6.0839 Y-30.7658
G01 X6.1207 Y-30.7044
G01 X6.1268 Y-30.6937
G01 X6.1323 Y-30.6827
G01 X6.1629 Y-30.6180
G01 X6.1679 Y-30.6067
G01 X6.1723 Y-30.5953
G01 X6.1964 Y-30.5278
G01 X6.2003 Y-30.5162
G01 X6.2036 Y-30.5044
G01 X6.2210 Y-30.4349
G01 X6.2248 Y-30.4169
G01 X6.2363 Y-30.3400
G01 X6.2378 Y-30.3278
G01 X6.2387 Y-30.3155
G01 X6.2422 Y-30.2440
G01 X6.2425 Y-30.2317
G01 X6.2422 Y-30.2194
G01 X6.2383 Y-30.1418
G01 X6.2363 Y-30.1235
G01 X6.2258 Y-30.0526
G01 X6.2237 Y-30.0405
G01 X6.2210 Y-30.0286
G01 X6.2036 Y-29.9591
G01 X6.2003 Y-29.9472
G01 X6.1964 Y-29.9356
G01 X6.1723 Y-29.8681
G01 X6.1679 Y-29.8567
G01 X6.1629 Y-29.8455
G01 X6.1323 Y-29.7807
G01 X6.1268 Y-29.7697
G01 X6.1207 Y-29.7591
G01 X6.0839 Y-29.6976
G01 X6.0739 Y-29.6822
G01 X6.0276 Y-29.6197
G01 X6.0200 Y-29.6100
G01 X6.0120 Y-29.6007
G01 X5.9639 Y-29.5476
G01 X5.9555 Y-29.5388
G01 X5.9466 Y-29.5303
G01 X5.8935 Y-29.4822
G01 X5.8794 Y-29.4703
G01 X5.8170 Y-29.4239
G01 X5.8070 Y-29.4169
G01 X5.7966 Y-29.4103
G01 X5.7351 Y-29.3735
G01 X5.7245 Y-29.3674
G01 X5.7135 Y-29.3619
G01 X5.6487 Y-29.3313
G01 X5.6375 Y-29.3263
G01 X5.6261 Y-29.3219
G01 X5.5586 Y-29.2978
G01 X5.5470 Y-29.2939
G01 X5.5352 Y-29.2906
G01 X5.4657 Y-29.2732
G01 X5.4477 Y-29.2694
G01 X5.3707 Y-29.2579
G01 X5.3586 Y-29.2564
G01 X5.3463 Y-29.2555
G01 X5.2686 Y-29.2518
G01 X4.8914 Y-29.2518
G01 X4.8137 Y-29.2555
G01 X4.8014 Y-29.2564
G01 X4.7893 Y-29.2579
G01 X4.7184 Y-29.2685
G01 X4.7063 Y-29.2705
G01 X4.6943 Y-29.2732
G01 X4.6248 Y-29.2906
G01 X4.6130 Y-29.2939
G01 X4.6014 Y-29.2978
G01 X4.5339 Y-29.3219
G01 X4.5168 Y-29.3287
G01 X4.4465 Y-29.3619
G01 X4.4355 Y-29.3674
G01 X4.4249 Y-29.3735
G01 X4.3634 Y-29.4103
G01 X4.3530 Y-29.4169
G01 X4.3430 Y-29.4239
G01 X4.2855 Y-29.4666
G01 X4.2758 Y-29.4742
G01 X4.2673 Y-29.4815
G01 X3.5999 Y-29.4815
G01 X2.5283 Y-28.4099
G01 X2.5283 Y-25.4625
G01 X4.3748 Y-23.6160
G01 X9.6581 Y-23.6159
G01 X9.7133 Y-23.6133
G01 X9.7255 Y-23.6124
G01 X9.7863 Y-23.6036
G01 X9.7984 Y-23.6015
G01 X9.8103 Y-23.5989
G01 X9.8698 Y-23.5837
G01 X9.9277 Y-23.5633
G01 X9.9391 Y-23.5589
G01 X9.9503 Y-23.5539
G01 X9.9947 Y-23.5329
G01 X10.0110 Y-23.5244
G01 X10.0584 Y-23.4961
G01 X10.0688 Y-23.4895
G01 X10.0788 Y-23.4825
G01 X10.1232 Y-23.4495
G01 X10.1372 Y-23.4377
G01 X10.1825 Y-23.3962
G01 X10.8175 Y-22.7612
G01 X10.8260 Y-22.7523
G01 X10.8630 Y-22.7114
G01 X10.8745 Y-22.6970
G01 X10.9108 Y-22.6475
G01 X10.9426 Y-22.5951
G01 X10.9487 Y-22.5844
G01 X10.9542 Y-22.5734
G01 X10.9801 Y-22.5178
G01 X11.0011 Y-22.4602
G01 X11.0067 Y-22.4426
G01 X11.0201 Y-22.3891
G01 X11.0228 Y-22.3771
G01 X11.0321 Y-22.3164
G01 X11.0342 Y-22.2981
G01 X11.0372 Y-22.2369
G01 X11.0373 Y-20.0015
G01 X15.6778 Y-15.3610
G01 X25.9080 Y-15.3610
G01 X25.9693 Y-15.3583
G01 X25.9815 Y-15.3574
G01 X26.0423 Y-15.3486
G01 X26.0604 Y-15.3453
G01 X26.1140 Y-15.3319
G01 X26.1258 Y-15.3287
G01 X26.1837 Y-15.3083
G01 X26.1951 Y-15.3039
G01 X26.2063 Y-15.2989
G01 X26.2617 Y-15.2724
G01 X26.3144 Y-15.2411
G01 X26.3248 Y-15.2345
G01 X26.3348 Y-15.2275
G01 X26.3840 Y-15.1907
G01 X26.3932 Y-15.1827
G01 X26.4341 Y-15.1455
G01 X30.2828 Y-11.2970
G01 X34.1747 Y-11.2970
G01 X34.1747 Y-11.5953
G01 X34.1569 Y-11.6086
G01 X34.1474 Y-11.6164
G01 X34.0701 Y-11.6864
G01 X34.0569 Y-11.6992
G01 X33.9868 Y-11.7764
G01 X33.9788 Y-11.7857
G01 X33.9712 Y-11.7954
G01 X33.9092 Y-11.8792
G01 X33.8992 Y-11.8946
G01 X33.8487 Y-11.9788
G01 X33.8427 Y-11.9895
G01 X33.8371 Y-12.0004
G01 X33.7952 Y-12.0891
G01 X33.7902 Y-12.1004
G01 X33.7858 Y-12.1118
G01 X33.7507 Y-12.2100
G01 X33.7456 Y-12.2277
G01 X33.7218 Y-12.3229
G01 X33.7191 Y-12.3349
G01 X33.7170 Y-12.3469
G01 X33.7026 Y-12.4440
G01 X33.7011 Y-12.4562
G01 X33.7002 Y-12.4684
G01 X33.6954 Y-12.5664
G01 X33.6951 Y-12.5787
G01 X33.6954 Y-12.5910
G01 X33.7002 Y-12.6890
G01 X33.7011 Y-12.7012
G01 X33.7026 Y-12.7134
G01 X33.7170 Y-12.8105
G01 X33.7191 Y-12.8226
G01 X33.7218 Y-12.8346
G01 X33.7456 Y-12.9297
G01 X33.7489 Y-12.9416
G01 X33.7527 Y-12.9532
G01 X33.7858 Y-13.0456
G01 X33.7902 Y-13.0571
G01 X33.7952 Y-13.0683
G01 X33.8371 Y-13.1570
G01 X33.8427 Y-13.1680
G01 X33.8487 Y-13.1786
G01 X33.8992 Y-13.2628
G01 X33.9092 Y-13.2782
G01 X33.9712 Y-13.3620
G01 X33.9788 Y-13.3717
G01 X33.9868 Y-13.3810
G01 X34.0527 Y-13.4537
G01 X34.0612 Y-13.4626
G01 X34.0701 Y-13.4711
G01 X34.1428 Y-13.5370
G01 X34.1521 Y-13.5450
G01 X34.1617 Y-13.5525
G01 X34.2406 Y-13.6110
G01 X34.2506 Y-13.6181
G01 X34.2610 Y-13.6246
G01 X34.3451 Y-13.6751
G01 X34.3558 Y-13.6811
G01 X34.3668 Y-13.6866
G01 X34.4447 Y-13.7235
G01 X34.4447 Y-14.1339
G01 X34.4316 Y-14.1494
G01 X34.4243 Y-14.1593
G01 X34.4175 Y-14.1695
G01 X34.4082 Y-14.1854
G01 X34.4027 Y-14.1963
G01 X34.3977 Y-14.2075
G01 X34.3933 Y-14.2190
G01 X34.3895 Y-14.2306
G01 X34.3862 Y-14.2425
G01 X34.3835 Y-14.2544
G01 X34.3814 Y-14.2665
G01 X34.3799 Y-14.2787
G01 X34.3788 Y-14.2971
G01 X34.3788 Y-15.6864
G01 X34.3799 Y-15.7047
G01 X34.3814 Y-15.7169
G01 X34.3835 Y-15.7290
G01 X34.3862 Y-15.7410
G01 X34.3895 Y-15.7528
G01 X34.3955 Y-15.7702
G01 X34.4001 Y-15.7815
G01 X34.4054 Y-15.7926
G01 X34.4143 Y-15.8087
G01 X34.4243 Y-15.8242
G01 X34.4354 Y-15.8388
G01 X34.4435 Y-15.8481
G01 X34.4563 Y-15.8613
G01 X34.4701 Y-15.8735
G01 X34.4847 Y-15.8846
G01 X34.4950 Y-15.8914
G01 X34.5109 Y-15.9007
G01 X34.5274 Y-15.9088
G01 X34.5445 Y-15.9156
G01 X34.5620 Y-15.9212
G01 X34.5799 Y-15.9254
G01 X34.5920 Y-15.9275
G01 X34.6103 Y-15.9295
G01 X34.6287 Y-15.9302
G01 X35.7612 Y-15.9302
G01 X35.7735 Y-15.9299
G01 X35.7857 Y-15.9290
G01 X35.8039 Y-15.9265
G01 X35.8160 Y-15.9241
G01 X35.8338 Y-15.9195
G01 X35.8454 Y-15.9156
G01 X35.8625 Y-15.9088
G01 X35.8736 Y-15.9035
G01 X35.8844 Y-15.8977
G01 X35.8949 Y-15.8914
G01 X35.9101 Y-15.8810
G01 X35.9198 Y-15.8735
G01 X35.9291 Y-15.8655
G01 X35.9423 Y-15.8526
G01 X35.9505 Y-15.8435
G01 X35.9620 Y-15.8291
G01 X35.9691 Y-15.8191
G01 X35.9787 Y-15.8034
G01 X35.9845 Y-15.7926
G01 X35.9922 Y-15.7759
G01 X35.9986 Y-15.7586
G01 X36.0021 Y-15.7469
G01 X36.0051 Y-15.7350
G01 X36.0085 Y-15.7169
G01 X36.0100 Y-15.7047
G01 X36.0111 Y-15.6864
G01 X36.0111 Y-14.2971
G01 X36.0105 Y-14.2848
G01 X36.0093 Y-14.2726
G01 X36.0075 Y-14.2605
G01 X36.0051 Y-14.2484
G01 X36.0004 Y-14.2306
G01 X35.9966 Y-14.2190
G01 X35.9922 Y-14.2075
G01 X35.9845 Y-14.1908
G01 X35.9787 Y-14.1800
G01 X35.9724 Y-14.1695
G01 X35.9656 Y-14.1593
G01 X35.9583 Y-14.1494
G01 X35.9453 Y-14.1340
G01 X35.9453 Y-13.3265
G01 X35.9773 Y-13.2832
G01 X35.9877 Y-13.2680
G01 X36.0414 Y-13.1786
G01 X36.0503 Y-13.1625
G01 X36.0949 Y-13.0683
G01 X36.0999 Y-13.0571
G01 X36.1043 Y-13.0456
G01 X36.1394 Y-12.9474
G01 X36.1445 Y-12.9297
G01 X36.1684 Y-12.8346
G01 X36.1710 Y-12.8226
G01 X36.1731 Y-12.8105
G01 X36.1875 Y-12.7134
G01 X36.1890 Y-12.7012
G01 X36.1899 Y-12.6890
G01 X36.1950 Y-12.5840
G01 X36.2000 Y-12.6890
G01 X36.2009 Y-12.7012
G01 X36.2025 Y-12.7134
G01 X36.2169 Y-12.8105
G01 X36.2189 Y-12.8226
G01 X36.2216 Y-12.8346
G01 X36.2455 Y-12.9297
G01 X36.2506 Y-12.9474
G01 X36.2857 Y-13.0456
G01 X36.2901 Y-13.0571
G01 X36.2951 Y-13.0683
G01 X36.3397 Y-13.1625
G01 X36.3486 Y-13.1786
G01 X36.4022 Y-13.2680
G01 X36.4127 Y-13.2832
G01 X36.4447 Y-13.3265
G01 X36.4447 Y-14.1340
G01 X36.4317 Y-14.1494
G01 X36.4244 Y-14.1593
G01 X36.4176 Y-14.1695
G01 X36.4113 Y-14.1800
G01 X36.4055 Y-14.1908
G01 X36.3978 Y-14.2075
G01 X36.3934 Y-14.2190
G01 X36.3896 Y-14.2306
G01 X36.3863 Y-14.2425
G01 X36.3836 Y-14.2544
G01 X36.3807 Y-14.2726
G01 X36.3795 Y-14.2848
G01 X36.3789 Y-14.2971
G01 X36.3788 Y-15.6802
G01 X36.3791 Y-15.6925
G01 X36.3800 Y-15.7047
G01 X36.3815 Y-15.7169
G01 X36.3836 Y-15.7290
G01 X36.3863 Y-15.7410
G01 X36.3896 Y-15.7528
G01 X36.3955 Y-15.7702
G01 X36.4002 Y-15.7815
G01 X36.4055 Y-15.7926
G01 X36.4113 Y-15.8034
G01 X36.4176 Y-15.8140
G01 X36.4244 Y-15.8242
G01 X36.4317 Y-15.8340
G01 X36.4447 Y-15.8494
G01 X36.4447 Y-17.1347
G01 X36.4455 Y-17.1572
G01 X36.4364 Y-17.1939
G01 X36.4341 Y-17.2059
G01 X36.4207 Y-17.2957
G01 X36.4192 Y-17.3140
G01 X36.4153 Y-17.3924
G01 X36.4150 Y-17.4047
G01 X36.4153 Y-17.4170
G01 X36.4192 Y-17.4954
G01 X36.4201 Y-17.5076
G01 X36.4216 Y-17.5198
G01 X36.4331 Y-17.5975
G01 X36.4352 Y-17.6096
G01 X36.4379 Y-17.6215
G01 X36.4569 Y-17.6977
G01 X36.4602 Y-17.7095
G01 X36.4641 Y-17.7212
G01 X36.4905 Y-17.7951
G01 X36.4949 Y-17.8065
G01 X36.4999 Y-17.8178
G01 X36.5335 Y-17.8887
G01 X36.5390 Y-17.8997
G01 X36.5450 Y-17.9104
G01 X36.5854 Y-17.9777
G01 X36.5920 Y-17.9881
G01 X36.5990 Y-17.9981
G01 X36.6458 Y-18.0612
G01 X36.6533 Y-18.0708
G01 X36.6614 Y-18.0801
G01 X36.7141 Y-18.1383
G01 X36.7225 Y-18.1472
G01 X36.7314 Y-18.1556
G01 X36.7896 Y-18.2084
G01 X36.7989 Y-18.2164
G01 X36.8086 Y-18.2239
G01 X36.8716 Y-18.2707
G01 X36.8817 Y-18.2778
G01 X36.8920 Y-18.2843
G01 X36.9594 Y-18.3247
G01 X36.9700 Y-18.3307
G01 X36.9810 Y-18.3362
G01 X37.0520 Y-18.3698
G01 X37.0632 Y-18.3748
G01 X37.0746 Y-18.3792
G01 X37.1485 Y-18.4057
G01 X37.1602 Y-18.4095
G01 X37.1720 Y-18.4128
G01 X37.2482 Y-18.4319
G01 X37.2602 Y-18.4345
G01 X37.2722 Y-18.4366
G01 X37.3499 Y-18.4482
G01 X37.3621 Y-18.4497
G01 X37.3743 Y-18.4506
G01 X37.4527 Y-18.4544
G01 X37.4650 Y-18.4547
G01 X37.4773 Y-18.4544
G01 X37.5557 Y-18.4506
G01 X37.5679 Y-18.4497
G01 X37.5801 Y-18.4482
G01 X37.6578 Y-18.4366
G01 X37.6698 Y-18.4345
G01 X37.6818 Y-18.4319
G01 X37.7580 Y-18.4128
G01 X37.7698 Y-18.4095
G01 X37.7815 Y-18.4057
G01 X37.8554 Y-18.3792
G01 X37.8668 Y-18.3748
G01 X37.8780 Y-18.3698
G01 X37.9490 Y-18.3362
G01 X37.9600 Y-18.3307
G01 X37.9706 Y-18.3247
G01 X38.0380 Y-18.2843
G01 X38.0483 Y-18.2778
G01 X38.0584 Y-18.2707
G01 X38.1214 Y-18.2239
G01 X38.1311 Y-18.2164
G01 X38.1404 Y-18.2084
G01 X38.1986 Y-18.1556
G01 X38.2075 Y-18.1472
G01 X38.2159 Y-18.1383
G01 X38.2686 Y-18.0801
G01 X38.2767 Y-18.0708
G01 X38.2842 Y-18.0612
G01 X38.3310 Y-17.9981
G01 X38.3380 Y-17.9881
G01 X38.3446 Y-17.9777
G01 X38.3850 Y-17.9104
G01 X38.3910 Y-17.8997
G01 X38.3965 Y-17.8887
G01 X38.4301 Y-17.8178
G01 X38.4351 Y-17.8065
G01 X38.4395 Y-17.7951
G01 X38.4659 Y-17.7212
G01 X38.4698 Y-17.7095
G01 X38.4731 Y-17.6977
G01 X38.4921 Y-17.6215
G01 X38.4948 Y-17.6096
G01 X38.4969 Y-17.5975
G01 X38.5084 Y-17.5198
G01 X38.5099 Y-17.5076
G01 X38.5108 Y-17.4954
G01 X38.5147 Y-17.4170
G01 X38.5150 Y-17.4047
G01 X38.5147 Y-17.3924
G01 X38.5108 Y-17.3140
G01 X38.5099 Y-17.3018
G01 X38.5084 Y-17.2896
G01 X38.4969 Y-17.2120
G01 X38.4948 Y-17.1999
G01 X38.4921 Y-17.1879
G01 X38.4731 Y-17.1117
G01 X38.4698 Y-17.0999
G01 X38.4659 Y-17.0883
G01 X38.4395 Y-17.0143
G01 X38.4351 Y-17.0029
G01 X38.4301 Y-16.9917
G01 X38.3938 Y-16.9152
G01 X38.3850 Y-16.8991
G01 X38.3446 Y-16.8317
G01 X38.3380 Y-16.8214
G01 X38.3310 Y-16.8113
G01 X38.2842 Y-16.7483
G01 X38.2767 Y-16.7386
G01 X38.2686 Y-16.7293
G01 X38.2159 Y-16.6711
G01 X38.2075 Y-16.6623
G01 X38.1986 Y-16.6538
G01 X38.1404 Y-16.6011
G01 X38.1311 Y-16.5931
G01 X38.1214 Y-16.5855
G01 X38.0584 Y-16.5387
G01 X38.0483 Y-16.5317
G01 X38.0380 Y-16.5251
G01 X37.9706 Y-16.4847
G01 X37.9600 Y-16.4787
G01 X37.9469 Y-16.4722
G01 X37.9456 Y-15.8491
G01 X37.9584 Y-15.8340
G01 X37.9657 Y-15.8242
G01 X37.9725 Y-15.8140
G01 X37.9818 Y-15.7981
G01 X37.9873 Y-15.7871
G01 X37.9923 Y-15.7759
G01 X37.9967 Y-15.7644
G01 X38.0005 Y-15.7528
G01 X38.0038 Y-15.7410
G01 X38.0065 Y-15.7290
G01 X38.0086 Y-15.7169
G01 X38.0101 Y-15.7047
G01 X38.0112 Y-15.6864
G01 X38.0113 Y-14.3032
G01 X38.0110 Y-14.2909
G01 X38.0101 Y-14.2787
G01 X38.0086 Y-14.2665
G01 X38.0065 Y-14.2544
G01 X38.0022 Y-14.2365
G01 X37.9987 Y-14.2248
G01 X37.9945 Y-14.2132
G01 X37.9898 Y-14.2019
G01 X37.9846 Y-14.1908
G01 X37.9788 Y-14.1800
G01 X37.9725 Y-14.1695
G01 X37.9657 Y-14.1593
G01 X37.9584 Y-14.1494
G01 X37.9452 Y-14.1339
G01 X37.9452 Y-13.7235
G01 X38.0232 Y-13.6866
G01 X38.0342 Y-13.6811
G01 X38.0449 Y-13.6751
G01 X38.1290 Y-13.6246
G01 X38.1394 Y-13.6181
G01 X38.1494 Y-13.6110
G01 X38.2282 Y-13.5525
G01 X38.2379 Y-13.5450
G01 X38.2472 Y-13.5370
G01 X38.3199 Y-13.4711
G01 X38.3288 Y-13.4626
G01 X38.3373 Y-13.4537
G01 X38.4032 Y-13.3810
G01 X38.4112 Y-13.3717
G01 X38.4187 Y-13.3620
G01 X38.4772 Y-13.2832
G01 X38.4843 Y-13.2732
G01 X38.4908 Y-13.2628
G01 X38.5413 Y-13.1786
G01 X38.5473 Y-13.1680
G01 X38.5528 Y-13.1570
G01 X38.5948 Y-13.0683
G01 X38.5998 Y-13.0571
G01 X38.6042 Y-13.0456
G01 X38.6373 Y-12.9532
G01 X38.6411 Y-12.9416
G01 X38.6444 Y-12.9297
G01 X38.6682 Y-12.8346
G01 X38.6709 Y-12.8226
G01 X38.6730 Y-12.8105
G01 X38.6874 Y-12.7134
G01 X38.6889 Y-12.7012
G01 X38.6898 Y-12.6890
G01 X38.6946 Y-12.5910
G01 X38.6949 Y-12.5787
G01 X38.6946 Y-12.5664
G01 X38.6898 Y-12.4684
G01 X38.6889 Y-12.4562
G01 X38.6874 Y-12.4440
G01 X38.6730 Y-12.3469
G01 X38.6709 Y-12.3349
G01 X38.6682 Y-12.3229
G01 X38.6428 Y-12.2218
G01 X38.6373 Y-12.2042
G01 X38.6042 Y-12.1118
G01 X38.5998 Y-12.1004
G01 X38.5948 Y-12.0891
G01 X38.5528 Y-12.0004
G01 X38.5473 Y-11.9895
G01 X38.5413 Y-11.9788
G01 X38.4908 Y-11.8946
G01 X38.4843 Y-11.8843
G01 X38.4772 Y-11.8742
G01 X38.4187 Y-11.7954
G01 X38.4112 Y-11.7857
G01 X38.4032 Y-11.7764
G01 X38.3373 Y-11.7037
G01 X38.3288 Y-11.6948
G01 X38.3199 Y-11.6864
G01 X38.2472 Y-11.6205
G01 X38.2379 Y-11.6125
G01 X38.2282 Y-11.6049
G01 X38.1494 Y-11.5464
G01 X38.1394 Y-11.5394
G01 X38.1290 Y-11.5328
G01 X38.0449 Y-11.4824
G01 X38.0342 Y-11.4763
G01 X38.0232 Y-11.4708
G01 X37.9345 Y-11.4288
G01 X37.9233 Y-11.4239
G01 X37.9118 Y-11.4194
G01 X37.8194 Y-11.3864
G01 X37.8078 Y-11.3825
G01 X37.7960 Y-11.3793
G01 X37.7008 Y-11.3554
G01 X37.6888 Y-11.3527
G01 X37.6767 Y-11.3506
G01 X37.5796 Y-11.3362
G01 X37.5675 Y-11.3347
G01 X37.5552 Y-11.3338
G01 X37.4572 Y-11.3290
G01 X37.4449 Y-11.3287
G01 X37.4327 Y-11.3290
G01 X37.3346 Y-11.3338
G01 X37.3224 Y-11.3347
G01 X37.3102 Y-11.3362
G01 X37.2132 Y-11.3506
G01 X37.2011 Y-11.3527
G01 X37.1891 Y-11.3554
G01 X37.0939 Y-11.3793
G01 X37.0821 Y-11.3825
G01 X37.0704 Y-11.3864
G01 X36.9780 Y-11.4194
G01 X36.9666 Y-11.4239
G01 X36.9554 Y-11.4288
G01 X36.8666 Y-11.4708
G01 X36.8557 Y-11.4763
G01 X36.8450 Y-11.4824
G01 X36.7608 Y-11.5328
G01 X36.7505 Y-11.5394
G01 X36.7404 Y-11.5464
G01 X36.6616 Y-11.6049
G01 X36.6519 Y-11.6125
G01 X36.6426 Y-11.6205
G01 X36.5699 Y-11.6864
G01 X36.5610 Y-11.6948
G01 X36.5526 Y-11.7037
G01 X36.4867 Y-11.7764
G01 X36.4787 Y-11.7857
G01 X36.4711 Y-11.7954
G01 X36.4127 Y-11.8742
G01 X36.4056 Y-11.8843
G01 X36.3990 Y-11.8946
G01 X36.3486 Y-11.9788
G01 X36.3425 Y-11.9895
G01 X36.3370 Y-12.0004
G01 X36.2951 Y-12.0891
G01 X36.2901 Y-12.1004
G01 X36.2857 Y-12.1118
G01 X36.2526 Y-12.2042
G01 X36.2488 Y-12.2159
G01 X36.2455 Y-12.2277
G01 X36.2216 Y-12.3229
G01 X36.2189 Y-12.3349
G01 X36.2169 Y-12.3469
G01 X36.2025 Y-12.4440
G01 X36.2009 Y-12.4562
G01 X36.2000 Y-12.4684
G01 X36.1950 Y-12.5734
G01 X36.1899 Y-12.4684
G01 X36.1890 Y-12.4562
G01 X36.1875 Y-12.4440
G01 X36.1731 Y-12.3469
G01 X36.1710 Y-12.3349
G01 X36.1684 Y-12.3229
G01 X36.1445 Y-12.2277
G01 X36.1412 Y-12.2159
G01 X36.1374 Y-12.2042
G01 X36.1043 Y-12.1118
G01 X36.0999 Y-12.1004
G01 X36.0949 Y-12.0891
G01 X36.0503 Y-11.9949
G01 X36.0414 Y-11.9788
G01 X35.9910 Y-11.8946
G01 X35.9844 Y-11.8843
G01 X35.9773 Y-11.8742
G01 X35.9189 Y-11.7954
G01 X35.9074 Y-11.7810
G01 X35.8374 Y-11.7037
G01 X35.8289 Y-11.6948
G01 X35.8201 Y-11.6864
G01 X35.7473 Y-11.6205
G01 X35.7381 Y-11.6125
G01 X35.7284 Y-11.6049
G01 X35.6753 Y-11.5655
G01 X35.6753 Y-10.9160
G01 X37.9890 Y-10.9160
G01 X38.0079 Y-10.9155
G01 X38.0564 Y-10.9129
G01 X38.0753 Y-10.9109
G01 X38.1354 Y-10.9015
G01 X38.1950 Y-10.8869
G01 X38.2126 Y-10.8818
G01 X38.2647 Y-10.8633
G01 X38.2761 Y-10.8589
G01 X38.2873 Y-10.8539
G01 X38.3427 Y-10.8274
G01 X38.3533 Y-10.8213
G01 X38.4058 Y-10.7895
G01 X38.4553 Y-10.7532
G01 X38.4650 Y-10.7457
G01 X38.4742 Y-10.7377
G01 X38.5151 Y-10.7005
G01 X38.5280 Y-10.6873
G01 X38.5690 Y-10.6417
G01 X38.6057 Y-10.5926
G01 X38.6162 Y-10.5774
G01 X38.6446 Y-10.5301
G01 X38.6535 Y-10.5139
G01 X38.6797 Y-10.4585
G01 X38.6844 Y-10.4471
G01 X38.6909 Y-10.4291
G01 X38.7041 Y-10.4200
G01 X38.7138 Y-10.4125
G01 X38.7231 Y-10.4045
G01 X38.7320 Y-10.3960
G01 X38.7404 Y-10.3871
G01 X38.7523 Y-10.3730
G01 X38.7596 Y-10.3632
G01 X38.7664 Y-10.3530
G01 X38.7727 Y-10.3424
G01 X38.7812 Y-10.3261
G01 X38.7884 Y-10.3092
G01 X38.7926 Y-10.2976
G01 X38.7961 Y-10.2859
G01 X38.8004 Y-10.2680
G01 X38.8025 Y-10.2559
G01 X38.8045 Y-10.2376
G01 X38.8052 Y-10.2192
G01 X38.8051 Y-8.8361
G01 X38.8045 Y-8.8238
G01 X38.8033 Y-8.8116
G01 X38.8004 Y-8.7934
G01 X38.7977 Y-8.7815
G01 X38.7944 Y-8.7696
G01 X38.7906 Y-8.7580
G01 X38.7862 Y-8.7465
G01 X38.7785 Y-8.7298
G01 X38.7727 Y-8.7190
G01 X38.7664 Y-8.7085
G01 X38.7596 Y-8.6983
G01 X38.7523 Y-8.6884
G01 X38.7385 Y-8.6722
G01 X38.7385 Y-7.9950
G01 X45.6267 Y-7.9950
G01 X45.7774 Y-8.0219
G01 X45.8066 Y-8.0484
G01 X45.8207 Y-8.0602
G01 X45.8936 Y-8.1143
G01 X45.9090 Y-8.1243
G01 X45.9817 Y-8.1678
G01 X45.9980 Y-8.1762
G01 X46.0690 Y-8.2098
G01 X46.0802 Y-8.2148
G01 X46.0916 Y-8.2192
G01 X46.1655 Y-8.2457
G01 X46.1772 Y-8.2495
G01 X46.1890 Y-8.2528
G01 X46.2652 Y-8.2719
G01 X46.2772 Y-8.2745
G01 X46.2892 Y-8.2766
G01 X46.3669 Y-8.2882
G01 X46.3791 Y-8.2897
G01 X46.3913 Y-8.2906
G01 X46.4697 Y-8.2944
G01 X46.4820 Y-8.2947
G01 X46.4943 Y-8.2944
G01 X46.5727 Y-8.2906
G01 X46.5849 Y-8.2897
G01 X46.5971 Y-8.2882
G01 X46.6748 Y-8.2766
G01 X46.6868 Y-8.2745
G01 X46.6988 Y-8.2719
G01 X46.7750 Y-8.2528
G01 X46.7868 Y-8.2495
G01 X46.7985 Y-8.2457
G01 X46.8724 Y-8.2192
G01 X46.8838 Y-8.2148
G01 X46.8950 Y-8.2098
G01 X46.9660 Y-8.1762
G01 X46.9770 Y-8.1707
G01 X46.9876 Y-8.1647
G01 X47.0550 Y-8.1243
G01 X47.0653 Y-8.1178
G01 X47.0754 Y-8.1107
G01 X47.1384 Y-8.0639
G01 X47.1481 Y-8.0564
G01 X47.1574 Y-8.0484
G01 X47.2163 Y-7.9950
G01 X51.1987 Y-7.9950
G01 X51.2232 Y-8.0280
G01 X51.2347 Y-8.0424
G01 X51.3088 Y-8.1242
G01 X51.3220 Y-8.1371
G01 X51.3993 Y-8.2070
G01 X51.4137 Y-8.2185
G01 X51.4925 Y-8.2770
G01 X51.5025 Y-8.2841
G01 X51.5129 Y-8.2906
G01 X51.5971 Y-8.3411
G01 X51.6132 Y-8.3499
G01 X51.7074 Y-8.3946
G01 X51.7186 Y-8.3996
G01 X51.7301 Y-8.4040
G01 X51.8225 Y-8.4370
G01 X51.8341 Y-8.4409
G01 X51.8460 Y-8.4442
G01 X51.9412 Y-8.4680
G01 X51.9531 Y-8.4707
G01 X51.9652 Y-8.4728
G01 X52.0623 Y-8.4872
G01 X52.0745 Y-8.4887
G01 X52.0867 Y-8.4896
G01 X52.1847 Y-8.4944
G01 X52.1970 Y-8.4947
G01 X52.2093 Y-8.4944
G01 X52.3073 Y-8.4896
G01 X52.3195 Y-8.4887
G01 X52.3317 Y-8.4872
G01 X52.4288 Y-8.4728
G01 X52.4409 Y-8.4707
G01 X52.4528 Y-8.4680
G01 X52.5480 Y-8.4442
G01 X52.5599 Y-8.4409
G01 X52.5715 Y-8.4370
G01 X52.6639 Y-8.4040
G01 X52.6754 Y-8.3996
G01 X52.6866 Y-8.3946
G01 X52.7808 Y-8.3499
G01 X52.7969 Y-8.3411
G01 X52.8811 Y-8.2906
G01 X52.8915 Y-8.2841
G01 X52.9015 Y-8.2770
G01 X52.9803 Y-8.2185
G01 X52.9947 Y-8.2070
G01 X53.0720 Y-8.1371
G01 X53.0852 Y-8.1242
G01 X53.1593 Y-8.0424
G01 X53.1708 Y-8.0280
G01 X53.1953 Y-7.9950
G01 X54.4947 Y-7.9950
G01 X54.4947 Y-12.0347
G01 X54.2700 Y-12.0347
G01 X54.2516 Y-12.0354
G01 X54.2394 Y-12.0366
G01 X54.2273 Y-12.0384
G01 X54.2152 Y-12.0408
G01 X54.2033 Y-12.0438
G01 X54.1916 Y-12.0473
G01 X54.1800 Y-12.0515
G01 X54.1687 Y-12.0562
G01 X54.1576 Y-12.0614
G01 X54.1415 Y-12.0703
G01 X54.1311 Y-12.0768
G01 X54.1162 Y-12.0876
G01 X54.1021 Y-12.0995
G01 X54.0932 Y-12.1079
G01 X54.0807 Y-12.1214
G01 X54.0692 Y-12.1358
G01 X54.0588 Y-12.1510
G01 X54.0495 Y-12.1669
G01 X54.0415 Y-12.1834
G01 X54.0368 Y-12.1947
G01 X54.0308 Y-12.2121
G01 X54.0261 Y-12.2299
G01 X54.0227 Y-12.2480
G01 X54.0212 Y-12.2602
G01 X54.0201 Y-12.2786
G01 X54.0200 Y-13.6347
G01 X54.0207 Y-13.6531
G01 X54.0227 Y-13.6714
G01 X54.0261 Y-13.6895
G01 X54.0308 Y-13.7073
G01 X54.0346 Y-13.7189
G01 X54.0391 Y-13.7304
G01 X54.0440 Y-13.7416
G01 X54.0525 Y-13.7579
G01 X54.0622 Y-13.7736
G01 X54.0692 Y-13.7836
G01 X54.0768 Y-13.7933
G01 X54.0848 Y-13.8026
G01 X54.0932 Y-13.8115
G01 X54.1021 Y-13.8200
G01 X54.1162 Y-13.8318
G01 X54.1261 Y-13.8391
G01 X54.1363 Y-13.8459
G01 X54.1522 Y-13.8552
G01 X54.1687 Y-13.8633
G01 X54.1800 Y-13.8680
G01 X54.1974 Y-13.8740
G01 X54.2152 Y-13.8786
G01 X54.2273 Y-13.8810
G01 X54.2394 Y-13.8828
G01 X54.2578 Y-13.8844
G01 X54.2700 Y-13.8847
G01 X54.4947 Y-13.8847
G01 X54.4947 Y-16.2955
G01 X54.4100 Y-16.7696
G01 X54.3720 Y-16.8214
G01 X54.3654 Y-16.8317
G01 X54.3219 Y-16.9044
G01 X54.3135 Y-16.9207
G01 X54.2773 Y-16.9973
G01 X54.2705 Y-17.0143
G01 X54.2441 Y-17.0883
G01 X54.2402 Y-17.0999
G01 X54.2369 Y-17.1117
G01 X54.2164 Y-17.1939
G01 X54.2131 Y-17.2120
G01 X54.2016 Y-17.2896
G01 X54.2001 Y-17.3018
G01 X54.1992 Y-17.3140
G01 X54.1953 Y-17.3924
G01 X54.1950 Y-17.4047
G01 X54.1953 Y-17.4170
G01 X54.1992 Y-17.4954
G01 X54.2001 Y-17.5076
G01 X54.2016 Y-17.5198
G01 X54.2131 Y-17.5975
G01 X54.2152 Y-17.6096
G01 X54.2179 Y-17.6215
G01 X54.2369 Y-17.6977
G01 X54.2402 Y-17.7095
G01 X54.2441 Y-17.7212
G01 X54.2705 Y-17.7951
G01 X54.2749 Y-17.8065
G01 X54.2799 Y-17.8178
G01 X54.3135 Y-17.8887
G01 X54.3190 Y-17.8997
G01 X54.3250 Y-17.9104
G01 X54.3654 Y-17.9777
G01 X54.3720 Y-17.9881
G01 X54.3790 Y-17.9981
G01 X54.4258 Y-18.0612
G01 X54.4333 Y-18.0708
G01 X54.4414 Y-18.0801
G01 X54.4941 Y-18.1383
G01 X54.5069 Y-18.1515
G01 X54.5696 Y-18.2084
G01 X54.5789 Y-18.2164
G01 X54.5886 Y-18.2239
G01 X54.6516 Y-18.2707
G01 X54.6617 Y-18.2778
G01 X54.6720 Y-18.2843
G01 X54.7394 Y-18.3247
G01 X54.7500 Y-18.3307
G01 X54.7610 Y-18.3362
G01 X54.8320 Y-18.3698
G01 X54.8432 Y-18.3748
G01 X54.8546 Y-18.3792
G01 X54.9285 Y-18.4057
G01 X54.9402 Y-18.4095
G01 X54.9520 Y-18.4128
G01 X55.0282 Y-18.4319
G01 X55.0402 Y-18.4345
G01 X55.0522 Y-18.4366
G01 X55.1299 Y-18.4482
G01 X55.1421 Y-18.4497
G01 X55.1543 Y-18.4506
G01 X55.2337 Y-18.4545
G01 X57.0347 Y-20.2555
G01 X57.0347 Y-34.7470
G01 X55.4422 Y-36.3395
G01 X51.7483 Y-36.3395
G01 X51.7238 Y-36.3064
G01 X51.7123 Y-36.2920
G01 X51.6381 Y-36.2102
G01 X51.6250 Y-36.1974
G01 X51.5522 Y-36.1315
G01 X51.5382 Y-36.1196
G01 X51.4545 Y-36.0574
G01 X51.4444 Y-36.0504
G01 X51.4341 Y-36.0438
G01 X51.3499 Y-35.9934
G01 X51.3392 Y-35.9873
G01 X51.3282 Y-35.9818
G01 X51.2340 Y-35.9373
G01 X51.2169 Y-35.9304
G01 X51.1245 Y-35.8974
G01 X51.1128 Y-35.8935
G01 X51.1010 Y-35.8903
G01 X51.0058 Y-35.8664
G01 X50.9938 Y-35.8637
G01 X50.9817 Y-35.8616
G01 X50.8847 Y-35.8472
G01 X50.8725 Y-35.8457
G01 X50.8602 Y-35.8448
G01 X50.7622 Y-35.8400
G01 X50.7500 Y-35.8397
G01 X50.7377 Y-35.8400
G01 X50.6397 Y-35.8448
G01 X50.6274 Y-35.8457
G01 X50.6153 Y-35.8472
G01 X50.5182 Y-35.8616
G01 X50.5061 Y-35.8637
G01 X50.4941 Y-35.8664
G01 X50.3989 Y-35.8903
G01 X50.3871 Y-35.8935
G01 X50.3755 Y-35.8974
G01 X50.2831 Y-35.9304
G01 X50.2716 Y-35.9349
G01 X50.2604 Y-35.9398
G01 X50.1717 Y-35.9818
G01 X50.1607 Y-35.9873
G01 X50.1500 Y-35.9934
G01 X50.0659 Y-36.0438
G01 X50.0555 Y-36.0504
G01 X50.0455 Y-36.0574
G01 X49.9666 Y-36.1159
G01 X49.9570 Y-36.1235
G01 X49.9477 Y-36.1315
G01 X49.8750 Y-36.1974
G01 X49.8661 Y-36.2058
G01 X49.8576 Y-36.2147
G01 X49.7917 Y-36.2874
G01 X49.7837 Y-36.2967
G01 X49.7761 Y-36.3064
G01 X49.7177 Y-36.3852
G01 X49.7106 Y-36.3953
G01 X49.7041 Y-36.4056
G01 X49.6536 Y-36.4898
G01 X49.6476 Y-36.5005
G01 X49.6420 Y-36.5114
G01 X49.6001 Y-36.6001
G01 X49.5951 Y-36.6114
G01 X49.5907 Y-36.6228
G01 X49.5576 Y-36.7152
G01 X49.5538 Y-36.7269
G01 X49.5505 Y-36.7387
G01 X49.5267 Y-36.8339
G01 X49.5240 Y-36.8459
G01 X49.5219 Y-36.8579
G01 X49.5075 Y-36.9550
G01 X49.5060 Y-36.9672
G01 X49.5051 Y-36.9794
G01 X49.5003 Y-37.0774
G01 X49.5000 Y-37.0897
G01 X49.5003 Y-37.1020
G01 X49.5051 Y-37.2000
G01 X49.5060 Y-37.2122
G01 X49.5075 Y-37.2244
G01 X49.5219 Y-37.3215
G01 X49.5240 Y-37.3336
G01 X49.5267 Y-37.3456
G01 X49.5505 Y-37.4407
G01 X49.5538 Y-37.4526
G01 X49.5576 Y-37.4642
G01 X49.5907 Y-37.5566
G01 X49.5951 Y-37.5681
G01 X49.6001 Y-37.5793
G01 X49.6420 Y-37.6680
G01 X49.6476 Y-37.6790
G01 X49.6536 Y-37.6896
G01 X49.7041 Y-37.7738
G01 X49.7106 Y-37.7842
G01 X49.7177 Y-37.7942
G01 X49.7761 Y-37.8730
G01 X49.7837 Y-37.8827
G01 X49.7917 Y-37.8920
G01 X49.8576 Y-37.9647
G01 X49.8661 Y-37.9736
G01 X49.8750 Y-37.9821
G01 X49.9477 Y-38.0480
G01 X49.9570 Y-38.0560
G01 X49.9666 Y-38.0635
G01 X50.0455 Y-38.1220
G01 X50.0555 Y-38.1291
G01 X50.0659 Y-38.1356
G01 X50.1500 Y-38.1861
G01 X50.1607 Y-38.1921
G01 X50.1717 Y-38.1976
G01 X50.2604 Y-38.2396
G01 X50.2716 Y-38.2446
G01 X50.2831 Y-38.2490
G01 X50.3755 Y-38.2820
G01 X50.3871 Y-38.2859
G01 X50.3989 Y-38.2892
G01 X50.4941 Y-38.3130
G01 X50.5061 Y-38.3157
G01 X50.5182 Y-38.3178
G01 X50.6153 Y-38.3322
G01 X50.6274 Y-38.3337
G01 X50.6397 Y-38.3346
G01 X50.7377 Y-38.3394
G01 X50.7500 Y-38.3397
G01 X50.7622 Y-38.3394
G01 X50.8602 Y-38.3346
G01 X50.8725 Y-38.3337
G01 X50.8847 Y-38.3322
G01 X50.9817 Y-38.3178
G01 X50.9938 Y-38.3157
G01 X51.0058 Y-38.3130
G01 X51.1010 Y-38.2892
G01 X51.1128 Y-38.2859
G01 X51.1245 Y-38.2820
G01 X51.2169 Y-38.2490
G01 X51.2340 Y-38.2421
G01 X51.3282 Y-38.1976
G01 X51.3392 Y-38.1921
G01 X51.3499 Y-38.1861
G01 X51.4341 Y-38.1356
G01 X51.4444 Y-38.1291
G01 X51.4545 Y-38.1220
G01 X51.5382 Y-38.0598
G01 X51.5522 Y-38.0480
G01 X51.6250 Y-37.9821
G01 X51.6381 Y-37.9692
G01 X51.7123 Y-37.8874
G01 X51.7238 Y-37.8730
G01 X51.7483 Y-37.8400
G01 X55.7591 Y-37.8399
G01 X55.8143 Y-37.8373
G01 X55.8265 Y-37.8364
G01 X55.8873 Y-37.8276
G01 X55.8994 Y-37.8255
G01 X55.9113 Y-37.8229
G01 X55.9708 Y-37.8077
G01 X55.9824 Y-37.8038
G01 X56.0344 Y-37.7851
G01 X56.0513 Y-37.7779
G01 X56.1067 Y-37.7514
G01 X56.1173 Y-37.7453
G01 X56.1698 Y-37.7135
G01 X56.2193 Y-37.6772
G01 X56.2290 Y-37.6697
G01 X56.2382 Y-37.6617
G01 X56.2791 Y-37.6245
G01 X58.3198 Y-35.5838
G01 X58.3569 Y-35.5430
G01 X58.3650 Y-35.5337
G01 X58.3725 Y-35.5240
G01 X58.4053 Y-35.4796
G01 X58.4154 Y-35.4642
G01 X58.4406 Y-35.4221
G01 X58.4467 Y-35.4114
G01 X58.4522 Y-35.4004
G01 X58.4781 Y-35.3448
G01 X58.4826 Y-35.3334
G01 X58.5029 Y-35.2755
G01 X58.5181 Y-35.2161
G01 X58.5208 Y-35.2041
G01 X58.5301 Y-35.1434
G01 X58.5316 Y-35.1313
G01 X58.5325 Y-35.1190
G01 X58.5353 Y-35.0577
G01 X58.5353 Y-19.9447
G01 X58.5349 Y-19.9324
G01 X58.5316 Y-19.8712
G01 X58.5229 Y-19.8104
G01 X58.5208 Y-19.7983
G01 X58.5181 Y-19.7864
G01 X58.5029 Y-19.7269
G01 X58.4826 Y-19.6691
G01 X58.4757 Y-19.6520
G01 X58.4522 Y-19.6020
G01 X58.4467 Y-19.5910
G01 X58.4406 Y-19.5804
G01 X58.4088 Y-19.5279
G01 X58.3725 Y-19.4784
G01 X58.3610 Y-19.4641
G01 X58.3240 Y-19.4231
G01 X58.3155 Y-19.4142
G01 X56.2947 Y-17.3934
G01 X56.2908 Y-17.3140
G01 X56.2899 Y-17.3018
G01 X56.2884 Y-17.2896
G01 X56.2769 Y-17.2120
G01 X56.2748 Y-17.1999
G01 X56.2721 Y-17.1879
G01 X56.2531 Y-17.1117
G01 X56.2498 Y-17.0999
G01 X56.2459 Y-17.0883
G01 X56.2195 Y-17.0143
G01 X56.2151 Y-17.0029
G01 X56.2101 Y-16.9917
G01 X56.1765 Y-16.9207
G01 X56.1710 Y-16.9097
G01 X56.1650 Y-16.8991
G01 X56.1214 Y-16.8265
G01 X56.1110 Y-16.8113
G01 X56.0800 Y-16.7695
G01 X55.9953 Y-16.2955
G01 X55.9953 Y-7.2447
G01 X55.9949 Y-7.2324
G01 X55.9916 Y-7.1712
G01 X55.9829 Y-7.1104
G01 X55.9808 Y-7.0983
G01 X55.9781 Y-7.0864
G01 X55.9629 Y-7.0269
G01 X55.9591 Y-7.0153
G01 X55.9404 Y-6.9633
G01 X55.9332 Y-6.9464
G01 X55.9067 Y-6.8910
G01 X55.8754 Y-6.8383
G01 X55.8688 Y-6.8279
G01 X55.8617 Y-6.8179
G01 X55.8288 Y-6.7736
G01 X55.8169 Y-6.7595
G01 X55.7755 Y-6.7142
G01 X55.7302 Y-6.6728
G01 X55.7210 Y-6.6648
G01 X55.7113 Y-6.6572
G01 X55.6618 Y-6.6209
G01 X55.6093 Y-6.5891
G01 X55.5987 Y-6.5831
G01 X55.5877 Y-6.5775
G01 X55.5321 Y-6.5516
G01 X55.4744 Y-6.5306
G01 X55.4628 Y-6.5268
G01 X55.4510 Y-6.5235
G01 X55.3914 Y-6.5089
G01 X55.3307 Y-6.4996
G01 X55.3124 Y-6.4976
G01 X55.2511 Y-6.4945
G01 X53.1953 Y-6.4945
G01 X53.1708 Y-6.4614
G01 X53.1593 Y-6.4470
G01 X53.0852 Y-6.3652
G01 X53.0720 Y-6.3524
G01 X52.9947 Y-6.2824
G01 X52.9803 Y-6.2709
G01 X52.9015 Y-6.2124
G01 X52.8915 Y-6.2054
G01 X52.8811 Y-6.1988
G01 X52.7969 Y-6.1484
G01 X52.7808 Y-6.1395
G01 X52.6866 Y-6.0948
G01 X52.6754 Y-6.0899
G01 X52.6639 Y-6.0854
G01 X52.5715 Y-6.0524
G01 X52.5599 Y-6.0485
G01 X52.5480 Y-6.0453
G01 X52.4528 Y-6.0214
G01 X52.4409 Y-6.0187
G01 X52.4288 Y-6.0166
G01 X52.3317 Y-6.0022
G01 X52.3195 Y-6.0007
G01 X52.3073 Y-5.9998
G01 X52.2031 Y-5.9948
G01 X52.1847 Y-5.9950
G01 X52.0867 Y-5.9998
G01 X52.0745 Y-6.0007
G01 X52.0623 Y-6.0022
G01 X51.9652 Y-6.0166
G01 X51.9531 Y-6.0187
G01 X51.9412 Y-6.0214
G01 X51.8460 Y-6.0453
G01 X51.8341 Y-6.0485
G01 X51.8225 Y-6.0524
G01 X51.7301 Y-6.0854
G01 X51.7186 Y-6.0899
G01 X51.7074 Y-6.0948
G01 X51.6132 Y-6.1395
G01 X51.5971 Y-6.1484
G01 X51.5129 Y-6.1988
G01 X51.5025 Y-6.2054
G01 X51.4925 Y-6.2124
G01 X51.4137 Y-6.2709
G01 X51.3993 Y-6.2824
G01 X51.3220 Y-6.3524
G01 X51.3088 Y-6.3652
G01 X51.2347 Y-6.4470
G01 X51.2232 Y-6.4614
G01 X51.1987 Y-6.4945
G01 X47.2163 Y-6.4945
G01 X47.1574 Y-6.4411
G01 X47.1481 Y-6.4331
G01 X47.1384 Y-6.4255
G01 X47.0754 Y-6.3787
G01 X47.0653 Y-6.3717
G01 X47.0550 Y-6.3651
G01 X46.9876 Y-6.3247
G01 X46.9770 Y-6.3187
G01 X46.9660 Y-6.3132
G01 X46.8950 Y-6.2796
G01 X46.8838 Y-6.2746
G01 X46.8724 Y-6.2702
G01 X46.7985 Y-6.2438
G01 X46.7868 Y-6.2399
G01 X46.7750 Y-6.2367
G01 X46.6988 Y-6.2176
G01 X46.6868 Y-6.2149
G01 X46.6748 Y-6.2128
G01 X46.5971 Y-6.2013
G01 X46.5849 Y-6.1998
G01 X46.5727 Y-6.1989
G01 X46.4943 Y-6.1950
G01 X46.4820 Y-6.1947
G01 X46.4697 Y-6.1950
G01 X46.3913 Y-6.1989
G01 X46.3791 Y-6.1998
G01 X46.3669 Y-6.2013
G01 X46.2892 Y-6.2128
G01 X46.2772 Y-6.2149
G01 X46.2652 Y-6.2176
G01 X46.1890 Y-6.2367
G01 X46.1772 Y-6.2399
G01 X46.1655 Y-6.2438
G01 X46.0916 Y-6.2702
G01 X46.0802 Y-6.2746
G01 X46.0690 Y-6.2796
G01 X45.9980 Y-6.3132
G01 X45.9817 Y-6.3217
G01 X45.9090 Y-6.3651
G01 X45.8936 Y-6.3751
G01 X45.8207 Y-6.4292
G01 X45.8066 Y-6.4411
G01 X45.7774 Y-6.4675
G01 X45.6268 Y-6.4945
G01 X38.2270 Y-6.4945
G01 X38.2147 Y-6.4948
G01 X38.1535 Y-6.4981
G01 X38.1413 Y-6.4996
G01 X38.0867 Y-6.5078
G01 X38.0687 Y-6.5116
G01 X38.0210 Y-6.5235
G01 X38.0092 Y-6.5268
G01 X37.9976 Y-6.5306
G01 X37.9399 Y-6.5516
G01 X37.8843 Y-6.5775
G01 X37.8733 Y-6.5831
G01 X37.8206 Y-6.6143
G01 X37.8102 Y-6.6209
G01 X37.8002 Y-6.6280
G01 X37.7510 Y-6.6648
G01 X37.7418 Y-6.6728
G01 X37.7009 Y-6.7099
G01 X34.6142 Y-9.7965
G01 X29.9659 Y-9.7965
G01 X29.9107 Y-9.7992
G01 X29.8985 Y-9.8001
G01 X29.8377 Y-9.8088
G01 X29.8196 Y-9.8122
G01 X29.7601 Y-9.8271
G01 X29.7426 Y-9.8326
G01 X29.6849 Y-9.8536
G01 X29.6293 Y-9.8795
G01 X29.6183 Y-9.8851
G01 X29.6077 Y-9.8911
G01 X29.5552 Y-9.9229
G01 X29.5057 Y-9.9592
G01 X29.4960 Y-9.9668
G01 X29.4868 Y-9.9748
G01 X29.4415 Y-10.0162
G01 X25.5972 Y-13.8605
G01 X15.3670 Y-13.8605
G01 X15.3057 Y-13.8632
G01 X15.2935 Y-13.8641
G01 X15.2327 Y-13.8728
G01 X15.2206 Y-13.8749
G01 X15.2087 Y-13.8776
G01 X15.1492 Y-13.8928
G01 X15.1376 Y-13.8966
G01 X15.0856 Y-13.9153
G01 X15.0687 Y-13.9225
G01 X15.0133 Y-13.9491
G01 X15.0027 Y-13.9551
G01 X14.9502 Y-13.9869
G01 X14.9007 Y-14.0232
G01 X14.8910 Y-14.0308
G01 X14.8818 Y-14.0388
G01 X14.8365 Y-14.0802
G01 X9.7565 Y-19.1602
G01 X9.7151 Y-19.2055
G01 X9.7070 Y-19.2148
G01 X9.6995 Y-19.2244
G01 X9.6667 Y-19.2688
G01 X9.6566 Y-19.2843
G01 X9.6314 Y-19.3264
G01 X9.6253 Y-19.3370
G01 X9.6198 Y-19.3480
G01 X9.5939 Y-19.4036
G01 X9.5894 Y-19.4151
G01 X9.5691 Y-19.4729
G01 X9.5539 Y-19.5324
G01 X9.5512 Y-19.5443
G01 X9.5491 Y-19.5564
G01 X9.5404 Y-19.6172
G01 X9.5371 Y-19.6784
G01 X9.5367 Y-19.6907
G01 X9.5367 Y-21.9200
G01 X9.3412 Y-22.1155
G01 X4.0640 Y-22.1155
G01 X4.0027 Y-22.1182
G01 X3.9905 Y-22.1191
G01 X3.9297 Y-22.1278
G01 X3.9176 Y-22.1299
G01 X3.9057 Y-22.1326
G01 X3.8462 Y-22.1478
G01 X3.7883 Y-22.1682
G01 X3.7769 Y-22.1726
G01 X3.7213 Y-22.1985
G01 X3.7103 Y-22.2041
G01 X3.6997 Y-22.2101
G01 X3.6472 Y-22.2419
G01 X3.5977 Y-22.2782
G01 X3.5834 Y-22.2897
G01 X3.5379 Y-22.3309
G01 X1.2432 Y-24.6256
G01 X1.2061 Y-24.6665
G01 X1.1980 Y-24.6758
G01 X1.1905 Y-24.6854
G01 X1.1542 Y-24.7349
G01 X1.1224 Y-24.7874
G01 X1.1163 Y-24.7980
G01 X1.1108 Y-24.8090
G01 X1.0873 Y-24.8590
G01 X1.0804 Y-24.8761
G01 X1.0601 Y-24.9339
G01 X1.0449 Y-24.9934
G01 X1.0422 Y-25.0053
G01 X1.0401 Y-25.0174
G01 X1.0320 Y-25.0721
G01 X1.0305 Y-25.0904
G01 X1.0277 Y-25.1517
G01 X1.0278 Y-28.7142
G00 Z2.0000
G00 X4.8975 Y-31.7917
G01 F60.00
G01 Z-0.2000
G01 F120.00
G01 X4.8852 Y-31.7920
G01 X4.8137 Y-31.7955
G01 X4.8014 Y-31.7964
G01 X4.7893 Y-31.7979
G01 X4.7184 Y-31.8085
G01 X4.7063 Y-31.8105
G01 X4.6943 Y-31.8132
G01 X4.6248 Y-31.8306
G01 X4.6130 Y-31.8339
G01 X4.6014 Y-31.8378
G01 X4.5339 Y-31.8619
G01 X4.5225 Y-31.8663
G01 X4.5113 Y-31.8713
G01 X4.4465 Y-31.9019
G01 X4.4355 Y-31.9074
G01 X4.4249 Y-31.9135
G01 X4.3634 Y-31.9503
G01 X4.3530 Y-31.9569
G01 X4.3430 Y-31.9639
G01 X4.2855 Y-32.0066
G01 X4.2758 Y-32.0142
G01 X4.2665 Y-32.0222
G01 X4.2134 Y-32.0703
G01 X4.2045 Y-32.0788
G01 X4.1961 Y-32.0876
G01 X4.1480 Y-32.1407
G01 X4.1400 Y-32.1500
G01 X4.1324 Y-32.1597
G01 X4.0897 Y-32.2172
G01 X4.0827 Y-32.2273
G01 X4.0761 Y-32.2376
G01 X4.0393 Y-32.2991
G01 X4.0332 Y-32.3097
G01 X4.0277 Y-32.3207
G01 X3.9971 Y-32.3855
G01 X3.9921 Y-32.3967
G01 X3.9877 Y-32.4081
G01 X3.9636 Y-32.4756
G01 X3.9597 Y-32.4872
G01 X3.9564 Y-32.4991
G01 X3.9390 Y-32.5686
G01 X3.9363 Y-32.5805
G01 X3.9342 Y-32.5926
G01 X3.9237 Y-32.6635
G01 X3.9222 Y-32.6757
G01 X3.9213 Y-32.6879
G01 X3.9178 Y-32.7594
G01 X3.9175 Y-32.7717
G01 X3.9178 Y-32.7840
G01 X3.9213 Y-32.8555
G01 X3.9222 Y-32.8678
G01 X3.9237 Y-32.8800
G01 X3.9342 Y-32.9508
G01 X3.9363 Y-32.9629
G01 X3.9390 Y-32.9749
G01 X3.9564 Y-33.0444
G01 X3.9597 Y-33.0562
G01 X3.9636 Y-33.0678
G01 X3.9898 Y-33.1410
G01 X3.9971 Y-33.1580
G01 X4.0277 Y-33.2227
G01 X4.0332 Y-33.2337
G01 X4.0393 Y-33.2444
G01 X4.0761 Y-33.3058
G01 X4.0827 Y-33.3162
G01 X4.0897 Y-33.3262
G01 X4.1324 Y-33.3837
G01 X4.1400 Y-33.3934
G01 X4.1480 Y-33.4027
G01 X4.1961 Y-33.4558
G01 X4.2045 Y-33.4647
G01 X4.2134 Y-33.4731
G01 X4.2711 Y-33.5253
G01 X4.2855 Y-33.5368
G01 X4.3430 Y-33.5795
G01 X4.3530 Y-33.5866
G01 X4.3634 Y-33.5931
G01 X4.4249 Y-33.6299
G01 X4.4355 Y-33.6360
G01 X4.4465 Y-33.6415
G01 X4.5113 Y-33.6721
G01 X4.5225 Y-33.6771
G01 X4.5339 Y-33.6815
G01 X4.6072 Y-33.7077
G01 X4.6248 Y-33.7128
G01 X4.6943 Y-33.7302
G01 X4.7063 Y-33.7329
G01 X4.7184 Y-33.7350
G01 X4.7893 Y-33.7455
G01 X4.8076 Y-33.7475
G01 X4.8852 Y-33.7514
G01 X4.8975 Y-33.7517
G01 X5.2686 Y-33.7516
G01 X5.3463 Y-33.7479
G01 X5.3586 Y-33.7470
G01 X5.3707 Y-33.7455
G01 X5.4416 Y-33.7350
G01 X5.4537 Y-33.7329
G01 X5.4657 Y-33.7302
G01 X5.5352 Y-33.7128
G01 X5.5470 Y-33.7095
G01 X5.5586 Y-33.7057
G01 X5.6318 Y-33.6794
G01 X5.6487 Y-33.6721
G01 X5.7135 Y-33.6415
G01 X5.7245 Y-33.6360
G01 X5.7351 Y-33.6299
G01 X5.7966 Y-33.5931
G01 X5.8070 Y-33.5866
G01 X5.8170 Y-33.5795
G01 X5.8745 Y-33.5368
G01 X5.8842 Y-33.5293
G01 X5.8935 Y-33.5212
G01 X5.9466 Y-33.4731
G01 X5.9555 Y-33.4647
G01 X5.9639 Y-33.4558
G01 X6.0120 Y-33.4027
G01 X6.0200 Y-33.3934
G01 X6.0276 Y-33.3837
G01 X6.0703 Y-33.3262
G01 X6.0773 Y-33.3162
G01 X6.0839 Y-33.3058
G01 X6.1207 Y-33.2444
G01 X6.1268 Y-33.2337
G01 X6.1323 Y-33.2227
G01 X6.1629 Y-33.1580
G01 X6.1679 Y-33.1467
G01 X6.1723 Y-33.1353
G01 X6.1964 Y-33.0678
G01 X6.2003 Y-33.0562
G01 X6.2036 Y-33.0444
G01 X6.2210 Y-32.9749
G01 X6.2237 Y-32.9629
G01 X6.2258 Y-32.9508
G01 X6.2363 Y-32.8800
G01 X6.2378 Y-32.8678
G01 X6.2387 Y-32.8555
G01 X6.2422 Y-32.7840
G01 X6.2425 Y-32.7717
G01 X6.2422 Y-32.7594
G01 X6.2387 Y-32.6879
G01 X6.2378 Y-32.6757
G01 X6.2363 Y-32.6635
G01 X6.2258 Y-32.5926
G01 X6.2237 Y-32.5805
G01 X6.2210 Y-32.5686
G01 X6.2036 Y-32.4991
G01 X6.2003 Y-32.4872
G01 X6.1964 Y-32.4756
G01 X6.1702 Y-32.4024
G01 X6.1629 Y-32.3855
G01 X6.1323 Y-32.3207
G01 X6.1268 Y-32.3097
G01 X6.1207 Y-32.2991
G01 X6.0839 Y-32.2376
G01 X6.0773 Y-32.2273
G01 X6.0703 Y-32.2172
G01 X6.0276 Y-32.1597
G01 X6.0200 Y-32.1500
G01 X6.0120 Y-32.1407
G01 X5.9639 Y-32.0876
G01 X5.9511 Y-32.0745
G01 X5.8935 Y-32.0222
G01 X5.8842 Y-32.0142
G01 X5.8745 Y-32.0066
G01 X5.8170 Y-31.9639
G01 X5.8018 Y-31.9535
G01 X5.7351 Y-31.9135
G01 X5.7245 Y-31.9074
G01 X5.7135 Y-31.9019
G01 X5.6487 Y-31.8713
G01 X5.6375 Y-31.8663
G01 X5.6261 Y-31.8619
G01 X5.5586 Y-31.8378
G01 X5.5470 Y-31.8339
G01 X5.5352 Y-31.8306
G01 X5.4657 Y-31.8132
G01 X5.4537 Y-31.8105
G01 X5.4416 Y-31.8085
G01 X5.3647 Y-31.7971
G01 X5.3463 Y-31.7955
G01 X5.2748 Y-31.7920
G01 X5.2625 Y-31.7917
G01 X4.8975 Y-31.7917
G00 Z2.0000
G00 X4.8975 Y-34.3317
G01 F60.00
G01 Z-0.2000
G01 F120.00
G01 X4.8852 Y-34.3320
G01 X4.8137 Y-34.3355
G01 X4.8014 Y-34.3364
G01 X4.7893 Y-34.3379
G01 X4.7184 Y-34.3485
G01 X4.7063 Y-34.3505
G01 X4.6943 Y-34.3532
G01 X4.6248 Y-34.3706
G01 X4.6130 Y-34.3739
G01 X4.6014 Y-34.3778
G01 X4.5339 Y-34.4019
G01 X4.5225 Y-34.4063
G01 X4.5113 Y-34.4113
G01 X4.4465 Y-34.4419
G01 X4.4355 Y-34.4474
G01 X4.4249 Y-34.4535
G01 X4.3634 Y-34.4903
G01 X4.3530 Y-34.4969
G01 X4.3430 Y-34.5039
G01 X4.2855 Y-34.5466
G01 X4.2758 Y-34.5542
G01 X4.2665 Y-34.5622
G01 X4.2134 Y-34.6103
G01 X4.2045 Y-34.6188
G01 X4.1961 Y-34.6276
G01 X4.1480 Y-34.6807
G01 X4.1400 Y-34.6900
G01 X4.1324 Y-34.6997
G01 X4.0897 Y-34.7572
G01 X4.0827 Y-34.7673
G01 X4.0761 Y-34.7776
G01 X4.0393 Y-34.8391
G01 X4.0332 Y-34.8497
G01 X4.0277 Y-34.8607
G01 X3.9971 Y-34.9255
G01 X3.9921 Y-34.9367
G01 X3.9877 Y-34.9481
G01 X3.9636 Y-35.0156
G01 X3.9597 Y-35.0272
G01 X3.9564 Y-35.0391
G01 X3.9390 Y-35.1086
G01 X3.9363 Y-35.1205
G01 X3.9342 Y-35.1326
G01 X3.9237 Y-35.2035
G01 X3.9222 Y-35.2157
G01 X3.9213 Y-35.2279
G01 X3.9178 Y-35.2994
G01 X3.9175 Y-35.3117
G01 X3.9178 Y-35.3240
G01 X3.9213 Y-35.3955
G01 X3.9222 Y-35.4078
G01 X3.9237 Y-35.4200
G01 X3.9342 Y-35.4908
G01 X3.9363 Y-35.5029
G01 X3.9390 Y-35.5149
G01 X3.9564 Y-35.5844
G01 X3.9597 Y-35.5962
G01 X3.9636 Y-35.6078
G01 X3.9898 Y-35.6810
G01 X3.9971 Y-35.6980
G01 X4.0277 Y-35.7627
G01 X4.0332 Y-35.7737
G01 X4.0393 Y-35.7844
G01 X4.0761 Y-35.8458
G01 X4.0827 Y-35.8562
G01 X4.0897 Y-35.8662
G01 X4.1324 Y-35.9237
G01 X4.1400 Y-35.9334
G01 X4.1480 Y-35.9427
G01 X4.1961 Y-35.9958
G01 X4.2045 Y-36.0047
G01 X4.2134 Y-36.0131
G01 X4.2711 Y-36.0653
G01 X4.2855 Y-36.0768
G01 X4.3430 Y-36.1195
G01 X4.3530 Y-36.1266
G01 X4.3634 Y-36.1331
G01 X4.4249 Y-36.1699
G01 X4.4355 Y-36.1760
G01 X4.4465 Y-36.1815
G01 X4.5113 Y-36.2121
G01 X4.5225 Y-36.2171
G01 X4.5339 Y-36.2215
G01 X4.6072 Y-36.2477
G01 X4.6248 Y-36.2528
G01 X4.6943 Y-36.2702
G01 X4.7063 Y-36.2729
G01 X4.7184 Y-36.2750
G01 X4.7893 Y-36.2855
G01 X4.8076 Y-36.2875
G01 X4.8852 Y-36.2914
G01 X4.8975 Y-36.2917
G01 X5.2686 Y-36.2916
G01 X5.3463 Y-36.2879
G01 X5.3586 Y-36.2870
G01 X5.3707 Y-36.2855
G01 X5.4416 Y-36.2750
G01 X5.4537 Y-36.2729
G01 X5.4657 Y-36.2702
G01 X5.5352 Y-36.2528
G01 X5.5470 Y-36.2495
G01 X5.5586 Y-36.2457
G01 X5.6318 Y-36.2194
G01 X5.6487 Y-36.2121
G01 X5.7135 Y-36.1815
G01 X5.7245 Y-36.1760
G01 X5.7351 Y-36.1699
G01 X5.7966 Y-36.1331
G01 X5.8070 Y-36.1266
G01 X5.8170 Y-36.1195
G01 X5.8745 Y-36.0768
G01 X5.8842 Y-36.0693
G01 X5.8935 Y-36.0612
G01 X5.9466 Y-36.0131
G01 X5.9555 Y-36.0047
G01 X5.9639 Y-35.9958
G01 X6.0120 Y-35.9427
G01 X6.0200 Y-35.9334
G01 X6.0276 Y-35.9237
G01 X6.0703 Y-35.8662
G01 X6.0773 Y-35.8562
G01 X6.0839 Y-35.8458
G01 X6.1207 Y-35.7844
G01 X6.1268 Y-35.7737
G01 X6.1323 Y-35.7627
G01 X6.1629 Y-35.6980
G01 X6.1679 Y-35.6867
G01 X6.1723 Y-35.6753
G01 X6.1964 Y-35.6078
G01 X6.2003 Y-35.5962
G01 X6.2036 Y-35.5844
G01 X6.2210 Y-35.5149
G01 X6.2237 Y-35.5029
G01 X6.2258 Y-35.4908
G01 X6.2363 Y-35.4200
G01 X6.2378 Y-35.4078
G01 X6.2387 Y-35.3955
G01 X6.2422 Y-35.3240
G01 X6.2425 Y-35.3117
G01 X6.2422 Y-35.2994
G01 X6.2387 Y-35.2279
G01 X6.2378 Y-35.2157
G01 X6.2363 Y-35.2035
G01 X6.2258 Y-35.1326
G01 X6.2237 Y-35.1205
G01 X6.2210 Y-35.1086
G01 X6.2036 Y-35.0391
G01 X6.2003 Y-35.0272
G01 X6.1964 Y-35.0156
G01 X6.1702 Y-34.9424
G01 X6.1629 Y-34.9255
G01 X6.1323 Y-34.8607
G01 X6.1268 Y-34.8497
G01 X6.1207 Y-34.8391
G01 X6.0839 Y-34.7776
G01 X6.0773 Y-34.7673
G01 X6.0703 Y-34.7572
G01 X6.0276 Y-34.6997
G01 X6.0200 Y-34.6900
G01 X6.0120 Y-34.6807
G01 X5.9639 Y-34.6276
G01 X5.9511 Y-34.6145
G01 X5.8935 Y-34.5622
G01 X5.8842 Y-34.5542
G01 X5.8745 Y-34.5466
G01 X5.8170 Y-34.5039
G01 X5.8018 Y-34.4935
G01 X5.7351 Y-34.4535
G01 X5.7245 Y-34.4474
G01 X5.7135 Y-34.4419
G01 X5.6487 Y-34.4113
G01 X5.6375 Y-34.4063
G01 X5.6261 Y-34.4019
G01 X5.5586 Y-34.3778
G01 X5.5470 Y-34.3739
G01 X5.5352 Y-34.3706
G01 X5.4657 Y-34.3532
G01 X5.4537 Y-34.3505
G01 X5.4416 Y-34.3485
G01 X5.3647 Y-34.3371
G01 X5.3463 Y-34.3355
G01 X5.2748 Y-34.3320
G01 X5.2625 Y-34.3317
G01 X4.8975 Y-34.3317
G00 Z2.0000
G00 X4.8975 Y-36.8717
G01 F60.00
G01 Z-0.2000
G01 F120.00
G01 X4.8852 Y-36.8720
G01 X4.8137 Y-36.8755
G01 X4.8014 Y-36.8764
G01 X4.7893 Y-36.8779
G01 X4.7184 Y-36.8885
G01 X4.7063 Y-36.8905
G01 X4.6943 Y-36.8932
G01 X4.6248 Y-36.9106
G01 X4.6130 Y-36.9139
G01 X4.6014 Y-36.9178
G01 X4.5339 Y-36.9419
G01 X4.5225 Y-36.9463
G01 X4.5113 Y-36.9513
G01 X4.4465 Y-36.9819
G01 X4.4355 Y-36.9874
G01 X4.4249 Y-36.9935
G01 X4.3634 Y-37.0303
G01 X4.3530 Y-37.0369
G01 X4.3430 Y-37.0439
G01 X4.2855 Y-37.0866
G01 X4.2758 Y-37.0942
G01 X4.2665 Y-37.1022
G01 X4.2134 Y-37.1503
G01 X4.2045 Y-37.1588
G01 X4.1961 Y-37.1676
G01 X4.1480 Y-37.2207
G01 X4.1400 Y-37.2300
G01 X4.1324 Y-37.2397
G01 X4.0897 Y-37.2972
G01 X4.0827 Y-37.3073
G01 X4.0761 Y-37.3176
G01 X4.0393 Y-37.3791
G01 X4.0332 Y-37.3897
G01 X4.0277 Y-37.4007
G01 X3.9971 Y-37.4655
G01 X3.9921 Y-37.4767
G01 X3.9877 Y-37.4881
G01 X3.9636 Y-37.5556
G01 X3.9597 Y-37.5672
G01 X3.9564 Y-37.5791
G01 X3.9390 Y-37.6486
G01 X3.9363 Y-37.6605
G01 X3.9342 Y-37.6726
G01 X3.9237 Y-37.7435
G01 X3.9222 Y-37.7557
G01 X3.9213 Y-37.7679
G01 X3.9178 Y-37.8394
G01 X3.9175 Y-37.8517
G01 X3.9178 Y-37.8640
G01 X3.9213 Y-37.9355
G01 X3.9222 Y-37.9478
G01 X3.9237 Y-37.9600
G01 X3.9342 Y-38.0308
G01 X3.9363 Y-38.0429
G01 X3.9390 Y-38.0549
G01 X3.9564 Y-38.1244
G01 X3.9597 Y-38.1362
G01 X3.9636 Y-38.1478
G01 X3.9898 Y-38.2210
G01 X3.9971 Y-38.2380
G01 X4.0277 Y-38.3027
G01 X4.0332 Y-38.3137
G01 X4.0393 Y-38.3244
G01 X4.0761 Y-38.3858
G01 X4.0827 Y-38.3962
G01 X4.0897 Y-38.4062
G01 X4.1324 Y-38.4637
G01 X4.1400 Y-38.4734
G01 X4.1480 Y-38.4827
G01 X4.1961 Y-38.5358
G01 X4.2045 Y-38.5447
G01 X4.2134 Y-38.5531
G01 X4.2711 Y-38.6053
G01 X4.2855 Y-38.6168
G01 X4.3430 Y-38.6595
G01 X4.3530 Y-38.6666
G01 X4.3634 Y-38.6731
G01 X4.4249 Y-38.7099
G01 X4.4355 Y-38.7160
G01 X4.4465 Y-38.7215
G01 X4.5113 Y-38.7521
G01 X4.5225 Y-38.7571
G01 X4.5339 Y-38.7615
G01 X4.6072 Y-38.7877
G01 X4.6248 Y-38.7928
G01 X4.6943 Y-38.8102
G01 X4.7063 Y-38.8129
G01 X4.7184 Y-38.8150
G01 X4.7893 Y-38.8255
G01 X4.8076 Y-38.8275
G01 X4.8852 Y-38.8314
G01 X4.8975 Y-38.8317
G01 X5.2686 Y-38.8316
G01 X5.3463 Y-38.8279
G01 X5.3586 Y-38.8270
G01 X5.3707 Y-38.8255
G01 X5.4416 Y-38.8150
G01 X5.4537 Y-38.8129
G01 X5.4657 Y-38.8102
G01 X5.5352 Y-38.7928
G01 X5.5470 Y-38.7895
G01 X5.5586 Y-38.7857
G01 X5.6318 Y-38.7594
G01 X5.6487 Y-38.7521
G01 X5.7135 Y-38.7215
G01 X5.7245 Y-38.7160
G01 X5.7351 Y-38.7099
G01 X5.7966 Y-38.6731
G01 X5.8070 Y-38.6666
G01 X5.8170 Y-38.6595
G01 X5.8745 Y-38.6168
G01 X5.8842 Y-38.6093
G01 X5.8935 Y-38.6012
G01 X5.9466 Y-38.5531
G01 X5.9555 Y-38.5447
G01 X5.9639 Y-38.5358
G01 X6.0120 Y-38.4827
G01 X6.0200 Y-38.4734
G01 X6.0276 Y-38.4637
G01 X6.0703 Y-38.4062
G01 X6.0773 Y-38.3962
G01 X6.0839 Y-38.3858
G01 X6.1207 Y-38.3244
G01 X6.1268 Y-38.3137
G01 X6.1323 Y-38.3027
G01 X6.1629 Y-38.2380
G01 X6.1679 Y-38.2267
G01 X6.1723 Y-38.2153
G01 X6.1964 Y-38.1478
G01 X6.2003 Y-38.1362
G01 X6.2036 Y-38.1244
G01 X6.2210 Y-38.0549
G01 X6.2237 Y-38.0429
G01 X6.2258 Y-38.0308
G01 X6.2363 Y-37.9600
G01 X6.2378 Y-37.9478
G01 X6.2387 Y-37.9355
G01 X6.2422 Y-37.8640
G01 X6.2425 Y-37.8517
G01 X6.2422 Y-37.8394
G01 X6.2387 Y-37.7679
G01 X6.2378 Y-37.7557
G01 X6.2363 Y-37.7435
G01 X6.2258 Y-37.6726
G01 X6.2237 Y-37.6605
G01 X6.2210 Y-37.6486
G01 X6.2036 Y-37.5791
G01 X6.2003 Y-37.5672
G01 X6.1964 Y-37.5556
G01 X6.1702 Y-37.4824
G01 X6.1629 Y-37.4655
G01 X6.1323 Y-37.4007
G01 X6.1268 Y-37.3897
G01 X6.1207 Y-37.3791
G01 X6.0839 Y-37.3176
G01 X6.0773 Y-37.3073
G01 X6.0703 Y-37.2972
G01 X6.0276 Y-37.2397
G01 X6.0200 Y-37.2300
G01 X6.0120 Y-37.2207
G01 X5.9639 Y-37.1676
G01 X5.9511 Y-37.1545
G01 X5.8935 Y-37.1022
G01 X5.8842 Y-37.0942
G01 X5.8745 Y-37.0866
G01 X5.8170 Y-37.0439
G01 X5.8018 Y-37.0335
G01 X5.7351 Y-36.9935
G01 X5.7245 Y-36.9874
G01 X5.7135 Y-36.9819
G01 X5.6487 Y-36.9513
G01 X5.6375 Y-36.9463
G01 X5.6261 Y-36.9419
G01 X5.5586 Y-36.9178
G01 X5.5470 Y-36.9139
G01 X5.5352 Y-36.9106
G01 X5.4657 Y-36.8932
G01 X5.4537 Y-36.8905
G01 X5.4416 Y-36.8885
G01 X5.3647 Y-36.8771
G01 X5.3463 Y-36.8755
G01 X5.2748 Y-36.8720
G01 X5.2625 Y-36.8717
G01 X4.8975 Y-36.8717
G00 Z2.0000
G00 X8.3285 Y-33.3365
G01 F60.00
G01 Z-0.2000
G01 F120.00
G01 X8.3162 Y-33.3368
G01 X8.3040 Y-33.3377
G01 X8.2858 Y-33.3401
G01 X8.2737 Y-33.3425
G01 X8.2618 Y-33.3455
G01 X8.2501 Y-33.3491
G01 X8.2385 Y-33.3532
G01 X8.2272 Y-33.3579
G01 X8.2161 Y-33.3632
G01 X8.2000 Y-33.3720
G01 X8.1845 Y-33.3821
G01 X8.1747 Y-33.3894
G01 X8.1652 Y-33.3972
G01 X8.1517 Y-33.4097
G01 X8.1433 Y-33.4186
G01 X8.1352 Y-33.4279
G01 X8.1277 Y-33.4375
G01 X8.1206 Y-33.4476
G01 X8.1141 Y-33.4579
G01 X8.1080 Y-33.4686
G01 X8.0999 Y-33.4852
G01 X8.0953 Y-33.4965
G01 X8.0911 Y-33.5080
G01 X8.0860 Y-33.5257
G01 X8.0833 Y-33.5377
G01 X8.0812 Y-33.5498
G01 X8.0792 Y-33.5681
G01 X8.0785 Y-33.5865
G01 X8.0786 Y-34.7251
G01 X8.0797 Y-34.7435
G01 X8.0822 Y-34.7617
G01 X8.0860 Y-34.7797
G01 X8.0893 Y-34.7915
G01 X8.0953 Y-34.8089
G01 X8.0999 Y-34.8203
G01 X8.1080 Y-34.8368
G01 X8.1141 Y-34.8475
G01 X8.1206 Y-34.8579
G01 X8.1277 Y-34.8679
G01 X8.1352 Y-34.8776
G01 X8.1474 Y-34.8914
G01 X8.1606 Y-34.9042
G01 X8.1699 Y-34.9122
G01 X8.1796 Y-34.9198
G01 X8.1896 Y-34.9268
G01 X8.2000 Y-34.9334
G01 X8.2107 Y-34.9394
G01 X8.2216 Y-34.9450
G01 X8.2328 Y-34.9499
G01 X8.2501 Y-34.9563
G01 X8.2618 Y-34.9599
G01 X8.2737 Y-34.9629
G01 X8.2858 Y-34.9653
G01 X8.2979 Y-34.9671
G01 X8.3101 Y-34.9683
G01 X8.3285 Y-34.9690
G01 X8.7722 Y-34.9690
G01 X9.6499 Y-35.8465
G01 X9.6908 Y-35.8837
G01 X9.7000 Y-35.8917
G01 X9.7097 Y-35.8992
G01 X9.7592 Y-35.9355
G01 X9.8117 Y-35.9673
G01 X9.8223 Y-35.9734
G01 X9.8333 Y-35.9789
G01 X9.8833 Y-36.0024
G01 X9.9003 Y-36.0093
G01 X9.9582 Y-36.0297
G01 X10.0177 Y-36.0449
G01 X10.0296 Y-36.0475
G01 X10.0417 Y-36.0496
G01 X10.1025 Y-36.0584
G01 X10.1147 Y-36.0593
G01 X10.1699 Y-36.0619
G01 X11.8873 Y-36.0620
G01 X11.8958 Y-36.0693
G01 X11.9055 Y-36.0768
G01 X11.9630 Y-36.1195
G01 X11.9730 Y-36.1266
G01 X11.9834 Y-36.1331
G01 X12.0449 Y-36.1699
G01 X12.0555 Y-36.1760
G01 X12.0665 Y-36.1815
G01 X12.1313 Y-36.2121
G01 X12.1425 Y-36.2171
G01 X12.1539 Y-36.2215
G01 X12.2214 Y-36.2457
G01 X12.2330 Y-36.2495
G01 X12.2448 Y-36.2528
G01 X12.3143 Y-36.2702
G01 X12.3263 Y-36.2729
G01 X12.3384 Y-36.2750
G01 X12.4093 Y-36.2855
G01 X12.4214 Y-36.2870
G01 X12.4337 Y-36.2879
G01 X12.5114 Y-36.2916
G01 X12.8825 Y-36.2917
G01 X12.8948 Y-36.2914
G01 X12.9724 Y-36.2875
G01 X12.9907 Y-36.2855
G01 X13.0616 Y-36.2750
G01 X13.0737 Y-36.2729
G01 X13.0857 Y-36.2702
G01 X13.1552 Y-36.2528
G01 X13.1670 Y-36.2495
G01 X13.1786 Y-36.2457
G01 X13.2461 Y-36.2215
G01 X13.2575 Y-36.2171
G01 X13.2687 Y-36.2121
G01 X13.3335 Y-36.1815
G01 X13.3445 Y-36.1760
G01 X13.3551 Y-36.1699
G01 X13.4166 Y-36.1331
G01 X13.4270 Y-36.1266
G01 X13.4370 Y-36.1195
G01 X13.4945 Y-36.0768
G01 X13.5042 Y-36.0693
G01 X13.5135 Y-36.0612
G01 X13.5666 Y-36.0131
G01 X13.5755 Y-36.0047
G01 X13.5839 Y-35.9958
G01 X13.6320 Y-35.9427
G01 X13.6400 Y-35.9334
G01 X13.6476 Y-35.9237
G01 X13.6903 Y-35.8662
G01 X13.6973 Y-35.8562
G01 X13.7039 Y-35.8458
G01 X13.7407 Y-35.7844
G01 X13.7468 Y-35.7737
G01 X13.7523 Y-35.7627
G01 X13.7855 Y-35.6924
G01 X13.7923 Y-35.6753
G01 X13.8164 Y-35.6078
G01 X13.8203 Y-35.5962
G01 X13.8236 Y-35.5844
G01 X13.8410 Y-35.5149
G01 X13.8437 Y-35.5029
G01 X13.8458 Y-35.4908
G01 X13.8563 Y-35.4200
G01 X13.8578 Y-35.4078
G01 X13.8587 Y-35.3955
G01 X13.8622 Y-35.3240
G01 X13.8625 Y-35.3117
G01 X13.8622 Y-35.2994
G01 X13.8587 Y-35.2279
G01 X13.8578 Y-35.2157
G01 X13.8563 Y-35.2035
G01 X13.8458 Y-35.1326
G01 X13.8437 Y-35.1205
G01 X13.8410 Y-35.1086
G01 X13.8236 Y-35.0391
G01 X13.8203 Y-35.0272
G01 X13.8164 Y-35.0156
G01 X13.7923 Y-34.9481
G01 X13.7879 Y-34.9367
G01 X13.7829 Y-34.9255
G01 X13.7523 Y-34.8607
G01 X13.7468 Y-34.8497
G01 X13.7407 Y-34.8391
G01 X13.7039 Y-34.7776
G01 X13.6973 Y-34.7673
G01 X13.6903 Y-34.7572
G01 X13.6476 Y-34.6997
G01 X13.6400 Y-34.6900
G01 X13.6320 Y-34.6807
G01 X13.5839 Y-34.6276
G01 X13.5755 Y-34.6188
G01 X13.5666 Y-34.6103
G01 X13.5135 Y-34.5622
G01 X13.5042 Y-34.5542
G01 X13.4945 Y-34.5466
G01 X13.4370 Y-34.5039
G01 X13.4270 Y-34.4969
G01 X13.4166 Y-34.4903
G01 X13.3551 Y-34.4535
G01 X13.3445 Y-34.4474
G01 X13.3335 Y-34.4419
G01 X13.2632 Y-34.4087
G01 X13.2461 Y-34.4019
G01 X13.1786 Y-34.3778
G01 X13.1670 Y-34.3739
G01 X13.1552 Y-34.3706
G01 X13.0857 Y-34.3532
G01 X13.0737 Y-34.3505
G01 X13.0616 Y-34.3485
G01 X12.9907 Y-34.3379
G01 X12.9786 Y-34.3364
G01 X12.9663 Y-34.3355
G01 X12.8948 Y-34.3320
G01 X12.8825 Y-34.3317
G01 X12.5175 Y-34.3317
G01 X12.5052 Y-34.3320
G01 X12.4337 Y-34.3355
G01 X12.4153 Y-34.3371
G01 X12.3384 Y-34.3485
G01 X12.3263 Y-34.3505
G01 X12.3143 Y-34.3532
G01 X12.2448 Y-34.3706
G01 X12.2330 Y-34.3739
G01 X12.2214 Y-34.3778
G01 X12.1539 Y-34.4019
G01 X12.1425 Y-34.4063
G01 X12.1313 Y-34.4113
G01 X12.0665 Y-34.4419
G01 X12.0555 Y-34.4474
G01 X12.0449 Y-34.4535
G01 X11.9834 Y-34.4903
G01 X11.9730 Y-34.4969
G01 X11.9630 Y-34.5039
G01 X11.9055 Y-34.5466
G01 X11.8958 Y-34.5542
G01 X11.8873 Y-34.5615
G01 X10.4868 Y-34.5615
G01 X9.9555 Y-34.0302
G01 X9.9555 Y-33.5865
G01 X9.9552 Y-33.5742
G01 X9.9543 Y-33.5620
G01 X9.9528 Y-33.5498
G01 X9.9507 Y-33.5377
G01 X9.9464 Y-33.5198
G01 X9.9429 Y-33.5080
G01 X9.9387 Y-33.4965
G01 X9.9341 Y-33.4852
G01 X9.9260 Y-33.4686
G01 X9.9199 Y-33.4579
G01 X9.9134 Y-33.4476
G01 X9.9063 Y-33.4375
G01 X9.8988 Y-33.4279
G01 X9.8907 Y-33.4186
G01 X9.8823 Y-33.4097
G01 X9.8734 Y-33.4012
G01 X9.8641 Y-33.3932
G01 X9.8544 Y-33.3857
G01 X9.8392 Y-33.3753
G01 X9.8287 Y-33.3689
G01 X9.8179 Y-33.3632
G01 X9.8012 Y-33.3555
G01 X9.7839 Y-33.3491
G01 X9.7722 Y-33.3455
G01 X9.7543 Y-33.3413
G01 X9.7422 Y-33.3392
G01 X9.7300 Y-33.3377
G01 X9.7116 Y-33.3365
G01 X8.3285 Y-33.3365
G00 Z2.0000
G00 X12.5175 Y-31.7917
G01 F60.00
G01 Z-0.2000
G01 F120.00
G01 X12.5052 Y-31.7920
G01 X12.4337 Y-31.7955
G01 X12.4214 Y-31.7964
G01 X12.4093 Y-31.7979
G01 X12.3384 Y-31.8085
G01 X12.3263 Y-31.8105
G01 X12.3143 Y-31.8132
G01 X12.2448 Y-31.8306
G01 X12.2330 Y-31.8339
G01 X12.2214 Y-31.8378
G01 X12.1539 Y-31.8619
G01 X12.1425 Y-31.8663
G01 X12.1313 Y-31.8713
G01 X12.0665 Y-31.9019
G01 X12.0555 Y-31.9074
G01 X12.0449 Y-31.9135
G01 X11.9834 Y-31.9503
G01 X11.9730 Y-31.9569
G01 X11.9630 Y-31.9639
G01 X11.9055 Y-32.0066
G01 X11.8911 Y-32.0181
G01 X11.8334 Y-32.0703
G01 X11.8245 Y-32.0788
G01 X11.8161 Y-32.0876
G01 X11.7680 Y-32.1407
G01 X11.7600 Y-32.1500
G01 X11.7524 Y-32.1597
G01 X11.7097 Y-32.2172
G01 X11.7027 Y-32.2273
G01 X11.6961 Y-32.2376
G01 X11.6593 Y-32.2991
G01 X11.6532 Y-32.3097
G01 X11.6477 Y-32.3207
G01 X11.6171 Y-32.3855
G01 X11.6121 Y-32.3967
G01 X11.6077 Y-32.4081
G01 X11.5836 Y-32.4756
G01 X11.5797 Y-32.4872
G01 X11.5764 Y-32.4991
G01 X11.5590 Y-32.5686
G01 X11.5563 Y-32.5805
G01 X11.5542 Y-32.5926
G01 X11.5437 Y-32.6635
G01 X11.5422 Y-32.6757
G01 X11.5413 Y-32.6879
G01 X11.5378 Y-32.7594
G01 X11.5375 Y-32.7717
G01 X11.5378 Y-32.7840
G01 X11.5413 Y-32.8555
G01 X11.5422 Y-32.8678
G01 X11.5437 Y-32.8800
G01 X11.5542 Y-32.9508
G01 X11.5563 Y-32.9629
G01 X11.5590 Y-32.9749
G01 X11.5764 Y-33.0444
G01 X11.5797 Y-33.0562
G01 X11.5836 Y-33.0678
G01 X11.6077 Y-33.1353
G01 X11.6121 Y-33.1467
G01 X11.6171 Y-33.1580
G01 X11.6477 Y-33.2227
G01 X11.6532 Y-33.2337
G01 X11.6593 Y-33.2444
G01 X11.6961 Y-33.3058
G01 X11.7027 Y-33.3162
G01 X11.7097 Y-33.3262
G01 X11.7561 Y-33.3886
G01 X11.7680 Y-33.4027
G01 X11.8161 Y-33.4558
G01 X11.8245 Y-33.4647
G01 X11.8334 Y-33.4731
G01 X11.8865 Y-33.5212
G01 X11.8958 Y-33.5293
G01 X11.9055 Y-33.5368
G01 X11.9630 Y-33.5795
G01 X11.9730 Y-33.5866
G01 X11.9834 Y-33.5931
G01 X12.0449 Y-33.6299
G01 X12.0555 Y-33.6360
G01 X12.0665 Y-33.6415
G01 X12.1313 Y-33.6721
G01 X12.1425 Y-33.6771
G01 X12.1539 Y-33.6815
G01 X12.2214 Y-33.7057
G01 X12.2330 Y-33.7095
G01 X12.2448 Y-33.7128
G01 X12.3143 Y-33.7302
G01 X12.3263 Y-33.7329
G01 X12.3384 Y-33.7350
G01 X12.4093 Y-33.7455
G01 X12.4214 Y-33.7470
G01 X12.4337 Y-33.7479
G01 X12.5052 Y-33.7514
G01 X12.5175 Y-33.7517
G01 X12.8825 Y-33.7517
G01 X12.8948 Y-33.7514
G01 X12.9663 Y-33.7479
G01 X12.9786 Y-33.7470
G01 X12.9907 Y-33.7455
G01 X13.0616 Y-33.7350
G01 X13.0737 Y-33.7329
G01 X13.0857 Y-33.7302
G01 X13.1552 Y-33.7128
G01 X13.1670 Y-33.7095
G01 X13.1786 Y-33.7057
G01 X13.2461 Y-33.6815
G01 X13.2575 Y-33.6771
G01 X13.2687 Y-33.6721
G01 X13.3335 Y-33.6415
G01 X13.3445 Y-33.6360
G01 X13.3551 Y-33.6299
G01 X13.4166 Y-33.5931
G01 X13.4270 Y-33.5866
G01 X13.4370 Y-33.5795
G01 X13.4945 Y-33.5368
G01 X13.5042 Y-33.5293
G01 X13.5127 Y-33.5220
G01 X14.0499 Y-33.5220
G01 X14.4897 Y-33.9618
G01 X14.4897 Y-34.7732
G01 X14.4789 Y-34.7762
G01 X14.4673 Y-34.7800
G01 X14.4502 Y-34.7869
G01 X14.4337 Y-34.7949
G01 X14.4178 Y-34.8042
G01 X14.4026 Y-34.8146
G01 X14.3882 Y-34.8261
G01 X14.3791 Y-34.8344
G01 X14.3704 Y-34.8430
G01 X14.3582 Y-34.8568
G01 X14.3471 Y-34.8715
G01 X14.3371 Y-34.8869
G01 X14.3310 Y-34.8976
G01 X14.3255 Y-34.9085
G01 X14.3183 Y-34.9255
G01 X14.3123 Y-34.9429
G01 X14.3076 Y-34.9607
G01 X14.3052 Y-34.9727
G01 X14.3034 Y-34.9848
G01 X14.3018 Y-35.0032
G01 X14.3015 Y-35.0154
G01 X14.3016 Y-36.1541
G01 X14.3027 Y-36.1724
G01 X14.3052 Y-36.1907
G01 X14.3090 Y-36.2087
G01 X14.3141 Y-36.2263
G01 X14.3205 Y-36.2436
G01 X14.3282 Y-36.2603
G01 X14.3371 Y-36.2765
G01 X14.3471 Y-36.2919
G01 X14.3544 Y-36.3017
G01 X14.3622 Y-36.3112
G01 X14.3704 Y-36.3203
G01 X14.3836 Y-36.3332
G01 X14.3929 Y-36.3412
G01 X14.4075 Y-36.3523
G01 X14.4230 Y-36.3624
G01 X14.4337 Y-36.3684
G01 X14.4502 Y-36.3765
G01 X14.4615 Y-36.3812
G01 X14.4731 Y-36.3853
G01 X14.4908 Y-36.3904
G01 X14.5027 Y-36.3931
G01 X14.5209 Y-36.3960
G01 X14.5331 Y-36.3972
G01 X14.5454 Y-36.3978
G01 X15.9346 Y-36.3978
G01 X15.9530 Y-36.3967
G01 X15.9712 Y-36.3942
G01 X15.9892 Y-36.3904
G01 X16.0011 Y-36.3872
G01 X16.0127 Y-36.3833
G01 X16.0298 Y-36.3765
G01 X16.0463 Y-36.3684
G01 X16.0622 Y-36.3591
G01 X16.0725 Y-36.3523
G01 X16.0823 Y-36.3450
G01 X16.0918 Y-36.3372
G01 X16.1053 Y-36.3247
G01 X16.1137 Y-36.3158
G01 X16.1218 Y-36.3065
G01 X16.1293 Y-36.2969
G01 X16.1364 Y-36.2868
G01 X16.1429 Y-36.2765
G01 X16.1490 Y-36.2658
G01 X16.1545 Y-36.2548
G01 X16.1595 Y-36.2436
G01 X16.1639 Y-36.2321
G01 X16.1677 Y-36.2205
G01 X16.1710 Y-36.2087
G01 X16.1748 Y-36.1907
G01 X16.1766 Y-36.1785
G01 X16.1778 Y-36.1663
G01 X16.1785 Y-36.1479
G01 X16.1784 Y-35.0093
G01 X16.1773 Y-34.9909
G01 X16.1758 Y-34.9787
G01 X16.1737 Y-34.9667
G01 X16.1694 Y-34.9487
G01 X16.1639 Y-34.9312
G01 X16.1571 Y-34.9141
G01 X16.1490 Y-34.8976
G01 X16.1429 Y-34.8869
G01 X16.1364 Y-34.8765
G01 X16.1256 Y-34.8616
G01 X16.1137 Y-34.8475
G01 X16.1009 Y-34.8344
G01 X16.0871 Y-34.8222
G01 X16.0774 Y-34.8146
G01 X16.0674 Y-34.8076
G01 X16.0570 Y-34.8010
G01 X16.0463 Y-34.7949
G01 X16.0298 Y-34.7869
G01 X16.0127 Y-34.7800
G01 X16.0011 Y-34.7762
G01 X15.9903 Y-34.7732
G01 X15.9903 Y-32.4213
G01 X16.0011 Y-32.4183
G01 X16.0127 Y-32.4144
G01 X16.0298 Y-32.4076
G01 X16.0463 Y-32.3995
G01 X16.0622 Y-32.3902
G01 X16.0774 Y-32.3798
G01 X16.0918 Y-32.3683
G01 X16.1053 Y-32.3558
G01 X16.1178 Y-32.3423
G01 X16.1293 Y-32.3279
G01 X16.1397 Y-32.3128
G01 X16.1490 Y-32.2969
G01 X16.1571 Y-32.2803
G01 X16.1639 Y-32.2632
G01 X16.1677 Y-32.2516
G01 X16.1710 Y-32.2398
G01 X16.1748 Y-32.2218
G01 X16.1773 Y-32.2035
G01 X16.1782 Y-32.1913
G01 X16.1785 Y-32.1790
G01 X16.1785 Y-31.0465
G01 X16.1782 Y-31.0342
G01 X16.1766 Y-31.0159
G01 X16.1737 Y-30.9977
G01 X16.1694 Y-30.9798
G01 X16.1659 Y-30.9681
G01 X16.1617 Y-30.9565
G01 X16.1545 Y-30.9396
G01 X16.1460 Y-30.9233
G01 X16.1364 Y-30.9076
G01 X16.1256 Y-30.8927
G01 X16.1137 Y-30.8786
G01 X16.1053 Y-30.8697
G01 X16.0964 Y-30.8613
G01 X16.0871 Y-30.8533
G01 X16.0774 Y-30.8457
G01 X16.0622 Y-30.8353
G01 X16.0517 Y-30.8290
G01 X16.0409 Y-30.8232
G01 X16.0298 Y-30.8180
G01 X16.0185 Y-30.8133
G01 X16.0011 Y-30.8073
G01 X15.9892 Y-30.8040
G01 X15.9773 Y-30.8013
G01 X15.9591 Y-30.7984
G01 X15.9469 Y-30.7972
G01 X15.9346 Y-30.7966
G01 X14.5454 Y-30.7966
G01 X14.5270 Y-30.7977
G01 X14.5148 Y-30.7992
G01 X14.4967 Y-30.8026
G01 X14.4789 Y-30.8073
G01 X14.4615 Y-30.8133
G01 X14.4502 Y-30.8180
G01 X14.4337 Y-30.8260
G01 X14.4178 Y-30.8353
G01 X14.4026 Y-30.8457
G01 X14.3929 Y-30.8533
G01 X14.3836 Y-30.8613
G01 X14.3704 Y-30.8741
G01 X14.3622 Y-30.8832
G01 X14.3544 Y-30.8927
G01 X14.3436 Y-30.9076
G01 X14.3371 Y-30.9180
G01 X14.3310 Y-30.9287
G01 X14.3255 Y-30.9396
G01 X14.3183 Y-30.9565
G01 X14.3141 Y-30.9681
G01 X14.3106 Y-30.9798
G01 X14.3076 Y-30.9917
G01 X14.3042 Y-31.0098
G01 X14.3027 Y-31.0220
G01 X14.3018 Y-31.0342
G01 X14.3015 Y-31.0465
G01 X14.3015 Y-32.0215
G01 X13.5127 Y-32.0215
G01 X13.5042 Y-32.0142
G01 X13.4945 Y-32.0066
G01 X13.4370 Y-31.9639
G01 X13.4270 Y-31.9569
G01 X13.4166 Y-31.9503
G01 X13.3551 Y-31.9135
G01 X13.3445 Y-31.9074
G01 X13.3335 Y-31.9019
G01 X13.2687 Y-31.8713
G01 X13.2575 Y-31.8663
G01 X13.2461 Y-31.8619
G01 X13.1786 Y-31.8378
G01 X13.1670 Y-31.8339
G01 X13.1552 Y-31.8306
G01 X13.0797 Y-31.8118
G01 X13.0616 Y-31.8085
G01 X12.9907 Y-31.7979
G01 X12.9786 Y-31.7964
G01 X12.9663 Y-31.7955
G01 X12.8886 Y-31.7918
G01 X12.5175 Y-31.7917
G00 Z2.0000
G00 X12.5175 Y-29.2517
G01 F60.00
G01 Z-0.2000
G01 F120.00
G01 X12.5052 Y-29.2520
G01 X12.4337 Y-29.2555
G01 X12.4214 Y-29.2564
G01 X12.4093 Y-29.2579
G01 X12.3384 Y-29.2685
G01 X12.3263 Y-29.2705
G01 X12.3143 Y-29.2732
G01 X12.2448 Y-29.2906
G01 X12.2330 Y-29.2939
G01 X12.2214 Y-29.2978
G01 X12.1539 Y-29.3219
G01 X12.1425 Y-29.3263
G01 X12.1313 Y-29.3313
G01 X12.0665 Y-29.3619
G01 X12.0555 Y-29.3674
G01 X12.0449 Y-29.3735
G01 X11.9834 Y-29.4103
G01 X11.9730 Y-29.4169
G01 X11.9630 Y-29.4239
G01 X11.9055 Y-29.4666
G01 X11.8958 Y-29.4742
G01 X11.8865 Y-29.4822
G01 X11.8334 Y-29.5303
G01 X11.8245 Y-29.5388
G01 X11.8161 Y-29.5476
G01 X11.7680 Y-29.6007
G01 X11.7600 Y-29.6100
G01 X11.7524 Y-29.6197
G01 X11.7097 Y-29.6772
G01 X11.7027 Y-29.6873
G01 X11.6961 Y-29.6976
G01 X11.6593 Y-29.7591
G01 X11.6532 Y-29.7697
G01 X11.6477 Y-29.7807
G01 X11.6171 Y-29.8455
G01 X11.6121 Y-29.8567
G01 X11.6077 Y-29.8681
G01 X11.5836 Y-29.9356
G01 X11.5797 Y-29.9472
G01 X11.5764 Y-29.9591
G01 X11.5590 Y-30.0286
G01 X11.5563 Y-30.0405
G01 X11.5542 Y-30.0526
G01 X11.5437 Y-30.1235
G01 X11.5422 Y-30.1357
G01 X11.5413 Y-30.1479
G01 X11.5378 Y-30.2194
G01 X11.5375 Y-30.2317
G01 X11.5378 Y-30.2440
G01 X11.5413 Y-30.3155
G01 X11.5422 Y-30.3278
G01 X11.5437 Y-30.3400
G01 X11.5542 Y-30.4108
G01 X11.5563 Y-30.4229
G01 X11.5590 Y-30.4349
G01 X11.5764 Y-30.5044
G01 X11.5797 Y-30.5162
G01 X11.5836 Y-30.5278
G01 X11.6077 Y-30.5953
G01 X11.6121 Y-30.6067
G01 X11.6171 Y-30.6180
G01 X11.6477 Y-30.6827
G01 X11.6532 Y-30.6937
G01 X11.6593 Y-30.7044
G01 X11.6961 Y-30.7658
G01 X11.7027 Y-30.7762
G01 X11.7097 Y-30.7862
G01 X11.7524 Y-30.8437
G01 X11.7600 Y-30.8534
G01 X11.7680 Y-30.8627
G01 X11.8161 Y-30.9158
G01 X11.8245 Y-30.9247
G01 X11.8334 Y-30.9331
G01 X11.8865 Y-30.9812
G01 X11.8958 Y-30.9893
G01 X11.9055 Y-30.9968
G01 X11.9630 Y-31.0395
G01 X11.9730 Y-31.0466
G01 X11.9834 Y-31.0531
G01 X12.0449 Y-31.0899
G01 X12.0555 Y-31.0960
G01 X12.0665 Y-31.1015
G01 X12.1313 Y-31.1321
G01 X12.1425 Y-31.1371
G01 X12.1539 Y-31.1415
G01 X12.2214 Y-31.1657
G01 X12.2330 Y-31.1695
G01 X12.2448 Y-31.1728
G01 X12.3143 Y-31.1902
G01 X12.3263 Y-31.1929
G01 X12.3384 Y-31.1950
G01 X12.4093 Y-31.2055
G01 X12.4214 Y-31.2070
G01 X12.4337 Y-31.2079
G01 X12.5052 Y-31.2114
G01 X12.5175 Y-31.2117
G01 X12.8886 Y-31.2116
G01 X12.9663 Y-31.2079
G01 X12.9786 Y-31.2070
G01 X12.9907 Y-31.2055
G01 X13.0677 Y-31.1940
G01 X13.0857 Y-31.1902
G01 X13.1552 Y-31.1728
G01 X13.1670 Y-31.1695
G01 X13.1786 Y-31.1657
G01 X13.2461 Y-31.1415
G01 X13.2575 Y-31.1371
G01 X13.2687 Y-31.1321
G01 X13.3335 Y-31.1015
G01 X13.3445 Y-31.0960
G01 X13.3551 Y-31.0899
G01 X13.4218 Y-31.0499
G01 X13.4370 Y-31.0395
G01 X13.4945 Y-30.9968
G01 X13.5042 Y-30.9893
G01 X13.5135 Y-30.9812
G01 X13.5666 Y-30.9331
G01 X13.5755 Y-30.9247
G01 X13.5839 Y-30.9158
G01 X13.6320 Y-30.8627
G01 X13.6400 Y-30.8534
G01 X13.6476 Y-30.8437
G01 X13.6903 Y-30.7862
G01 X13.7007 Y-30.7710
G01 X13.7407 Y-30.7044
G01 X13.7468 Y-30.6937
G01 X13.7523 Y-30.6827
G01 X13.7829 Y-30.6180
G01 X13.7902 Y-30.6010
G01 X13.8164 Y-30.5278
G01 X13.8203 Y-30.5162
G01 X13.8236 Y-30.5044
G01 X13.8410 Y-30.4349
G01 X13.8437 Y-30.4229
G01 X13.8529 Y-30.3630
G01 X14.3823 Y-30.3630
G01 X14.3977 Y-30.3761
G01 X14.4075 Y-30.3834
G01 X14.4178 Y-30.3902
G01 X14.4283 Y-30.3965
G01 X14.4391 Y-30.4023
G01 X14.4558 Y-30.4099
G01 X14.4731 Y-30.4164
G01 X14.4848 Y-30.4199
G01 X14.4967 Y-30.4229
G01 X14.5088 Y-30.4253
G01 X14.5209 Y-30.4271
G01 X14.5331 Y-30.4283
G01 X14.5454 Y-30.4289
G01 X15.9285 Y-30.4290
G01 X15.9469 Y-30.4283
G01 X15.9591 Y-30.4271
G01 X15.9712 Y-30.4253
G01 X15.9833 Y-30.4229
G01 X15.9952 Y-30.4199
G01 X16.0069 Y-30.4164
G01 X16.0185 Y-30.4122
G01 X16.0298 Y-30.4075
G01 X16.0409 Y-30.4023
G01 X16.0517 Y-30.3965
G01 X16.0622 Y-30.3902
G01 X16.0725 Y-30.3834
G01 X16.0823 Y-30.3761
G01 X16.0977 Y-30.3630
G01 X40.2590 Y-30.3630
G01 X40.3203 Y-30.3603
G01 X40.3325 Y-30.3594
G01 X40.3933 Y-30.3507
G01 X40.4127 Y-30.3470
G01 X40.7102 Y-30.3470
G01 X41.7947 Y-31.4315
G01 X41.7947 Y-31.5355
G01 X41.7100 Y-32.0096
G01 X41.6790 Y-32.0513
G01 X41.6686 Y-32.0665
G01 X41.6250 Y-32.1391
G01 X41.6162 Y-32.1552
G01 X41.5799 Y-32.2317
G01 X41.5749 Y-32.2429
G01 X41.5705 Y-32.2543
G01 X41.5421 Y-32.3341
G01 X41.5369 Y-32.3517
G01 X41.5179 Y-32.4279
G01 X41.5152 Y-32.4399
G01 X41.5131 Y-32.4520
G01 X41.5016 Y-32.5296
G01 X41.5001 Y-32.5418
G01 X41.4992 Y-32.5540
G01 X41.4953 Y-32.6324
G01 X41.4950 Y-32.6447
G01 X41.4953 Y-32.6570
G01 X41.4992 Y-32.7354
G01 X41.5001 Y-32.7476
G01 X41.5016 Y-32.7598
G01 X41.5131 Y-32.8375
G01 X41.5152 Y-32.8496
G01 X41.5179 Y-32.8615
G01 X41.5369 Y-32.9377
G01 X41.5402 Y-32.9495
G01 X41.5441 Y-32.9612
G01 X41.5705 Y-33.0351
G01 X41.5749 Y-33.0465
G01 X41.5799 Y-33.0578
G01 X41.6135 Y-33.1287
G01 X41.6190 Y-33.1397
G01 X41.6250 Y-33.1504
G01 X41.6654 Y-33.2177
G01 X41.6720 Y-33.2281
G01 X41.6790 Y-33.2381
G01 X41.7258 Y-33.3012
G01 X41.7333 Y-33.3108
G01 X41.7414 Y-33.3201
G01 X41.7941 Y-33.3783
G01 X41.8025 Y-33.3872
G01 X41.8114 Y-33.3956
G01 X41.8696 Y-33.4484
G01 X41.8789 Y-33.4564
G01 X41.8886 Y-33.4639
G01 X41.9516 Y-33.5107
G01 X41.9617 Y-33.5178
G01 X41.9720 Y-33.5243
G01 X42.0394 Y-33.5647
G01 X42.0500 Y-33.5707
G01 X42.0610 Y-33.5762
G01 X42.1320 Y-33.6098
G01 X42.1432 Y-33.6148
G01 X42.1546 Y-33.6192
G01 X42.2285 Y-33.6457
G01 X42.2402 Y-33.6495
G01 X42.2520 Y-33.6528
G01 X42.3282 Y-33.6719
G01 X42.3402 Y-33.6745
G01 X42.3522 Y-33.6766
G01 X42.4299 Y-33.6882
G01 X42.4421 Y-33.6897
G01 X42.4543 Y-33.6906
G01 X42.5327 Y-33.6944
G01 X42.5450 Y-33.6947
G01 X42.5573 Y-33.6944
G01 X42.6357 Y-33.6906
G01 X42.6479 Y-33.6897
G01 X42.6601 Y-33.6882
G01 X42.7378 Y-33.6766
G01 X42.7498 Y-33.6745
G01 X42.7618 Y-33.6719
G01 X42.8380 Y-33.6528
G01 X42.8498 Y-33.6495
G01 X42.8615 Y-33.6457
G01 X42.9354 Y-33.6192
G01 X42.9468 Y-33.6148
G01 X42.9580 Y-33.6098
G01 X43.0290 Y-33.5762
G01 X43.0400 Y-33.5707
G01 X43.0506 Y-33.5647
G01 X43.1180 Y-33.5243
G01 X43.1283 Y-33.5178
G01 X43.1384 Y-33.5107
G01 X43.2014 Y-33.4639
G01 X43.2111 Y-33.4564
G01 X43.2204 Y-33.4484
G01 X43.2786 Y-33.3956
G01 X43.2875 Y-33.3872
G01 X43.2959 Y-33.3783
G01 X43.3486 Y-33.3201
G01 X43.3567 Y-33.3108
G01 X43.3642 Y-33.3012
G01 X43.4110 Y-33.2381
G01 X43.4180 Y-33.2281
G01 X43.4246 Y-33.2177
G01 X43.4650 Y-33.1504
G01 X43.4710 Y-33.1397
G01 X43.4765 Y-33.1287
G01 X43.5101 Y-33.0578
G01 X43.5151 Y-33.0465
G01 X43.5195 Y-33.0351
G01 X43.5459 Y-32.9612
G01 X43.5498 Y-32.9495
G01 X43.5531 Y-32.9377
G01 X43.5721 Y-32.8615
G01 X43.5748 Y-32.8496
G01 X43.5769 Y-32.8375
G01 X43.5893 Y-32.7537
G01 X43.5908 Y-32.7354
G01 X43.5947 Y-32.6570
G01 X43.5950 Y-32.6447
G01 X43.5947 Y-32.6324
G01 X43.5908 Y-32.5540
G01 X43.5899 Y-32.5418
G01 X43.5884 Y-32.5296
G01 X43.5769 Y-32.4520
G01 X43.5748 Y-32.4399
G01 X43.5721 Y-32.4279
G01 X43.5515 Y-32.3458
G01 X43.5459 Y-32.3283
G01 X43.5195 Y-32.2543
G01 X43.5151 Y-32.2429
G01 X43.5101 Y-32.2317
G01 X43.4738 Y-32.1552
G01 X43.4650 Y-32.1391
G01 X43.4214 Y-32.0665
G01 X43.4110 Y-32.0513
G01 X43.3800 Y-32.0095
G01 X43.2953 Y-31.5355
G01 X43.2952 Y-31.1146
G01 X43.2925 Y-31.0594
G01 X43.2916 Y-31.0472
G01 X43.2829 Y-30.9864
G01 X43.2796 Y-30.9683
G01 X43.2647 Y-30.9088
G01 X43.2591 Y-30.8913
G01 X43.2404 Y-30.8393
G01 X43.2332 Y-30.8224
G01 X43.2067 Y-30.7670
G01 X43.2006 Y-30.7564
G01 X43.1722 Y-30.7090
G01 X43.1617 Y-30.6939
G01 X43.1250 Y-30.6448
G01 X43.1169 Y-30.6355
G01 X43.0755 Y-30.5902
G01 X41.5515 Y-29.0662
G01 X41.5062 Y-29.0248
G01 X41.4970 Y-29.0168
G01 X41.4873 Y-29.0092
G01 X41.4478 Y-28.9800
G01 X41.4327 Y-28.9696
G01 X41.3853 Y-28.9411
G01 X41.3747 Y-28.9351
G01 X41.3637 Y-28.9295
G01 X41.3137 Y-28.9060
G01 X41.2967 Y-28.8992
G01 X41.2504 Y-28.8826
G01 X41.2388 Y-28.8788
G01 X41.2270 Y-28.8755
G01 X41.1674 Y-28.8609
G01 X41.1553 Y-28.8588
G01 X41.1006 Y-28.8508
G01 X41.0823 Y-28.8492
G01 X41.0210 Y-28.8465
G01 X40.2590 Y-28.8465
G01 X40.2467 Y-28.8468
G01 X40.1855 Y-28.8501
G01 X40.1247 Y-28.8588
G01 X40.1053 Y-28.8625
G01 X16.0977 Y-28.8625
G01 X16.0823 Y-28.8494
G01 X16.0725 Y-28.8421
G01 X16.0622 Y-28.8353
G01 X16.0517 Y-28.8290
G01 X16.0409 Y-28.8232
G01 X16.0242 Y-28.8155
G01 X16.0069 Y-28.8091
G01 X15.9952 Y-28.8055
G01 X15.9833 Y-28.8025
G01 X15.9652 Y-28.7992
G01 X15.9530 Y-28.7977
G01 X15.9408 Y-28.7968
G01 X15.9285 Y-28.7965
G01 X14.5454 Y-28.7966
G01 X14.5331 Y-28.7972
G01 X14.5209 Y-28.7984
G01 X14.5088 Y-28.8002
G01 X14.4967 Y-28.8025
G01 X14.4789 Y-28.8072
G01 X14.4673 Y-28.8111
G01 X14.4558 Y-28.8155
G01 X14.4446 Y-28.8205
G01 X14.4337 Y-28.8260
G01 X14.4178 Y-28.8353
G01 X14.4075 Y-28.8421
G01 X14.3977 Y-28.8494
G01 X14.3823 Y-28.8625
G01 X13.3129 Y-28.8626
G01 X13.2577 Y-28.8652
G01 X13.2455 Y-28.8661
G01 X13.1847 Y-28.8748
G01 X13.1666 Y-28.8782
G01 X13.1130 Y-28.8915
G01 X13.1012 Y-28.8948
G01 X13.0433 Y-28.9152
G01 X13.0319 Y-28.9196
G01 X12.9763 Y-28.9455
G01 X12.9653 Y-28.9511
G01 X12.9546 Y-28.9571
G01 X12.9022 Y-28.9889
G01 X12.8527 Y-29.0252
G01 X12.8430 Y-29.0328
G01 X12.7974 Y-29.0738
G01 X12.7885 Y-29.0822
G01 X12.6190 Y-29.2517
G01 X12.5175 Y-29.2517
G00 Z2.0000
G00 X20.0000 Y-35.5102
G01 F60.00
G01 Z-0.2000
G01 F120.00
G01 X19.8280 Y-35.5186
G01 X19.6576 Y-35.5440
G01 X19.4903 Y-35.5858
G01 X19.3287 Y-35.6435
G01 X19.1730 Y-35.7174
G01 X19.0249 Y-35.8059
G01 X18.8868 Y-35.9085
G01 X18.7591 Y-36.0241
G01 X18.6435 Y-36.1518
G01 X18.5408 Y-36.2901
G01 X18.4524 Y-36.4375
G01 X18.3790 Y-36.5931
G01 X18.3208 Y-36.7555
G01 X18.2790 Y-36.9226
G01 X18.2536 Y-37.0930
G01 X18.2452 Y-37.2645
G01 X18.2536 Y-37.4365
G01 X18.2790 Y-37.6068
G01 X18.3208 Y-37.7739
G01 X18.3790 Y-37.9363
G01 X18.4524 Y-38.0920
G01 X18.5408 Y-38.2394
G01 X18.6435 Y-38.3777
G01 X18.7591 Y-38.5053
G01 X18.8868 Y-38.6209
G01 X19.0249 Y-38.7236
G01 X19.1730 Y-38.8121
G01 X19.3287 Y-38.8859
G01 X19.4903 Y-38.9436
G01 X19.6576 Y-38.9854
G01 X19.8280 Y-39.0108
G01 X20.0000 Y-39.0192
G01 X20.1720 Y-39.0108
G01 X20.3423 Y-38.9854
G01 X20.5096 Y-38.9436
G01 X20.6712 Y-38.8859
G01 X20.8269 Y-38.8121
G01 X20.9750 Y-38.7236
G01 X21.1132 Y-38.6209
G01 X21.2408 Y-38.5053
G01 X21.3564 Y-38.3777
G01 X21.4591 Y-38.2394
G01 X21.5475 Y-38.0920
G01 X21.6209 Y-37.9363
G01 X21.6792 Y-37.7739
G01 X21.7209 Y-37.6068
G01 X21.7463 Y-37.4365
G01 X21.7547 Y-37.2645
G01 X21.7463 Y-37.0930
G01 X21.7209 Y-36.9226
G01 X21.6792 Y-36.7555
G01 X21.6209 Y-36.5931
G01 X21.5475 Y-36.4375
G01 X21.4591 Y-36.2901
G01 X21.3564 Y-36.1518
G01 X21.2408 Y-36.0241
G01 X21.1132 Y-35.9085
G01 X20.9750 Y-35.8059
G01 X20.8269 Y-35.7174
G01 X20.6712 Y-35.6435
G01 X20.5096 Y-35.5858
G01 X20.3423 Y-35.5440
G01 X20.1720 Y-35.5186
G01 X20.0000 Y-35.5102
G00 Z2.0000
G00 X31.6347 Y-33.3790
G01 F60.00
G01 Z-0.2000
G01 F120.00
G01 X31.6347 Y-36.2555
G01 X31.6163 Y-36.2723
G01 X31.6077 Y-36.2809
G01 X31.5401 Y-36.3555
G01 X31.5286 Y-36.3698
G01 X31.4760 Y-36.4408
G01 X31.4656 Y-36.4560
G01 X31.4170 Y-36.5369
G01 X31.4109 Y-36.5476
G01 X31.4054 Y-36.5586
G01 X31.3676 Y-36.6384
G01 X31.3627 Y-36.6496
G01 X31.3583 Y-36.6611
G01 X31.3265 Y-36.7500
G01 X31.3214 Y-36.7677
G01 X31.2999 Y-36.8534
G01 X31.2972 Y-36.8654
G01 X31.2951 Y-36.8775
G01 X31.2822 Y-36.9648
G01 X31.2807 Y-36.9770
G01 X31.2798 Y-36.9892
G01 X31.2754 Y-37.0774
G01 X31.2751 Y-37.0897
G01 X31.2754 Y-37.1020
G01 X31.2798 Y-37.1902
G01 X31.2807 Y-37.2024
G01 X31.2822 Y-37.2146
G01 X31.2951 Y-37.3020
G01 X31.2972 Y-37.3141
G01 X31.2999 Y-37.3260
G01 X31.3214 Y-37.4117
G01 X31.3246 Y-37.4235
G01 X31.3285 Y-37.4352
G01 X31.3583 Y-37.5184
G01 X31.3627 Y-37.5298
G01 X31.3676 Y-37.5410
G01 X31.4054 Y-37.6209
G01 X31.4109 Y-37.6318
G01 X31.4170 Y-37.6425
G01 X31.4624 Y-37.7183
G01 X31.4689 Y-37.7286
G01 X31.4760 Y-37.7387
G01 X31.5286 Y-37.8096
G01 X31.5362 Y-37.8193
G01 X31.5442 Y-37.8286
G01 X31.6035 Y-37.8940
G01 X31.6120 Y-37.9029
G01 X31.6208 Y-37.9113
G01 X31.6863 Y-37.9707
G01 X31.6956 Y-37.9787
G01 X31.7053 Y-37.9862
G01 X31.7762 Y-38.0388
G01 X31.7862 Y-38.0459
G01 X31.7966 Y-38.0525
G01 X31.8723 Y-38.0979
G01 X31.8830 Y-38.1039
G01 X31.8940 Y-38.1094
G01 X31.9738 Y-38.1472
G01 X31.9850 Y-38.1522
G01 X31.9965 Y-38.1566
G01 X32.0797 Y-38.1863
G01 X32.0913 Y-38.1902
G01 X32.1031 Y-38.1935
G01 X32.1888 Y-38.2149
G01 X32.2008 Y-38.2176
G01 X32.2129 Y-38.2197
G01 X32.3002 Y-38.2327
G01 X32.3124 Y-38.2342
G01 X32.3246 Y-38.2351
G01 X32.4129 Y-38.2394
G01 X32.4251 Y-38.2397
G01 X32.4374 Y-38.2394
G01 X32.5256 Y-38.2351
G01 X32.5378 Y-38.2342
G01 X32.5500 Y-38.2327
G01 X32.6374 Y-38.2197
G01 X32.6495 Y-38.2176
G01 X32.6615 Y-38.2149
G01 X32.7471 Y-38.1935
G01 X32.7590 Y-38.1902
G01 X32.7706 Y-38.1863
G01 X32.8538 Y-38.1566
G01 X32.8652 Y-38.1522
G01 X32.8764 Y-38.1472
G01 X32.9563 Y-38.1094
G01 X32.9672 Y-38.1039
G01 X32.9779 Y-38.0979
G01 X33.0537 Y-38.0525
G01 X33.0640 Y-38.0459
G01 X33.0741 Y-38.0388
G01 X33.1450 Y-37.9862
G01 X33.1547 Y-37.9787
G01 X33.1640 Y-37.9707
G01 X33.2294 Y-37.9113
G01 X33.2383 Y-37.9029
G01 X33.2468 Y-37.8940
G01 X33.3061 Y-37.8286
G01 X33.3141 Y-37.8193
G01 X33.3216 Y-37.8096
G01 X33.3743 Y-37.7387
G01 X33.3813 Y-37.7286
G01 X33.3879 Y-37.7183
G01 X33.4333 Y-37.6425
G01 X33.4393 Y-37.6318
G01 X33.4449 Y-37.6209
G01 X33.4826 Y-37.5410
G01 X33.4876 Y-37.5298
G01 X33.4920 Y-37.5184
G01 X33.5218 Y-37.4352
G01 X33.5256 Y-37.4235
G01 X33.5289 Y-37.4117
G01 X33.5503 Y-37.3260
G01 X33.5530 Y-37.3141
G01 X33.5551 Y-37.3020
G01 X33.5681 Y-37.2146
G01 X33.5701 Y-37.1963
G01 X33.5748 Y-37.1020
G01 X33.5751 Y-37.0897
G01 X33.5748 Y-37.0774
G01 X33.5705 Y-36.9892
G01 X33.5696 Y-36.9770
G01 X33.5681 Y-36.9648
G01 X33.5551 Y-36.8775
G01 X33.5530 Y-36.8654
G01 X33.5503 Y-36.8534
G01 X33.5289 Y-36.7677
G01 X33.5256 Y-36.7559
G01 X33.5218 Y-36.7442
G01 X33.4920 Y-36.6611
G01 X33.4852 Y-36.6440
G01 X33.4449 Y-36.5586
G01 X33.4393 Y-36.5476
G01 X33.4333 Y-36.5369
G01 X33.3879 Y-36.4612
G01 X33.3813 Y-36.4508
G01 X33.3743 Y-36.4408
G01 X33.3179 Y-36.3650
G01 X33.3061 Y-36.3509
G01 X33.2468 Y-36.2854
G01 X33.2383 Y-36.2765
G01 X33.2294 Y-36.2681
G01 X33.1594 Y-36.2047
G01 X33.1499 Y-36.1969
G01 X33.1353 Y-36.1860
G01 X33.1353 Y-33.3790
G01 X33.1886 Y-33.3201
G01 X33.1967 Y-33.3108
G01 X33.2042 Y-33.3012
G01 X33.2510 Y-33.2381
G01 X33.2580 Y-33.2281
G01 X33.2646 Y-33.2177
G01 X33.3050 Y-33.1504
G01 X33.3110 Y-33.1397
G01 X33.3165 Y-33.1287
G01 X33.3501 Y-33.0578
G01 X33.3551 Y-33.0465
G01 X33.3595 Y-33.0351
G01 X33.3859 Y-32.9612
G01 X33.3898 Y-32.9495
G01 X33.3931 Y-32.9377
G01 X33.4121 Y-32.8615
G01 X33.4148 Y-32.8496
G01 X33.4169 Y-32.8375
G01 X33.4284 Y-32.7598
G01 X33.4299 Y-32.7476
G01 X33.4308 Y-32.7354
G01 X33.4347 Y-32.6570
G01 X33.4350 Y-32.6447
G01 X33.4347 Y-32.6324
G01 X33.4308 Y-32.5540
G01 X33.4299 Y-32.5418
G01 X33.4284 Y-32.5296
G01 X33.4169 Y-32.4520
G01 X33.4148 Y-32.4399
G01 X33.4121 Y-32.4279
G01 X33.3931 Y-32.3517
G01 X33.3898 Y-32.3399
G01 X33.3859 Y-32.3283
G01 X33.3595 Y-32.2543
G01 X33.3551 Y-32.2429
G01 X33.3501 Y-32.2317
G01 X33.3165 Y-32.1607
G01 X33.3110 Y-32.1497
G01 X33.3050 Y-32.1391
G01 X33.2646 Y-32.0717
G01 X33.2580 Y-32.0614
G01 X33.2510 Y-32.0513
G01 X33.2042 Y-31.9883
G01 X33.1967 Y-31.9786
G01 X33.1886 Y-31.9693
G01 X33.1359 Y-31.9111
G01 X33.1275 Y-31.9023
G01 X33.1186 Y-31.8938
G01 X33.0604 Y-31.8411
G01 X33.0511 Y-31.8331
G01 X33.0414 Y-31.8255
G01 X32.9784 Y-31.7787
G01 X32.9683 Y-31.7717
G01 X32.9580 Y-31.7651
G01 X32.8906 Y-31.7247
G01 X32.8800 Y-31.7187
G01 X32.8690 Y-31.7132
G01 X32.7980 Y-31.6796
G01 X32.7868 Y-31.6746
G01 X32.7754 Y-31.6702
G01 X32.7015 Y-31.6438
G01 X32.6898 Y-31.6399
G01 X32.6780 Y-31.6367
G01 X32.6018 Y-31.6176
G01 X32.5898 Y-31.6149
G01 X32.5778 Y-31.6128
G01 X32.5001 Y-31.6013
G01 X32.4879 Y-31.5998
G01 X32.4757 Y-31.5989
G01 X32.3973 Y-31.5950
G01 X32.3850 Y-31.5947
G01 X32.3727 Y-31.5950
G01 X32.2943 Y-31.5989
G01 X32.2821 Y-31.5998
G01 X32.2699 Y-31.6013
G01 X32.1922 Y-31.6128
G01 X32.1802 Y-31.6149
G01 X32.1682 Y-31.6176
G01 X32.0920 Y-31.6367
G01 X32.0802 Y-31.6399
G01 X32.0685 Y-31.6438
G01 X31.9946 Y-31.6702
G01 X31.9832 Y-31.6746
G01 X31.9720 Y-31.6796
G01 X31.9010 Y-31.7132
G01 X31.8900 Y-31.7187
G01 X31.8794 Y-31.7247
G01 X31.8120 Y-31.7651
G01 X31.8017 Y-31.7717
G01 X31.7916 Y-31.7787
G01 X31.7286 Y-31.8255
G01 X31.7189 Y-31.8331
G01 X31.7096 Y-31.8411
G01 X31.6514 Y-31.8938
G01 X31.6425 Y-31.9023
G01 X31.6341 Y-31.9111
G01 X31.5814 Y-31.9693
G01 X31.5733 Y-31.9786
G01 X31.5658 Y-31.9883
G01 X31.5190 Y-32.0513
G01 X31.5120 Y-32.0614
G01 X31.5054 Y-32.0717
G01 X31.4650 Y-32.1391
G01 X31.4590 Y-32.1497
G01 X31.4535 Y-32.1607
G01 X31.4199 Y-32.2317
G01 X31.4149 Y-32.2429
G01 X31.4105 Y-32.2543
G01 X31.3841 Y-32.3283
G01 X31.3802 Y-32.3399
G01 X31.3769 Y-32.3517
G01 X31.3579 Y-32.4279
G01 X31.3552 Y-32.4399
G01 X31.3531 Y-32.4520
G01 X31.3416 Y-32.5296
G01 X31.3401 Y-32.5418
G01 X31.3392 Y-32.5540
G01 X31.3353 Y-32.6324
G01 X31.3350 Y-32.6447
G01 X31.3353 Y-32.6570
G01 X31.3392 Y-32.7354
G01 X31.3401 Y-32.7476
G01 X31.3416 Y-32.7598
G01 X31.3531 Y-32.8375
G01 X31.3552 Y-32.8496
G01 X31.3579 Y-32.8615
G01 X31.3769 Y-32.9377
G01 X31.3802 Y-32.9495
G01 X31.3841 Y-32.9612
G01 X31.4105 Y-33.0351
G01 X31.4149 Y-33.0465
G01 X31.4199 Y-33.0578
G01 X31.4535 Y-33.1287
G01 X31.4590 Y-33.1397
G01 X31.4650 Y-33.1504
G01 X31.5054 Y-33.2177
G01 X31.5120 Y-33.2281
G01 X31.5190 Y-33.2381
G01 X31.5658 Y-33.3012
G01 X31.5733 Y-33.3108
G01 X31.5814 Y-33.3201
G01 X31.6347 Y-33.3790
G00 Z2.0000
G00 X34.1747 Y-33.3790
G01 F60.00
G01 Z-0.2000
G01 F120.00
G01 X34.1747 Y-36.2191
G01 X34.1207 Y-36.2681
G01 X34.1118 Y-36.2765
G01 X34.1034 Y-36.2854
G01 X34.0441 Y-36.3509
G01 X34.0360 Y-36.3602
G01 X34.0285 Y-36.3698
G01 X33.9759 Y-36.4408
G01 X33.9688 Y-36.4508
G01 X33.9622 Y-36.4612
G01 X33.9168 Y-36.5369
G01 X33.9108 Y-36.5476
G01 X33.9053 Y-36.5586
G01 X33.8675 Y-36.6384
G01 X33.8625 Y-36.6496
G01 X33.8581 Y-36.6611
G01 X33.8284 Y-36.7442
G01 X33.8245 Y-36.7559
G01 X33.8212 Y-36.7677
G01 X33.7998 Y-36.8534
G01 X33.7971 Y-36.8654
G01 X33.7950 Y-36.8775
G01 X33.7820 Y-36.9648
G01 X33.7805 Y-36.9770
G01 X33.7796 Y-36.9892
G01 X33.7753 Y-37.0774
G01 X33.7750 Y-37.0897
G01 X33.7753 Y-37.1020
G01 X33.7796 Y-37.1902
G01 X33.7805 Y-37.2024
G01 X33.7820 Y-37.2146
G01 X33.7950 Y-37.3020
G01 X33.7971 Y-37.3141
G01 X33.7998 Y-37.3260
G01 X33.8212 Y-37.4117
G01 X33.8245 Y-37.4235
G01 X33.8284 Y-37.4352
G01 X33.8581 Y-37.5184
G01 X33.8625 Y-37.5298
G01 X33.8675 Y-37.5410
G01 X33.9053 Y-37.6209
G01 X33.9108 Y-37.6318
G01 X33.9168 Y-37.6425
G01 X33.9622 Y-37.7183
G01 X33.9688 Y-37.7286
G01 X33.9759 Y-37.7387
G01 X34.0285 Y-37.8096
G01 X34.0360 Y-37.8193
G01 X34.0441 Y-37.8286
G01 X34.1034 Y-37.8940
G01 X34.1118 Y-37.9029
G01 X34.1207 Y-37.9113
G01 X34.1862 Y-37.9707
G01 X34.1954 Y-37.9787
G01 X34.2051 Y-37.9862
G01 X34.2761 Y-38.0388
G01 X34.2861 Y-38.0459
G01 X34.2965 Y-38.0525
G01 X34.3722 Y-38.0979
G01 X34.3829 Y-38.1039
G01 X34.3939 Y-38.1094
G01 X34.4737 Y-38.1472
G01 X34.4849 Y-38.1522
G01 X34.4964 Y-38.1566
G01 X34.5795 Y-38.1863
G01 X34.5912 Y-38.1902
G01 X34.6030 Y-38.1935
G01 X34.6887 Y-38.2149
G01 X34.7006 Y-38.2176
G01 X34.7127 Y-38.2197
G01 X34.8001 Y-38.2327
G01 X34.8123 Y-38.2342
G01 X34.8245 Y-38.2351
G01 X34.9127 Y-38.2394
G01 X34.9250 Y-38.2397
G01 X34.9373 Y-38.2394
G01 X35.0255 Y-38.2351
G01 X35.0377 Y-38.2342
G01 X35.0499 Y-38.2327
G01 X35.1373 Y-38.2197
G01 X35.1494 Y-38.2176
G01 X35.1613 Y-38.2149
G01 X35.2470 Y-38.1935
G01 X35.2588 Y-38.1902
G01 X35.2705 Y-38.1863
G01 X35.3536 Y-38.1566
G01 X35.3651 Y-38.1522
G01 X35.3763 Y-38.1472
G01 X35.4561 Y-38.1094
G01 X35.4671 Y-38.1039
G01 X35.4778 Y-38.0979
G01 X35.5535 Y-38.0525
G01 X35.5639 Y-38.0459
G01 X35.5739 Y-38.0388
G01 X35.6449 Y-37.9862
G01 X35.6546 Y-37.9787
G01 X35.6638 Y-37.9707
G01 X35.7293 Y-37.9113
G01 X35.7382 Y-37.9029
G01 X35.7466 Y-37.8940
G01 X35.8059 Y-37.8286
G01 X35.8140 Y-37.8193
G01 X35.8215 Y-37.8096
G01 X35.8741 Y-37.7387
G01 X35.8812 Y-37.7286
G01 X35.8878 Y-37.7183
G01 X35.9332 Y-37.6425
G01 X35.9392 Y-37.6318
G01 X35.9447 Y-37.6209
G01 X35.9825 Y-37.5410
G01 X35.9875 Y-37.5298
G01 X35.9919 Y-37.5184
G01 X36.0216 Y-37.4352
G01 X36.0255 Y-37.4235
G01 X36.0288 Y-37.4117
G01 X36.0502 Y-37.3260
G01 X36.0529 Y-37.3141
G01 X36.0550 Y-37.3020
G01 X36.0680 Y-37.2146
G01 X36.0700 Y-37.1963
G01 X36.0747 Y-37.1020
G01 X36.0750 Y-37.0897
G01 X36.0747 Y-37.0774
G01 X36.0704 Y-36.9892
G01 X36.0695 Y-36.9770
G01 X36.0680 Y-36.9648
G01 X36.0550 Y-36.8775
G01 X36.0529 Y-36.8654
G01 X36.0502 Y-36.8534
G01 X36.0288 Y-36.7677
G01 X36.0255 Y-36.7559
G01 X36.0216 Y-36.7442
G01 X35.9919 Y-36.6611
G01 X35.9875 Y-36.6496
G01 X35.9825 Y-36.6384
G01 X35.9447 Y-36.5586
G01 X35.9392 Y-36.5476
G01 X35.9332 Y-36.5369
G01 X35.8878 Y-36.4612
G01 X35.8812 Y-36.4508
G01 X35.8741 Y-36.4408
G01 X35.8215 Y-36.3698
G01 X35.8140 Y-36.3602
G01 X35.8059 Y-36.3509
G01 X35.7466 Y-36.2854
G01 X35.7382 Y-36.2765
G01 X35.7293 Y-36.2681
G01 X35.6753 Y-36.2191
G01 X35.6753 Y-33.3790
G01 X35.7286 Y-33.3201
G01 X35.7367 Y-33.3108
G01 X35.7442 Y-33.3012
G01 X35.7910 Y-33.2381
G01 X35.7980 Y-33.2281
G01 X35.8046 Y-33.2177
G01 X35.8450 Y-33.1504
G01 X35.8510 Y-33.1397
G01 X35.8565 Y-33.1287
G01 X35.8901 Y-33.0578
G01 X35.8951 Y-33.0465
G01 X35.8995 Y-33.0351
G01 X35.9259 Y-32.9612
G01 X35.9298 Y-32.9495
G01 X35.9331 Y-32.9377
G01 X35.9521 Y-32.8615
G01 X35.9548 Y-32.8496
G01 X35.9569 Y-32.8375
G01 X35.9684 Y-32.7598
G01 X35.9699 Y-32.7476
G01 X35.9708 Y-32.7354
G01 X35.9747 Y-32.6570
